; G-Code generated by Simplify3D(R) Version 4.1.2
; Jan 4, 2023 at 11:22:42 AM
; Settings Summary
;   processName,Right Nozzle
;   applyToModels,safety_lever
;   profileName,myDefault (modified)
;   profileVersion,2018-01-19 08:00:00
;   baseProfile,Default
;   printMaterial,PLA
;   printQuality,Medium
;   printExtruders,Right Extruder Only
;   extruderName,Right Extruder,Left Extruder
;   extruderToolheadNumber,0,1
;   extruderDiameter,0.4,0.4
;   extruderAutoWidth,0,1
;   extruderWidth,0.4,0.48
;   extrusionMultiplier,0.9,0.9
;   extruderUseRetract,1,1
;   extruderRetractionDistance,1,4
;   extruderExtraRestartDistance,0,0
;   extruderRetractionZLift,0,0
;   extruderRetractionSpeed,1200,3600
;   extruderUseCoasting,0,1
;   extruderCoastingDistance,0.2,0.8
;   extruderUseWipe,0,0
;   extruderWipeDistance,5,5
;   primaryExtruder,0
;   layerHeight,0.2
;   topSolidLayers,3
;   bottomSolidLayers,3
;   perimeterOutlines,4
;   printPerimetersInsideOut,1
;   startPointOption,2
;   startPointOriginX,0
;   startPointOriginY,0
;   sequentialIslands,0
;   spiralVaseMode,0
;   firstLayerHeightPercentage,90
;   firstLayerWidthPercentage,100
;   firstLayerUnderspeed,0.5
;   useRaft,0
;   raftExtruder,0
;   raftTopLayers,3
;   raftBaseLayers,2
;   raftOffset,3
;   raftSeparationDistance,0.14
;   raftTopInfill,100
;   aboveRaftSpeedMultiplier,0.3
;   useSkirt,1
;   skirtExtruder,0
;   skirtLayers,1
;   skirtOutlines,2
;   skirtOffset,3
;   usePrimePillar,0
;   primePillarExtruder,999
;   primePillarWidth,12
;   primePillarLocation,7
;   primePillarSpeedMultiplier,1
;   useOozeShield,0
;   oozeShieldExtruder,999
;   oozeShieldOffset,2
;   oozeShieldOutlines,1
;   oozeShieldSidewallShape,1
;   oozeShieldSidewallAngle,30
;   oozeShieldSpeedMultiplier,1
;   infillExtruder,0
;   internalInfillPattern,Triangular
;   externalInfillPattern,Rectilinear
;   infillPercentage,80
;   outlineOverlapPercentage,40
;   infillExtrusionWidthPercentage,100
;   minInfillLength,5
;   infillLayerInterval,1
;   internalInfillAngles,0,60,-60
;   overlapInternalInfillAngles,1
;   externalInfillAngles,45,-45
;   generateSupport,1
;   supportExtruder,0
;   supportInfillPercentage,30
;   supportExtraInflation,0
;   supportBaseLayers,0
;   denseSupportExtruder,0
;   denseSupportLayers,0
;   denseSupportInfillPercentage,70
;   supportLayerInterval,1
;   supportHorizontalPartOffset,0.15
;   supportUpperSeparationLayers,1
;   supportLowerSeparationLayers,1
;   supportType,0
;   supportGridSpacing,2
;   maxOverhangAngle,45
;   supportAngles,0
;   temperatureName,Right Extruder,Left Extruder,Heated Build Platform
;   temperatureNumber,0,1,0
;   temperatureSetpointCount,1,1,1
;   temperatureSetpointLayers,1,1,1
;   temperatureSetpointTemperatures,195,0,60
;   temperatureStabilizeAtStartup,0,0,0
;   temperatureHeatedBed,0,0,1
;   fanLayers,1,3
;   fanSpeeds,0,100
;   blipFanToFullPower,0
;   adjustSpeedForCooling,1
;   minSpeedLayerTime,15
;   minCoolingSpeedSlowdown,20
;   increaseFanForCooling,0
;   minFanLayerTime,45
;   maxCoolingFanSpeed,100
;   increaseFanForBridging,1
;   bridgingFanSpeed,100
;   use5D,1
;   relativeEdistances,1
;   allowEaxisZeroing,0
;   independentExtruderAxes,1
;   includeM10123,0
;   stickySupport,1
;   applyToolheadOffsets,0
;   gcodeXoffset,0
;   gcodeYoffset,0
;   gcodeZoffset,0
;   overrideMachineDefinition,1
;   machineTypeOverride,0
;   strokeXoverride,225
;   strokeYoverride,145
;   strokeZoverride,150
;   originOffsetXoverride,112.5
;   originOffsetYoverride,72.5
;   originOffsetZoverride,0
;   homeXdirOverride,1
;   homeYdirOverride,1
;   homeZdirOverride,-1
;   flipXoverride,1
;   flipYoverride,-1
;   flipZoverride,1
;   toolheadOffsets,0,0|34,0|0,0|0,0|0,0|0,0
;   overrideFirmwareConfiguration,1
;   firmwareTypeOverride,MakerBot/Sailfish Firmware
;   GPXconfigOverride,r1d
;   baudRateOverride,115200
;   overridePrinterModels,1
;   printerModelsOverride,FlashForge_CreatorPro.stl
;   startingGcode,; **** Replicator 1 dual start.gcode ****,M73 P0 ; enable build progress,G162 X Y F3000 ; home XY maximum,G161 Z F1200 ; home Z minimum,G92 Z-5 ; set Z to -5,G1 Z0 ; move Z to 0,G161 Z F100 ; home Z slowly,M132 X Y Z A B ; recall home offsets,M135 T0 ; load right extruder offsets,G1 X150 Y-70 Z30 F9000 ; move to wait position right hand side of the table,G130 X20 Y20 Z20 A20 B20 ; lower stepper Vrefs while heating,M126 S[fan_speed_pwm],M140 S[bed0_temperature] T0,M134 T0 ; stabilize bed temperature,M104 S[extruder0_temperature] T0,M133 T0 ; stabilize right extruder temperature,G130 X127 Y127 Z40 A127 B127 ; default stepper Vrefs,G92 A0 B0 ; zero extruders,G1 Z0.4 ; position nozzle,G1 X110 Y-70 E25 F300 ; purge nozzle,G1 X120 Y-70 Z0.15 F1200 ; slow wipe,G1 X110 Y-70 Z0.5 F1200 ; lift,G92 A0 B0 ; zero extruders,M73 P1 ;@body (notify GPX body has started),; **** end of start.gcode ****
;   layerChangeGcode,
;   retractionGcode,
;   toolChangeGcode,
;   endingGcode,; **** Replicator 1 dual end.gcode ****,M73 P100 ; end build progress,G1 Z150 F1000 ; send Z axis to bottom of machine,M140 S0 T0 ; cool down HBP,M104 S0 T0 ; cool down right extruder,M104 S0 T1 ; cool down left extruder,M127 ; stop blower fan,G162 X Y F3000 ; home XY maximum,M18 ; disable stepper,M72 P1 ; play Ta-Da song,; **** end of end.gcode ****
;   exportFileFormat,x3g
;   celebration,0
;   celebrationSong,Random Song
;   postProcessing,
;   defaultSpeed,1200
;   outlineUnderspeed,0.5
;   solidInfillUnderspeed,0.8
;   supportUnderspeed,0.8
;   rapidXYspeed,4200
;   rapidZspeed,1200
;   minBridgingArea,50
;   bridgingExtraInflation,0
;   bridgingExtrusionMultiplier,1
;   bridgingSpeedMultiplier,0.8
;   useFixedBridgingAngle,0
;   fixedBridgingAngle,0
;   applyBridgingToPerimeters,0
;   filamentDiameters,1.75|1.75|1.75|1.75|1.75|1.75
;   filamentPricesPerKg,46|46|46|46|46|46
;   filamentDensities,1.25|1.25|1.25|1.25|1.25|1.25
;   useMinPrintHeight,0
;   minPrintHeight,0
;   useMaxPrintHeight,0
;   maxPrintHeight,30
;   useDiaphragm,1
;   diaphragmLayerInterval,20
;   robustSlicing,1
;   mergeAllIntoSolid,0
;   onlyRetractWhenCrossingOutline,1
;   retractBetweenLayers,1
;   useRetractionMinTravel,0
;   retractionMinTravel,3
;   retractWhileWiping,0
;   onlyWipeOutlines,1
;   avoidCrossingOutline,0
;   maxMovementDetourFactor,3
;   toolChangeRetractionDistance,12
;   toolChangeExtraRestartDistance,-0.5
;   toolChangeRetractionSpeed,600
;   externalThinWallType,0
;   internalThinWallType,2
;   thinWallAllowedOverlapPercentage,10
;   singleExtrusionMinLength,1
;   singleExtrusionMinPrintingWidthPercentage,50
;   singleExtrusionMaxPrintingWidthPercentage,200
;   singleExtrusionEndpointExtension,0.2
;   horizontalSizeCompensation,0
G90
M83
; **** Replicator 1 dual start.gcode ****
M73 P0 ; enable build progress
G162 X Y F3000 ; home XY maximum
G161 Z F1200 ; home Z minimum
G92 Z-5 ; set Z to -5
G1 Z0 ; move Z to 0
G161 Z F100 ; home Z slowly
M132 X Y Z A B ; recall home offsets
M135 T0 ; load right extruder offsets
G1 X150 Y-70 Z30 F9000 ; move to wait position right hand side of the table
G130 X20 Y20 Z20 A20 B20 ; lower stepper Vrefs while heating
M127
M140 S60 T0
M134 T0 ; stabilize bed temperature
M104 S195 T0
M133 T0 ; stabilize right extruder temperature
G130 X127 Y127 Z40 A127 B127 ; default stepper Vrefs
G92 A0 B0 ; zero extruders
G1 Z0.4 ; position nozzle
G1 X110 Y-70 E25 F300 ; purge nozzle
G1 X120 Y-70 Z0.15 F1200 ; slow wipe
G1 X110 Y-70 Z0.5 F1200 ; lift
G92 A0 B0 ; zero extruders
M73 P1 ;@body (notify GPX body has started)
; **** end of start.gcode ****
; process Right Nozzle
; layer 1, Z = 0.180
M135 T0
G1 E-1.0000 F1200
; feature skirt
; tool H0.180 W0.400
G1 Z0.180 F1200
G1 X-4.180 Y-4.820 F4200
G1 E1.0000 F1200
G1 X13.711 Y-4.820 E0.4820 F600
G1 X14.932 Y-3.599 E0.0465
G1 X17.124 Y-3.601 E0.0591
G1 X17.377 Y-3.583 E0.0068
G1 X18.257 Y-3.459 E0.0239
G1 X18.648 Y-3.358 E0.0109
G1 X19.293 Y-3.112 E0.0186
G1 X19.566 Y-2.981 E0.0082
G1 X20.118 Y-2.655 E0.0173
G1 X20.368 Y-2.477 E0.0083
G1 X22.664 Y-0.531 E0.0811
G1 X22.257 Y0.576 E0.0318
G1 X22.600 Y0.918 E0.0130
G1 X22.600 Y5.080 E0.1121
G1 X22.257 Y5.423 E0.0130
G1 X22.664 Y6.530 E0.0318
G1 X20.368 Y8.475 E0.0811
G1 X20.118 Y8.653 E0.0083
G1 X19.566 Y8.979 E0.0173
G1 X19.293 Y9.110 E0.0082
G1 X18.696 Y9.338 E0.0172
G1 X18.404 Y9.422 E0.0082
G1 X17.755 Y9.551 E0.0179
G1 X17.406 Y9.586 E0.0094
G1 X12.768 Y9.596 E0.1250
G1 X12.513 Y9.579 E0.0069
G1 X11.877 Y9.489 E0.0173
G1 X11.533 Y9.405 E0.0095
G1 X10.776 Y9.141 E0.0216
G1 X10.455 Y8.992 E0.0095
G1 X10.164 Y8.820 E0.0091
G1 X-19.711 Y8.820 E0.8049
G1 X-21.820 Y6.711 E0.0803
G1 X-21.820 Y-6.711 E0.3616
G1 X-19.711 Y-8.820 E0.0803
G1 X-6.289 Y-8.820 E0.3616
G1 X-4.180 Y-6.711 E0.0803
G1 X-4.180 Y-4.820 E0.0509
G1 E-1.0000 F1200
G1 X-4.580 Y-4.420 F4200
G1 E1.0000 F1200
G1 X13.546 Y-4.420 E0.4883 F600
G1 X14.766 Y-3.199 E0.0465
G1 X17.110 Y-3.201 E0.0631
G1 X17.335 Y-3.185 E0.0061
G1 X18.179 Y-3.066 E0.0229
G1 X18.527 Y-2.976 E0.0097
G1 X19.135 Y-2.744 E0.0175
G1 X19.377 Y-2.628 E0.0073
G1 X19.900 Y-2.319 E0.0164
G1 X20.122 Y-2.161 E0.0073
G1 X22.192 Y-0.407 E0.0731
G1 X21.794 Y0.678 E0.0311
G1 X22.200 Y1.084 E0.0155
G1 X22.200 Y4.915 E0.1032
G1 X21.794 Y5.320 E0.0155
G1 X22.192 Y6.405 E0.0311
G1 X20.122 Y8.159 E0.0731
G1 X19.900 Y8.317 E0.0073
G1 X19.377 Y8.626 E0.0164
G1 X19.135 Y8.743 E0.0073
G1 X18.569 Y8.959 E0.0163
G1 X18.310 Y9.033 E0.0073
G1 X17.696 Y9.155 E0.0169
G1 X17.386 Y9.186 E0.0084
G1 X12.782 Y9.196 E0.1240
G1 X12.555 Y9.181 E0.0061
G1 X11.952 Y9.096 E0.0164
G1 X11.646 Y9.021 E0.0085
G1 X10.927 Y8.770 E0.0205
G1 X10.642 Y8.637 E0.0085
G1 X10.274 Y8.420 E0.0115
G1 X-19.545 Y8.420 E0.8033
G1 X-21.420 Y6.545 E0.0714
G1 X-21.420 Y-6.545 E0.3527
G1 X-19.545 Y-8.420 E0.0714
G1 X-6.454 Y-8.420 E0.3527
G1 X-4.580 Y-6.545 E0.0714
G1 X-4.580 Y-4.420 E0.0573
G1 E-1.0000 F1200
; feature outer perimeter
G1 X11.200 Y2.609 F4200
G1 E1.0000 F1200
G1 X18.800 Y2.609 E0.2047 F300
G1 X18.800 Y3.389 E0.0210
G1 X11.200 Y3.389 E0.2047
G1 X11.200 Y2.609 E0.0210
; feature gap fill
G1 X11.634 Y3.149 F4200
G1 X11.440 Y2.954 E0.0074 F600
G1 X11.440 Y2.849 E0.0028
G1 X11.900 Y2.849 E0.0124
G1 X12.200 Y3.149 E0.0114
G1 X12.766 Y3.149 E0.0152
G1 X12.466 Y2.849 E0.0114
G1 X13.031 Y2.849 E0.0152
G1 X13.331 Y3.149 E0.0114
G1 X13.897 Y3.149 E0.0152
G1 X13.597 Y2.849 E0.0114
G1 X14.163 Y2.849 E0.0152
G1 X14.463 Y3.149 E0.0114
G1 X15.028 Y3.149 E0.0152
G1 X14.728 Y2.849 E0.0114
G1 X15.294 Y2.849 E0.0152
G1 X15.594 Y3.149 E0.0114
G1 X16.160 Y3.149 E0.0152
G1 X15.860 Y2.849 E0.0114
G1 X16.426 Y2.849 E0.0152
G1 X16.726 Y3.149 E0.0114
G1 X17.291 Y3.149 E0.0152
G1 X16.991 Y2.849 E0.0114
G1 X17.557 Y2.849 E0.0152
G1 X17.857 Y3.149 E0.0114
G1 X18.423 Y3.149 E0.0152
G1 X18.123 Y2.849 E0.0114
G1 E-1.0000 F1200
; feature outer perimeter
G1 X17.799 Y0.389 F4200
G1 E1.0000 F1200
G1 X12.200 Y0.389 E0.1508 F300
G1 X12.219 Y0.378 E0.0006
G1 X12.504 Y0.269 E0.0082
G1 X12.698 Y0.225 E0.0054
G1 X12.899 Y0.202 E0.0054
G1 X16.994 Y0.199 E0.1103
G1 X17.198 Y0.211 E0.0055
G1 X17.498 Y0.270 E0.0082
G1 X17.780 Y0.378 E0.0081
G1 X17.799 Y0.389 E0.0006
G1 E-1.0000 F1200
G1 X17.799 Y5.609 F4200
G1 E1.0000 F1200
G1 X17.780 Y5.620 E0.0006 F300
G1 X17.498 Y5.728 E0.0081
G1 X17.198 Y5.788 E0.0082
G1 X16.994 Y5.799 E0.0055
G1 X12.903 Y5.796 E0.1102
G1 X12.597 Y5.753 E0.0083
G1 X12.405 Y5.698 E0.0054
G1 X12.222 Y5.622 E0.0054
G1 X12.200 Y5.609 E0.0007
G1 X17.799 Y5.609 E0.1508
G1 E-1.0000 F1200
; feature support
G1 X10.650 Y4.000 F4200
G1 E1.0000 F1200
G1 X-18.010 Y4.000 E0.7721 F480
G1 X-18.010 Y2.667 E0.0359
G1 X10.010 Y2.667 E0.7549
G1 X10.010 Y1.333 E0.0359
G1 X-18.010 Y1.333 E0.7549
G1 X-18.010 Y0.000 E0.0359
G1 X-15.990 Y0.000 E0.0544
G1 X-15.990 Y-0.990 E0.0267
G1 X-13.990 Y-0.990 E0.0539
G1 X-13.990 Y-1.333 E0.0092
G1 X-18.010 Y-1.333 E0.1083
G1 X-18.010 Y-2.667 E0.0359
G1 X-13.990 Y-2.667 E0.1083
G1 X-13.990 Y-2.990 E0.0087
G1 X-12.010 Y-2.990 E0.0533
G1 X-12.010 Y-2.667 E0.0087
G1 X-7.990 Y-2.667 E0.1083
G1 X-7.990 Y-4.000 E0.0359
G1 X-18.010 Y-4.000 E0.2699
G1 E-1.0000 F1200
G1 X-12.010 Y-1.333 F4200
G1 E1.0000 F1200
G1 X-7.990 Y-1.333 E0.1083 F480
G1 X-7.990 Y-1.010 E0.0087
G1 X12.010 Y-1.010 E0.5388
G1 X12.010 Y-0.142 E0.0234
G1 X11.975 Y-0.128 E0.0010
G1 X11.758 Y0.000 E0.0068
G1 X-12.010 Y0.000 E0.6403
G1 E-1.0000 F1200
; layer 2, Z = 0.380
; feature outer perimeter
; tool H0.200 W0.400
G1 Z0.380 F1200
G1 X11.200 Y2.419 F4200
G1 E1.0000 F1200
G1 X18.800 Y2.419 E0.2275 F600
G1 X18.800 Y3.579 E0.0347
G1 X11.200 Y3.579 E0.2275
G1 X11.200 Y2.419 E0.0347
; feature gap fill
G1 X11.440 Y2.702 F4200
G1 X11.483 Y2.659 E0.0018 F1200
G1 X12.049 Y2.659 E0.0169
G1 X11.440 Y3.268 E0.0258
G1 X11.440 Y3.339 E0.0021
G1 X11.934 Y3.339 E0.0148
G1 X12.614 Y2.659 E0.0288
G1 X13.180 Y2.659 E0.0169
G1 X12.500 Y3.339 E0.0288
G1 X13.066 Y3.339 E0.0169
G1 X13.746 Y2.659 E0.0288
G1 X14.312 Y2.659 E0.0169
G1 X13.632 Y3.339 E0.0288
G1 X14.197 Y3.339 E0.0169
G1 X14.877 Y2.659 E0.0288
G1 X15.443 Y2.659 E0.0169
G1 X14.763 Y3.339 E0.0288
G1 X15.329 Y3.339 E0.0169
G1 X16.009 Y2.659 E0.0288
G1 X16.574 Y2.659 E0.0169
G1 X15.894 Y3.339 E0.0288
G1 X16.460 Y3.339 E0.0169
G1 X17.140 Y2.659 E0.0288
G1 X17.706 Y2.659 E0.0169
G1 X17.026 Y3.339 E0.0288
G1 X17.591 Y3.339 E0.0169
G1 X18.271 Y2.659 E0.0288
G1 X18.560 Y2.659 E0.0086
G1 X18.560 Y2.936 E0.0083
G1 X18.157 Y3.339 E0.0170
G1 E-1.0000 F1200
; feature outer perimeter
G1 X18.102 Y5.419 F4200
G1 E1.0000 F1200
G1 X18.042 Y5.467 E0.0023 F600
G1 X17.870 Y5.574 E0.0061
G1 X17.689 Y5.662 E0.0060
G1 X17.501 Y5.728 E0.0060
G1 X17.198 Y5.788 E0.0092
G1 X16.994 Y5.799 E0.0061
G1 X12.901 Y5.796 E0.1225
G1 X12.698 Y5.773 E0.0061
G1 X12.501 Y5.728 E0.0060
G1 X12.311 Y5.662 E0.0060
G1 X12.129 Y5.574 E0.0060
G1 X11.958 Y5.467 E0.0061
G1 X11.898 Y5.419 E0.0023
G1 X18.102 Y5.419 E0.1857
G1 E-1.0000 F1200
G1 X18.102 Y0.579 F4200
G1 E1.0000 F1200
G1 X11.898 Y0.579 E0.1857 F600
G1 X11.958 Y0.532 E0.0023
G1 X12.129 Y0.424 E0.0061
G1 X12.311 Y0.336 E0.0060
G1 X12.501 Y0.270 E0.0060
G1 X12.698 Y0.225 E0.0060
G1 X12.899 Y0.202 E0.0060
G1 X16.994 Y0.199 E0.1226
G1 X17.198 Y0.211 E0.0061
G1 X17.501 Y0.271 E0.0092
G1 X17.689 Y0.336 E0.0060
G1 X17.870 Y0.424 E0.0060
G1 X18.041 Y0.532 E0.0061
G1 X18.102 Y0.579 E0.0023
G1 E-1.0000 F1200
; feature support
G1 X10.640 Y4.000 F4200
G1 E1.0000 F1200
G1 X-18.010 Y4.000 E0.8576 F960
G1 X-18.010 Y2.667 E0.0399
G1 X10.010 Y2.667 E0.8388
G1 X10.010 Y1.333 E0.0399
G1 X-18.010 Y1.333 E0.8388
G1 X-18.010 Y0.000 E0.0399
G1 X-15.990 Y0.000 E0.0605
G1 X-15.990 Y-0.990 E0.0296
G1 X-13.990 Y-0.990 E0.0599
G1 X-13.990 Y-1.333 E0.0103
G1 X-18.010 Y-1.333 E0.1203
G1 X-18.010 Y-2.667 E0.0399
G1 X-13.990 Y-2.667 E0.1203
G1 X-13.990 Y-2.990 E0.0097
G1 X-12.010 Y-2.990 E0.0593
G1 X-12.010 Y-2.667 E0.0097
G1 X-7.990 Y-2.667 E0.1203
G1 X-7.990 Y-4.000 E0.0399
G1 X-18.010 Y-4.000 E0.2999
G1 E-1.0000 F1200
G1 X-12.010 Y-1.333 F4200
G1 E1.0000 F1200
G1 X-7.990 Y-1.333 E0.1203 F960
G1 X-7.990 Y-1.010 E0.0097
G1 X12.010 Y-1.010 E0.5987
G1 X12.010 Y-0.140 E0.0260
G1 X11.858 Y-0.067 E0.0051
G1 X11.751 Y0.000 E0.0038
G1 X-12.010 Y0.000 E0.7113
G1 E-1.0000 F1200
; layer 3, Z = 0.580
M126 S255
; feature inner perimeter
G1 Z0.580 F1200
G1 X11.600 Y2.619 F4200
G1 E1.0000 F1200
G1 X18.400 Y2.619 E0.2036 F900
G1 X18.400 Y3.379 E0.0227
G1 X11.600 Y3.379 E0.2036
G1 X11.600 Y2.619 E0.0227
; feature outer perimeter
G1 X11.200 Y2.219 F4200
G1 X18.800 Y2.219 E0.2275 F600
G1 X18.800 Y3.779 E0.0467
G1 X11.200 Y3.779 E0.2275
G1 X11.200 Y2.219 E0.0467
; feature gap fill
