; G-Code generated by Simplify3D(R) Version 4.1.2
; Nov 6, 2022 at 3:24:36 PM
; Settings Summary
;   processName,Right Nozzle
;   applyToModels,barrel_spacer
;   profileName,myDefault (modified)
;   profileVersion,2018-01-19 08:00:00
;   baseProfile,Default
;   printMaterial,PLA
;   printQuality,Medium
;   printExtruders,Right Extruder Only
;   extruderName,Right Extruder,Left Extruder
;   extruderToolheadNumber,0,1
;   extruderDiameter,0.4,0.4
;   extruderAutoWidth,0,1
;   extruderWidth,0.4,0.48
;   extrusionMultiplier,0.9,0.9
;   extruderUseRetract,1,1
;   extruderRetractionDistance,1,4
;   extruderExtraRestartDistance,0,0
;   extruderRetractionZLift,0,0
;   extruderRetractionSpeed,1200,3600
;   extruderUseCoasting,0,1
;   extruderCoastingDistance,0.2,0.8
;   extruderUseWipe,0,0
;   extruderWipeDistance,5,5
;   primaryExtruder,0
;   layerHeight,0.2
;   topSolidLayers,3
;   bottomSolidLayers,3
;   perimeterOutlines,4
;   printPerimetersInsideOut,1
;   startPointOption,2
;   startPointOriginX,0
;   startPointOriginY,0
;   sequentialIslands,0
;   spiralVaseMode,0
;   firstLayerHeightPercentage,90
;   firstLayerWidthPercentage,100
;   firstLayerUnderspeed,0.5
;   useRaft,0
;   raftExtruder,0
;   raftTopLayers,3
;   raftBaseLayers,2
;   raftOffset,3
;   raftSeparationDistance,0.14
;   raftTopInfill,100
;   aboveRaftSpeedMultiplier,0.3
;   useSkirt,1
;   skirtExtruder,0
;   skirtLayers,1
;   skirtOutlines,2
;   skirtOffset,3
;   usePrimePillar,0
;   primePillarExtruder,999
;   primePillarWidth,12
;   primePillarLocation,7
;   primePillarSpeedMultiplier,1
;   useOozeShield,0
;   oozeShieldExtruder,999
;   oozeShieldOffset,2
;   oozeShieldOutlines,1
;   oozeShieldSidewallShape,1
;   oozeShieldSidewallAngle,30
;   oozeShieldSpeedMultiplier,1
;   infillExtruder,0
;   internalInfillPattern,Triangular
;   externalInfillPattern,Rectilinear
;   infillPercentage,90
;   outlineOverlapPercentage,20
;   infillExtrusionWidthPercentage,100
;   minInfillLength,5
;   infillLayerInterval,1
;   internalInfillAngles,0,60,-60
;   overlapInternalInfillAngles,1
;   externalInfillAngles,45,-45
;   generateSupport,1
;   supportExtruder,0
;   supportInfillPercentage,30
;   supportExtraInflation,0
;   supportBaseLayers,0
;   denseSupportExtruder,0
;   denseSupportLayers,0
;   denseSupportInfillPercentage,70
;   supportLayerInterval,1
;   supportHorizontalPartOffset,0.3
;   supportUpperSeparationLayers,1
;   supportLowerSeparationLayers,1
;   supportType,0
;   supportGridSpacing,2.5
;   maxOverhangAngle,45
;   supportAngles,0
;   temperatureName,Right Extruder,Left Extruder,Heated Build Platform
;   temperatureNumber,0,1,0
;   temperatureSetpointCount,1,1,1
;   temperatureSetpointLayers,1,1,1
;   temperatureSetpointTemperatures,195,0,60
;   temperatureStabilizeAtStartup,0,0,0
;   temperatureHeatedBed,0,0,1
;   fanLayers,1,3
;   fanSpeeds,0,100
;   blipFanToFullPower,0
;   adjustSpeedForCooling,1
;   minSpeedLayerTime,15
;   minCoolingSpeedSlowdown,20
;   increaseFanForCooling,0
;   minFanLayerTime,45
;   maxCoolingFanSpeed,100
;   increaseFanForBridging,1
;   bridgingFanSpeed,100
;   use5D,1
;   relativeEdistances,1
;   allowEaxisZeroing,0
;   independentExtruderAxes,1
;   includeM10123,0
;   stickySupport,1
;   applyToolheadOffsets,0
;   gcodeXoffset,0
;   gcodeYoffset,0
;   gcodeZoffset,0
;   overrideMachineDefinition,1
;   machineTypeOverride,0
;   strokeXoverride,225
;   strokeYoverride,145
;   strokeZoverride,150
;   originOffsetXoverride,112.5
;   originOffsetYoverride,72.5
;   originOffsetZoverride,0
;   homeXdirOverride,1
;   homeYdirOverride,1
;   homeZdirOverride,-1
;   flipXoverride,1
;   flipYoverride,-1
;   flipZoverride,1
;   toolheadOffsets,0,0|34,0|0,0|0,0|0,0|0,0
;   overrideFirmwareConfiguration,1
;   firmwareTypeOverride,MakerBot/Sailfish Firmware
;   GPXconfigOverride,r1d
;   baudRateOverride,115200
;   overridePrinterModels,1
;   printerModelsOverride,FlashForge_CreatorPro.stl
;   startingGcode,; **** Replicator 1 dual start.gcode ****,M73 P0 ; enable build progress,G162 X Y F3000 ; home XY maximum,G161 Z F1200 ; home Z minimum,G92 Z-5 ; set Z to -5,G1 Z0 ; move Z to 0,G161 Z F100 ; home Z slowly,M132 X Y Z A B ; recall home offsets,M135 T0 ; load right extruder offsets,G1 X150 Y-70 Z30 F9000 ; move to wait position right hand side of the table,G130 X20 Y20 Z20 A20 B20 ; lower stepper Vrefs while heating,M126 S[fan_speed_pwm],M140 S[bed0_temperature] T0,M134 T0 ; stabilize bed temperature,M104 S[extruder0_temperature] T0,M133 T0 ; stabilize right extruder temperature,G130 X127 Y127 Z40 A127 B127 ; default stepper Vrefs,G92 A0 B0 ; zero extruders,G1 Z0.4 ; position nozzle,G1 X110 Y-70 E25 F300 ; purge nozzle,G1 X120 Y-70 Z0.15 F1200 ; slow wipe,G1 X110 Y-70 Z0.5 F1200 ; lift,G92 A0 B0 ; zero extruders,M73 P1 ;@body (notify GPX body has started),; **** end of start.gcode ****
;   layerChangeGcode,
;   retractionGcode,
;   toolChangeGcode,
;   endingGcode,; **** Replicator 1 dual end.gcode ****,M73 P100 ; end build progress,G1 Z150 F1000 ; send Z axis to bottom of machine,M140 S0 T0 ; cool down HBP,M104 S0 T0 ; cool down right extruder,M104 S0 T1 ; cool down left extruder,M127 ; stop blower fan,G162 X Y F3000 ; home XY maximum,M18 ; disable stepper,M72 P1 ; play Ta-Da song,; **** end of end.gcode ****
;   exportFileFormat,x3g
;   celebration,0
;   celebrationSong,Random Song
;   postProcessing,
;   defaultSpeed,3000
;   outlineUnderspeed,0.5
;   solidInfillUnderspeed,0.8
;   supportUnderspeed,0.8
;   rapidXYspeed,4200
;   rapidZspeed,1200
;   minBridgingArea,50
;   bridgingExtraInflation,0
;   bridgingExtrusionMultiplier,1
;   bridgingSpeedMultiplier,0.8
;   useFixedBridgingAngle,0
;   fixedBridgingAngle,0
;   applyBridgingToPerimeters,0
;   filamentDiameters,1.75|1.75|1.75|1.75|1.75|1.75
;   filamentPricesPerKg,46|46|46|46|46|46
;   filamentDensities,1.25|1.25|1.25|1.25|1.25|1.25
;   useMinPrintHeight,0
;   minPrintHeight,0
;   useMaxPrintHeight,0
;   maxPrintHeight,30
;   useDiaphragm,1
;   diaphragmLayerInterval,20
;   robustSlicing,1
;   mergeAllIntoSolid,0
;   onlyRetractWhenCrossingOutline,1
;   retractBetweenLayers,1
;   useRetractionMinTravel,0
;   retractionMinTravel,3
;   retractWhileWiping,0
;   onlyWipeOutlines,1
;   avoidCrossingOutline,0
;   maxMovementDetourFactor,3
;   toolChangeRetractionDistance,12
;   toolChangeExtraRestartDistance,-0.5
;   toolChangeRetractionSpeed,600
;   externalThinWallType,0
;   internalThinWallType,2
;   thinWallAllowedOverlapPercentage,10
;   singleExtrusionMinLength,1
;   singleExtrusionMinPrintingWidthPercentage,50
;   singleExtrusionMaxPrintingWidthPercentage,200
;   singleExtrusionEndpointExtension,0.2
;   horizontalSizeCompensation,0
G90
M83
; **** Replicator 1 dual start.gcode ****
M73 P0 ; enable build progress
G162 X Y F3000 ; home XY maximum
G161 Z F1200 ; home Z minimum
G92 Z-5 ; set Z to -5
G1 Z0 ; move Z to 0
G161 Z F100 ; home Z slowly
M132 X Y Z A B ; recall home offsets
M135 T0 ; load right extruder offsets
G1 X150 Y-70 Z30 F9000 ; move to wait position right hand side of the table
G130 X20 Y20 Z20 A20 B20 ; lower stepper Vrefs while heating
M127
M140 S60 T0
M134 T0 ; stabilize bed temperature
M104 S195 T0
M133 T0 ; stabilize right extruder temperature
G130 X127 Y127 Z40 A127 B127 ; default stepper Vrefs
G92 A0 B0 ; zero extruders
G1 Z0.4 ; position nozzle
G1 X110 Y-70 E25 F300 ; purge nozzle
G1 X120 Y-70 Z0.15 F1200 ; slow wipe
G1 X110 Y-70 Z0.5 F1200 ; lift
G92 A0 B0 ; zero extruders
M73 P1 ;@body (notify GPX body has started)
; **** end of start.gcode ****
; process Right Nozzle
; layer 1, Z = 0.180
M135 T0
G1 E-1.0000 F1200
; feature skirt
; tool H0.180 W0.400
G1 Z0.180 F1200
G1 X-9.787 Y0.518 F4200
G1 E1.0000 F1200
G1 X-9.787 Y-0.511 E0.0277 F1044
G1 X-9.773 Y-0.743 E0.0062
G1 X-9.641 Y-1.760 E0.0276
G1 X-9.597 Y-1.987 E0.0062
G1 X-9.337 Y-2.978 E0.0276
G1 X-9.264 Y-3.198 E0.0062
G1 X-8.880 Y-4.148 E0.0276
G1 X-8.779 Y-4.356 E0.0062
G1 X-8.276 Y-5.249 E0.0276
G1 X-8.150 Y-5.443 E0.0062
G1 X-7.537 Y-6.265 E0.0276
G1 X-7.387 Y-6.441 E0.0062
G1 X-6.674 Y-7.177 E0.0276
G1 X-6.503 Y-7.332 E0.0062
G1 X-5.701 Y-7.972 E0.0276
G1 X-5.512 Y-8.104 E0.0062
G1 X-4.635 Y-8.635 E0.0276
G1 X-4.431 Y-8.742 E0.0062
G1 X-3.493 Y-9.157 E0.0276
G1 X-3.276 Y-9.237 E0.0062
G1 X-2.293 Y-9.529 E0.0276
G1 X-2.068 Y-9.580 E0.0062
G1 X-1.056 Y-9.744 E0.0276
G1 X-0.826 Y-9.766 E0.0062
G1 X0.199 Y-9.799 E0.0276
G1 X0.429 Y-9.791 E0.0062
G1 X1.450 Y-9.693 E0.0276
G1 X1.678 Y-9.656 E0.0062
G1 X2.678 Y-9.428 E0.0276
G1 X2.899 Y-9.362 E0.0062
G1 X3.861 Y-9.008 E0.0276
G1 X4.072 Y-8.914 E0.0062
G1 X4.981 Y-8.440 E0.0276
G1 X5.179 Y-8.321 E0.0062
G1 X6.020 Y-7.734 E0.0276
G1 X6.200 Y-7.590 E0.0062
G1 X6.959 Y-6.901 E0.0276
G1 X7.120 Y-6.735 E0.0062
G1 X7.785 Y-5.954 E0.0276
G1 X7.923 Y-5.769 E0.0062
G1 X8.482 Y-4.910 E0.0276
G1 X8.596 Y-4.708 E0.0062
G1 X9.040 Y-3.785 E0.0276
G1 X9.127 Y-3.571 E0.0062
G1 X9.450 Y-2.597 E0.0276
G1 X9.509 Y-2.374 E0.0062
G1 X9.705 Y-1.368 E0.0276
G1 X9.734 Y-1.139 E0.0062
G1 X9.800 Y-0.115 E0.0276
G1 X9.800 Y0.115 E0.0062
G1 X9.734 Y1.139 E0.0276
G1 X9.705 Y1.368 E0.0062
G1 X9.509 Y2.374 E0.0276
G1 X9.450 Y2.597 E0.0062
G1 X9.127 Y3.571 E0.0276
G1 X9.040 Y3.785 E0.0062
G1 X8.596 Y4.708 E0.0276
G1 X8.482 Y4.910 E0.0062
G1 X7.923 Y5.769 E0.0276
G1 X7.785 Y5.954 E0.0062
G1 X7.120 Y6.735 E0.0276
G1 X6.959 Y6.901 E0.0062
G1 X6.200 Y7.590 E0.0276
G1 X6.020 Y7.734 E0.0062
G1 X5.179 Y8.321 E0.0276
G1 X4.981 Y8.440 E0.0062
G1 X4.072 Y8.914 E0.0276
G1 X3.861 Y9.008 E0.0062
G1 X2.899 Y9.362 E0.0276
G1 X2.678 Y9.428 E0.0062
G1 X1.678 Y9.656 E0.0276
G1 X1.450 Y9.693 E0.0062
G1 X0.429 Y9.791 E0.0276
G1 X0.199 Y9.799 E0.0062
G1 X-0.826 Y9.766 E0.0276
G1 X-1.056 Y9.744 E0.0062
G1 X-2.068 Y9.580 E0.0276
G1 X-2.293 Y9.529 E0.0062
G1 X-3.276 Y9.237 E0.0276
G1 X-3.493 Y9.157 E0.0062
G1 X-4.431 Y8.742 E0.0276
G1 X-4.635 Y8.635 E0.0062
G1 X-5.512 Y8.104 E0.0276
G1 X-5.701 Y7.972 E0.0062
G1 X-6.503 Y7.332 E0.0276
G1 X-6.674 Y7.177 E0.0062
G1 X-7.387 Y6.441 E0.0276
G1 X-7.537 Y6.265 E0.0062
G1 X-8.150 Y5.443 E0.0276
G1 X-8.276 Y5.249 E0.0062
G1 X-8.779 Y4.356 E0.0276
G1 X-8.880 Y4.148 E0.0062
G1 X-9.264 Y3.198 E0.0276
G1 X-9.337 Y2.978 E0.0062
G1 X-9.597 Y1.987 E0.0276
G1 X-9.641 Y1.760 E0.0062
G1 X-9.772 Y0.747 E0.0275
G1 X-9.787 Y0.518 E0.0062
G1 E-1.0000 F1200
G1 X-9.387 Y0.505 F4200
G1 E1.0000 F1200
G1 X-9.387 Y-0.498 E0.0270 F1044
G1 X-9.374 Y-0.704 E0.0056
G1 X-9.246 Y-1.696 E0.0269
G1 X-9.207 Y-1.898 E0.0055
G1 X-8.953 Y-2.865 E0.0269
G1 X-8.889 Y-3.059 E0.0055
G1 X-8.514 Y-3.986 E0.0269
G1 X-8.425 Y-4.171 E0.0055
G1 X-7.934 Y-5.042 E0.0269
G1 X-7.822 Y-5.214 E0.0055
G1 X-7.224 Y-6.015 E0.0269
G1 X-7.091 Y-6.171 E0.0055
G1 X-6.396 Y-6.890 E0.0269
G1 X-6.244 Y-7.028 E0.0055
G1 X-5.462 Y-7.651 E0.0269
G1 X-5.294 Y-7.768 E0.0055
G1 X-4.439 Y-8.287 E0.0269
G1 X-4.257 Y-8.381 E0.0055
G1 X-3.343 Y-8.786 E0.0269
G1 X-3.150 Y-8.857 E0.0055
G1 X-2.192 Y-9.141 E0.0269
G1 X-1.992 Y-9.187 E0.0055
G1 X-1.005 Y-9.347 E0.0269
G1 X-0.800 Y-9.366 E0.0055
G1 X0.199 Y-9.398 E0.0269
G1 X0.404 Y-9.392 E0.0055
G1 X1.399 Y-9.296 E0.0269
G1 X1.602 Y-9.263 E0.0055
G1 X2.576 Y-9.041 E0.0269
G1 X2.773 Y-8.982 E0.0055
G1 X3.711 Y-8.637 E0.0269
G1 X3.899 Y-8.554 E0.0055
G1 X4.785 Y-8.092 E0.0269
G1 X4.961 Y-7.985 E0.0055
G1 X5.781 Y-7.413 E0.0269
G1 X5.941 Y-7.285 E0.0055
G1 X6.681 Y-6.613 E0.0269
G1 X6.824 Y-6.466 E0.0055
G1 X7.472 Y-5.704 E0.0269
G1 X7.595 Y-5.540 E0.0055
G1 X8.140 Y-4.702 E0.0269
G1 X8.241 Y-4.523 E0.0055
G1 X8.675 Y-3.623 E0.0269
G1 X8.752 Y-3.432 E0.0055
G1 X9.067 Y-2.484 E0.0269
G1 X9.119 Y-2.285 E0.0055
G1 X9.310 Y-1.304 E0.0269
G1 X9.336 Y-1.100 E0.0055
G1 X9.400 Y-0.103 E0.0269
G1 X9.400 Y0.103 E0.0055
G1 X9.336 Y1.100 E0.0269
G1 X9.310 Y1.304 E0.0055
G1 X9.119 Y2.285 E0.0269
G1 X9.067 Y2.484 E0.0055
G1 X8.752 Y3.432 E0.0269
G1 X8.675 Y3.623 E0.0055
G1 X8.241 Y4.523 E0.0269
G1 X8.140 Y4.702 E0.0055
G1 X7.595 Y5.540 E0.0269
G1 X7.472 Y5.704 E0.0055
G1 X6.824 Y6.466 E0.0269
G1 X6.681 Y6.613 E0.0055
G1 X5.941 Y7.285 E0.0269
G1 X5.781 Y7.413 E0.0055
G1 X4.961 Y7.985 E0.0269
G1 X4.785 Y8.092 E0.0055
G1 X3.899 Y8.554 E0.0269
G1 X3.711 Y8.637 E0.0055
G1 X2.773 Y8.982 E0.0269
G1 X2.576 Y9.041 E0.0055
G1 X1.602 Y9.263 E0.0269
G1 X1.399 Y9.296 E0.0055
G1 X0.404 Y9.392 E0.0269
G1 X0.199 Y9.398 E0.0055
G1 X-0.800 Y9.366 E0.0269
G1 X-1.005 Y9.347 E0.0055
G1 X-1.992 Y9.187 E0.0269
G1 X-2.192 Y9.141 E0.0055
G1 X-3.150 Y8.857 E0.0269
G1 X-3.343 Y8.786 E0.0055
G1 X-4.257 Y8.381 E0.0269
G1 X-4.439 Y8.287 E0.0055
G1 X-5.294 Y7.768 E0.0269
G1 X-5.462 Y7.651 E0.0055
G1 X-6.244 Y7.028 E0.0269
G1 X-6.396 Y6.890 E0.0055
G1 X-7.091 Y6.171 E0.0269
G1 X-7.224 Y6.015 E0.0055
G1 X-7.822 Y5.214 E0.0269
G1 X-7.934 Y5.042 E0.0055
G1 X-8.425 Y4.171 E0.0269
G1 X-8.514 Y3.986 E0.0055
G1 X-8.889 Y3.059 E0.0269
G1 X-8.953 Y2.865 E0.0055
G1 X-9.207 Y1.898 E0.0269
G1 X-9.246 Y1.696 E0.0055
G1 X-9.374 Y0.709 E0.0268
G1 X-9.387 Y0.505 E0.0055
G1 E-1.0000 F1200
; feature inner perimeter
G1 X-5.588 Y0.352 F4200
G1 E1.0000 F1200
G1 X-5.600 Y-0.000 E0.0095 F783
G1 X-5.589 Y-0.349 E0.0094
G1 X-5.495 Y-1.070 E0.0196
G1 X-5.314 Y-1.764 E0.0193
G1 X-5.044 Y-2.429 E0.0193
G1 X-4.692 Y-3.054 E0.0193
G1 X-4.263 Y-3.629 E0.0193
G1 X-3.764 Y-4.145 E0.0193
G1 X-3.203 Y-4.592 E0.0193
G1 X-2.590 Y-4.964 E0.0193
G1 X-1.934 Y-5.254 E0.0193
G1 X-1.246 Y-5.458 E0.0193
G1 X-0.538 Y-5.573 E0.0193
G1 X0.179 Y-5.596 E0.0193
G1 X0.894 Y-5.527 E0.0193
G1 X1.593 Y-5.367 E0.0193
G1 X2.266 Y-5.120 E0.0193
G1 X2.902 Y-4.788 E0.0193
G1 X3.491 Y-4.377 E0.0193
G1 X4.022 Y-3.895 E0.0193
G1 X4.487 Y-3.349 E0.0193
G1 X4.878 Y-2.747 E0.0193
G1 X5.190 Y-2.101 E0.0193
G1 X5.416 Y-1.420 E0.0193
G1 X5.553 Y-0.716 E0.0193
G1 X5.599 Y0.000 E0.0193
G1 X5.553 Y0.716 E0.0193
G1 X5.416 Y1.420 E0.0193
G1 X5.190 Y2.101 E0.0193
G1 X4.878 Y2.747 E0.0193
G1 X4.487 Y3.349 E0.0193
G1 X4.022 Y3.895 E0.0193
G1 X3.491 Y4.377 E0.0193
G1 X2.902 Y4.788 E0.0193
G1 X2.266 Y5.120 E0.0193
G1 X1.593 Y5.367 E0.0193
G1 X0.894 Y5.527 E0.0193
G1 X0.179 Y5.596 E0.0193
G1 X-0.538 Y5.573 E0.0193
G1 X-1.246 Y5.458 E0.0193
G1 X-1.934 Y5.254 E0.0193
G1 X-2.590 Y4.964 E0.0193
G1 X-3.203 Y4.592 E0.0193
G1 X-3.764 Y4.145 E0.0193
G1 X-4.263 Y3.629 E0.0193
G1 X-4.692 Y3.054 E0.0193
G1 X-5.044 Y2.429 E0.0193
G1 X-5.314 Y1.764 E0.0193
G1 X-5.495 Y1.070 E0.0193
G1 X-5.588 Y0.352 E0.0195
; feature outer perimeter
G1 X-5.987 Y0.385 F4200
G1 X-6.000 Y-0.000 E0.0104 F522
G1 X-5.988 Y-0.381 E0.0103
G1 X-5.889 Y-1.147 E0.0208
G1 X-5.694 Y-1.891 E0.0207
G1 X-5.405 Y-2.603 E0.0207
G1 X-5.028 Y-3.273 E0.0207
G1 X-4.568 Y-3.889 E0.0207
G1 X-4.034 Y-4.441 E0.0207
G1 X-3.432 Y-4.921 E0.0207
G1 X-2.775 Y-5.319 E0.0207
G1 X-2.072 Y-5.630 E0.0207
G1 X-1.335 Y-5.849 E0.0207
G1 X-0.576 Y-5.972 E0.0207
G1 X0.192 Y-5.997 E0.0207
G1 X0.958 Y-5.923 E0.0207
G1 X1.707 Y-5.752 E0.0207
G1 X2.429 Y-5.486 E0.0207
G1 X3.110 Y-5.130 E0.0207
G1 X3.741 Y-4.691 E0.0207
G1 X4.310 Y-4.174 E0.0207
G1 X4.808 Y-3.588 E0.0207
G1 X5.228 Y-2.944 E0.0207
G1 X5.561 Y-2.251 E0.0207
G1 X5.803 Y-1.522 E0.0207
G1 X5.950 Y-0.767 E0.0207
G1 X6.000 Y0.000 E0.0207
G1 X5.950 Y0.767 E0.0207
G1 X5.803 Y1.522 E0.0207
G1 X5.561 Y2.251 E0.0207
G1 X5.228 Y2.944 E0.0207
G1 X4.808 Y3.588 E0.0207
G1 X4.310 Y4.174 E0.0207
G1 X3.741 Y4.691 E0.0207
G1 X3.110 Y5.130 E0.0207
G1 X2.429 Y5.486 E0.0207
G1 X1.707 Y5.752 E0.0207
G1 X0.958 Y5.923 E0.0207
G1 X0.192 Y5.997 E0.0207
G1 X-0.576 Y5.972 E0.0207
G1 X-1.335 Y5.849 E0.0207
G1 X-2.072 Y5.630 E0.0207
G1 X-2.775 Y5.319 E0.0207
G1 X-3.432 Y4.921 E0.0207
G1 X-4.034 Y4.441 E0.0207
