; G-Code generated by Simplify3D(R) Version 4.1.2
; Nov 6, 2022 at 3:25:57 PM
; Settings Summary
;   processName,Right Nozzle
;   applyToModels,base_plate
;   profileName,myDefault (modified)
;   profileVersion,2018-01-19 08:00:00
;   baseProfile,Default
;   printMaterial,PLA
;   printQuality,Medium
;   printExtruders,Right Extruder Only
;   extruderName,Right Extruder,Left Extruder
;   extruderToolheadNumber,0,1
;   extruderDiameter,0.4,0.4
;   extruderAutoWidth,0,1
;   extruderWidth,0.4,0.48
;   extrusionMultiplier,0.9,0.9
;   extruderUseRetract,1,1
;   extruderRetractionDistance,1,4
;   extruderExtraRestartDistance,0,0
;   extruderRetractionZLift,0,0
;   extruderRetractionSpeed,1200,3600
;   extruderUseCoasting,0,1
;   extruderCoastingDistance,0.2,0.8
;   extruderUseWipe,0,0
;   extruderWipeDistance,5,5
;   primaryExtruder,0
;   layerHeight,0.2
;   topSolidLayers,4
;   bottomSolidLayers,4
;   perimeterOutlines,4
;   printPerimetersInsideOut,1
;   startPointOption,2
;   startPointOriginX,0
;   startPointOriginY,0
;   sequentialIslands,0
;   spiralVaseMode,0
;   firstLayerHeightPercentage,90
;   firstLayerWidthPercentage,100
;   firstLayerUnderspeed,0.5
;   useRaft,0
;   raftExtruder,0
;   raftTopLayers,3
;   raftBaseLayers,2
;   raftOffset,3
;   raftSeparationDistance,0.14
;   raftTopInfill,100
;   aboveRaftSpeedMultiplier,0.3
;   useSkirt,1
;   skirtExtruder,0
;   skirtLayers,1
;   skirtOutlines,2
;   skirtOffset,3
;   usePrimePillar,0
;   primePillarExtruder,999
;   primePillarWidth,12
;   primePillarLocation,7
;   primePillarSpeedMultiplier,1
;   useOozeShield,0
;   oozeShieldExtruder,999
;   oozeShieldOffset,2
;   oozeShieldOutlines,1
;   oozeShieldSidewallShape,1
;   oozeShieldSidewallAngle,30
;   oozeShieldSpeedMultiplier,1
;   infillExtruder,0
;   internalInfillPattern,Triangular
;   externalInfillPattern,Rectilinear
;   infillPercentage,60
;   outlineOverlapPercentage,20
;   infillExtrusionWidthPercentage,100
;   minInfillLength,5
;   infillLayerInterval,1
;   internalInfillAngles,0,60,-60
;   overlapInternalInfillAngles,1
;   externalInfillAngles,45,-45
;   generateSupport,1
;   supportExtruder,0
;   supportInfillPercentage,30
;   supportExtraInflation,0
;   supportBaseLayers,0
;   denseSupportExtruder,0
;   denseSupportLayers,0
;   denseSupportInfillPercentage,70
;   supportLayerInterval,1
;   supportHorizontalPartOffset,0.3
;   supportUpperSeparationLayers,1
;   supportLowerSeparationLayers,1
;   supportType,0
;   supportGridSpacing,2.5
;   maxOverhangAngle,45
;   supportAngles,0
;   temperatureName,Right Extruder,Left Extruder,Heated Build Platform
;   temperatureNumber,0,1,0
;   temperatureSetpointCount,1,1,1
;   temperatureSetpointLayers,1,1,1
;   temperatureSetpointTemperatures,195,0,60
;   temperatureStabilizeAtStartup,0,0,0
;   temperatureHeatedBed,0,0,1
;   fanLayers,1,3
;   fanSpeeds,0,100
;   blipFanToFullPower,0
;   adjustSpeedForCooling,1
;   minSpeedLayerTime,15
;   minCoolingSpeedSlowdown,20
;   increaseFanForCooling,0
;   minFanLayerTime,45
;   maxCoolingFanSpeed,100
;   increaseFanForBridging,1
;   bridgingFanSpeed,100
;   use5D,1
;   relativeEdistances,1
;   allowEaxisZeroing,0
;   independentExtruderAxes,1
;   includeM10123,0
;   stickySupport,1
;   applyToolheadOffsets,0
;   gcodeXoffset,0
;   gcodeYoffset,0
;   gcodeZoffset,0
;   overrideMachineDefinition,1
;   machineTypeOverride,0
;   strokeXoverride,225
;   strokeYoverride,145
;   strokeZoverride,150
;   originOffsetXoverride,112.5
;   originOffsetYoverride,72.5
;   originOffsetZoverride,0
;   homeXdirOverride,1
;   homeYdirOverride,1
;   homeZdirOverride,-1
;   flipXoverride,1
;   flipYoverride,-1
;   flipZoverride,1
;   toolheadOffsets,0,0|34,0|0,0|0,0|0,0|0,0
;   overrideFirmwareConfiguration,1
;   firmwareTypeOverride,MakerBot/Sailfish Firmware
;   GPXconfigOverride,r1d
;   baudRateOverride,115200
;   overridePrinterModels,1
;   printerModelsOverride,FlashForge_CreatorPro.stl
;   startingGcode,; **** Replicator 1 dual start.gcode ****,M73 P0 ; enable build progress,G162 X Y F3000 ; home XY maximum,G161 Z F1200 ; home Z minimum,G92 Z-5 ; set Z to -5,G1 Z0 ; move Z to 0,G161 Z F100 ; home Z slowly,M132 X Y Z A B ; recall home offsets,M135 T0 ; load right extruder offsets,G1 X150 Y-70 Z30 F9000 ; move to wait position right hand side of the table,G130 X20 Y20 Z20 A20 B20 ; lower stepper Vrefs while heating,M126 S[fan_speed_pwm],M140 S[bed0_temperature] T0,M134 T0 ; stabilize bed temperature,M104 S[extruder0_temperature] T0,M133 T0 ; stabilize right extruder temperature,G130 X127 Y127 Z40 A127 B127 ; default stepper Vrefs,G92 A0 B0 ; zero extruders,G1 Z0.4 ; position nozzle,G1 X110 Y-70 E25 F300 ; purge nozzle,G1 X120 Y-70 Z0.15 F1200 ; slow wipe,G1 X110 Y-70 Z0.5 F1200 ; lift,G92 A0 B0 ; zero extruders,M73 P1 ;@body (notify GPX body has started),; **** end of start.gcode ****
;   layerChangeGcode,
;   retractionGcode,
;   toolChangeGcode,
;   endingGcode,; **** Replicator 1 dual end.gcode ****,M73 P100 ; end build progress,G1 Z150 F1000 ; send Z axis to bottom of machine,M140 S0 T0 ; cool down HBP,M104 S0 T0 ; cool down right extruder,M104 S0 T1 ; cool down left extruder,M127 ; stop blower fan,G162 X Y F3000 ; home XY maximum,M18 ; disable stepper,M72 P1 ; play Ta-Da song,; **** end of end.gcode ****
;   exportFileFormat,x3g
;   celebration,0
;   celebrationSong,Random Song
;   postProcessing,
;   defaultSpeed,3000
;   outlineUnderspeed,0.5
;   solidInfillUnderspeed,0.8
;   supportUnderspeed,0.8
;   rapidXYspeed,4200
;   rapidZspeed,1200
;   minBridgingArea,50
;   bridgingExtraInflation,0
;   bridgingExtrusionMultiplier,1
;   bridgingSpeedMultiplier,0.8
;   useFixedBridgingAngle,0
;   fixedBridgingAngle,0
;   applyBridgingToPerimeters,0
;   filamentDiameters,1.75|1.75|1.75|1.75|1.75|1.75
;   filamentPricesPerKg,46|46|46|46|46|46
;   filamentDensities,1.25|1.25|1.25|1.25|1.25|1.25
;   useMinPrintHeight,0
;   minPrintHeight,0
;   useMaxPrintHeight,0
;   maxPrintHeight,30
;   useDiaphragm,1
;   diaphragmLayerInterval,20
;   robustSlicing,1
;   mergeAllIntoSolid,0
;   onlyRetractWhenCrossingOutline,1
;   retractBetweenLayers,1
;   useRetractionMinTravel,0
;   retractionMinTravel,3
;   retractWhileWiping,0
;   onlyWipeOutlines,1
;   avoidCrossingOutline,0
;   maxMovementDetourFactor,3
;   toolChangeRetractionDistance,12
;   toolChangeExtraRestartDistance,-0.5
;   toolChangeRetractionSpeed,600
;   externalThinWallType,0
;   internalThinWallType,2
;   thinWallAllowedOverlapPercentage,10
;   singleExtrusionMinLength,1
;   singleExtrusionMinPrintingWidthPercentage,50
;   singleExtrusionMaxPrintingWidthPercentage,200
;   singleExtrusionEndpointExtension,0.2
;   horizontalSizeCompensation,0
G90
M83
; **** Replicator 1 dual start.gcode ****
M73 P0 ; enable build progress
G162 X Y F3000 ; home XY maximum
G161 Z F1200 ; home Z minimum
G92 Z-5 ; set Z to -5
G1 Z0 ; move Z to 0
G161 Z F100 ; home Z slowly
M132 X Y Z A B ; recall home offsets
M135 T0 ; load right extruder offsets
G1 X150 Y-70 Z30 F9000 ; move to wait position right hand side of the table
G130 X20 Y20 Z20 A20 B20 ; lower stepper Vrefs while heating
M127
M140 S60 T0
M134 T0 ; stabilize bed temperature
M104 S195 T0
M133 T0 ; stabilize right extruder temperature
G130 X127 Y127 Z40 A127 B127 ; default stepper Vrefs
G92 A0 B0 ; zero extruders
G1 Z0.4 ; position nozzle
G1 X110 Y-70 E25 F300 ; purge nozzle
G1 X120 Y-70 Z0.15 F1200 ; slow wipe
G1 X110 Y-70 Z0.5 F1200 ; lift
G92 A0 B0 ; zero extruders
M73 P1 ;@body (notify GPX body has started)
; **** end of start.gcode ****
; process Right Nozzle
; layer 1, Z = 0.180
M135 T0
G1 E-1.0000 F1200
; feature skirt
; tool H0.180 W0.400
G1 Z0.180 F1200
G1 X19.600 Y-13.163 F4200
G1 E1.0000 F1200
G1 X21.052 Y-11.711 E0.0553 F1500
G1 X21.600 Y-10.388 E0.0386
G1 X21.600 Y17.550 E0.7527
G1 X21.597 Y17.651 E0.0027
G1 X21.564 Y18.251 E0.0162
G1 X21.541 Y18.451 E0.0054
G1 X21.432 Y19.093 E0.0175
G1 X21.387 Y19.290 E0.0054
G1 X21.207 Y19.915 E0.0175
G1 X21.140 Y20.105 E0.0054
G1 X20.881 Y20.730 E0.0182
G1 X20.769 Y20.956 E0.0068
G1 X20.299 Y21.753 E0.0249
G1 X20.156 Y21.960 E0.0068
G1 X19.718 Y22.509 E0.0189
G1 X19.548 Y22.695 E0.0068
G1 X18.857 Y23.347 E0.0256
G1 X18.620 Y23.536 E0.0082
G1 X17.830 Y24.064 E0.0256
G1 X17.611 Y24.190 E0.0068
G1 X16.979 Y24.494 E0.0189
G1 X16.744 Y24.587 E0.0068
G1 X15.839 Y24.876 E0.0256
G1 X15.543 Y24.943 E0.0082
G1 X14.604 Y25.076 E0.0256
G1 X14.355 Y25.093 E0.0067
G1 X13.600 Y25.095 E0.0203
G1 X13.600 Y35.991 E0.2936
G1 X11.491 Y38.100 E0.0803
G1 X-11.491 Y38.100 E0.6192
G1 X-13.600 Y35.991 E0.0803
G1 X-13.600 Y25.095 E0.2936
G1 X-14.329 Y25.094 E0.0196
G1 X-14.528 Y25.082 E0.0054
G1 X-15.173 Y25.010 E0.0175
G1 X-15.373 Y24.976 E0.0054
G1 X-16.007 Y24.831 E0.0175
G1 X-16.201 Y24.775 E0.0054
G1 X-16.815 Y24.560 E0.0175
G1 X-17.002 Y24.483 E0.0054
G1 X-17.588 Y24.201 E0.0175
G1 X-17.765 Y24.103 E0.0054
G1 X-18.316 Y23.757 E0.0175
G1 X-18.480 Y23.640 E0.0054
G1 X-18.989 Y23.234 E0.0175
G1 X-19.140 Y23.100 E0.0054
G1 X-19.600 Y22.640 E0.0175
G1 X-19.734 Y22.489 E0.0054
G1 X-20.140 Y21.980 E0.0175
G1 X-20.257 Y21.815 E0.0054
G1 X-20.603 Y21.265 E0.0175
G1 X-20.701 Y21.088 E0.0054
G1 X-20.983 Y20.502 E0.0175
G1 X-21.060 Y20.315 E0.0054
G1 X-21.283 Y19.677 E0.0182
G1 X-21.350 Y19.434 E0.0068
G1 X-21.530 Y18.526 E0.0249
G1 X-21.562 Y18.276 E0.0068
G1 X-21.597 Y17.651 E0.0168
G1 X-21.600 Y17.550 E0.0027
G1 X-21.600 Y-10.388 E0.7527
G1 X-21.052 Y-11.711 E0.0386
G1 X-19.600 Y-13.163 E0.0553
G1 X-19.600 Y-24.546 E0.3067
G1 X-19.598 Y-24.637 E0.0025
G1 X-19.558 Y-25.419 E0.0211
G1 X-19.530 Y-25.656 E0.0064
G1 X-19.307 Y-26.860 E0.0330
G1 X-19.249 Y-27.090 E0.0064
G1 X-18.962 Y-27.970 E0.0249
G1 X-18.893 Y-28.148 E0.0051
G1 X-18.510 Y-29.004 E0.0253
G1 X-18.447 Y-29.131 E0.0038
G1 X-18.182 Y-29.616 E0.0149
G1 X-18.108 Y-29.739 E0.0039
G1 X-17.537 Y-30.612 E0.0281
G1 X-17.426 Y-30.763 E0.0050
G1 X-16.676 Y-31.685 E0.0320
G1 X-16.551 Y-31.823 E0.0050
G1 X-15.600 Y-32.771 E0.0362
G1 X-15.461 Y-32.896 E0.0050
G1 X-14.301 Y-33.834 E0.0402
G1 X-14.189 Y-33.919 E0.0038
G1 X-13.473 Y-34.411 E0.0234
G1 X-13.394 Y-34.462 E0.0025
G1 X-12.650 Y-34.918 E0.0235
G1 X-12.571 Y-34.964 E0.0025
G1 X-11.748 Y-35.411 E0.0252
G1 X-11.667 Y-35.453 E0.0025
G1 X-10.755 Y-35.891 E0.0272
G1 X-10.671 Y-35.929 E0.0025
G1 X-9.671 Y-36.347 E0.0292
G1 X-9.583 Y-36.381 E0.0025
G1 X-8.500 Y-36.769 E0.0310
G1 X-8.410 Y-36.798 E0.0025
G1 X-7.254 Y-37.145 E0.0325
G1 X-7.163 Y-37.170 E0.0026
G1 X-5.949 Y-37.466 E0.0337
G1 X-5.858 Y-37.485 E0.0025
G1 X-4.575 Y-37.728 E0.0352
G1 X-4.482 Y-37.743 E0.0025
G1 X-3.124 Y-37.928 E0.0369
G1 X-3.029 Y-37.938 E0.0026
G1 X-1.618 Y-38.054 E0.0382
G1 X-1.521 Y-38.059 E0.0026
G1 X-0.082 Y-38.100 E0.0388
G1 X0.020 Y-38.100 E0.0027
G1 X1.565 Y-38.057 E0.0417
G1 X1.666 Y-38.051 E0.0027
G1 X3.088 Y-37.931 E0.0385
G1 X3.185 Y-37.921 E0.0026
G1 X4.592 Y-37.725 E0.0383
G1 X4.689 Y-37.709 E0.0027
G1 X6.052 Y-37.443 E0.0374
G1 X6.150 Y-37.421 E0.0027
G1 X7.441 Y-37.093 E0.0359
G1 X7.538 Y-37.066 E0.0027
G1 X8.735 Y-36.690 E0.0338
G1 X8.829 Y-36.657 E0.0027
G1 X9.949 Y-36.236 E0.0322
G1 X10.041 Y-36.199 E0.0027
G1 X11.087 Y-35.737 E0.0308
G1 X11.179 Y-35.694 E0.0027
G1 X12.138 Y-35.206 E0.0290
G1 X12.222 Y-35.159 E0.0026
G1 X13.004 Y-34.707 E0.0243
G1 X13.085 Y-34.657 E0.0025
G1 X13.827 Y-34.174 E0.0239
G1 X13.908 Y-34.117 E0.0027
G1 X14.599 Y-33.611 E0.0231
G1 X14.679 Y-33.549 E0.0027
G1 X15.319 Y-33.022 E0.0223
G1 X15.430 Y-32.923 E0.0040
G1 X16.468 Y-31.913 E0.0390
G1 X16.605 Y-31.764 E0.0054
G1 X17.431 Y-30.757 E0.0351
G1 X17.551 Y-30.593 E0.0055
G1 X18.173 Y-29.630 E0.0309
G1 X18.273 Y-29.455 E0.0054
G1 X18.730 Y-28.537 E0.0276
G1 X18.809 Y-28.355 E0.0053
G1 X19.139 Y-27.458 E0.0258
G1 X19.197 Y-27.268 E0.0053
G1 X19.420 Y-26.367 E0.0250
G1 X19.462 Y-26.123 E0.0067
G1 X19.588 Y-24.929 E0.0324
G1 X19.598 Y-24.740 E0.0051
G1 X19.600 Y-13.163 E0.3119
G1 E-1.0000 F1200
G1 X19.200 Y-12.997 F4200
G1 E1.0000 F1200
G1 X20.713 Y-11.484 E0.0576 F1500
G1 X21.200 Y-10.308 E0.0343
G1 X21.200 Y17.545 E0.7504
G1 X21.197 Y17.635 E0.0024
G1 X21.165 Y18.217 E0.0157
G1 X21.145 Y18.395 E0.0048
G1 X21.039 Y19.015 E0.0169
G1 X21.000 Y19.190 E0.0048
G1 X20.826 Y19.793 E0.0169
G1 X20.766 Y19.963 E0.0048
G1 X20.517 Y20.564 E0.0175
G1 X20.417 Y20.765 E0.0060
G1 X19.961 Y21.537 E0.0242
G1 X19.834 Y21.722 E0.0060
G1 X19.414 Y22.248 E0.0181
G1 X19.263 Y22.414 E0.0060
G1 X18.594 Y23.045 E0.0248
G1 X18.384 Y23.213 E0.0073
G1 X17.619 Y23.724 E0.0248
G1 X17.424 Y23.835 E0.0060
G1 X16.818 Y24.127 E0.0181
G1 X16.609 Y24.210 E0.0060
G1 X15.733 Y24.489 E0.0248
G1 X15.471 Y24.549 E0.0073
G1 X14.562 Y24.678 E0.0247
G1 X14.340 Y24.694 E0.0060
G1 X13.200 Y24.695 E0.0307
G1 X13.200 Y35.825 E0.2999
G1 X11.325 Y37.700 E0.0714
G1 X-11.325 Y37.700 E0.6102
G1 X-13.200 Y35.825 E0.0714
G1 X-13.200 Y24.695 E0.2999
G1 X-14.318 Y24.694 E0.0301
G1 X-14.495 Y24.683 E0.0048
G1 X-15.118 Y24.613 E0.0169
G1 X-15.295 Y24.583 E0.0048
G1 X-15.907 Y24.443 E0.0169
G1 X-16.079 Y24.394 E0.0048
G1 X-16.672 Y24.186 E0.0169
G1 X-16.838 Y24.118 E0.0048
G1 X-17.404 Y23.845 E0.0169
G1 X-17.561 Y23.758 E0.0048
G1 X-18.093 Y23.424 E0.0169
G1 X-18.240 Y23.320 E0.0048
G1 X-18.731 Y22.928 E0.0169
G1 X-18.865 Y22.809 E0.0048
G1 X-19.309 Y22.365 E0.0169
G1 X-19.428 Y22.231 E0.0048
G1 X-19.820 Y21.740 E0.0169
G1 X-19.924 Y21.593 E0.0048
G1 X-20.258 Y21.061 E0.0169
G1 X-20.345 Y20.904 E0.0048
G1 X-20.618 Y20.338 E0.0169
G1 X-20.686 Y20.172 E0.0048
G1 X-20.901 Y19.558 E0.0175
G1 X-20.960 Y19.342 E0.0060
G1 X-21.135 Y18.462 E0.0242
G1 X-21.164 Y18.239 E0.0060
G1 X-21.197 Y17.635 E0.0163
G1 X-21.200 Y17.545 E0.0024
G1 X-21.200 Y-10.308 E0.7504
G1 X-20.713 Y-11.484 E0.0343
G1 X-19.200 Y-12.997 E0.0576
G1 X-19.200 Y-24.541 E0.3110
G1 X-19.198 Y-24.622 E0.0022
G1 X-19.159 Y-25.386 E0.0206
G1 X-19.134 Y-25.596 E0.0057
G1 X-18.917 Y-26.774 E0.0323
G1 X-18.864 Y-26.979 E0.0057
G1 X-18.585 Y-27.836 E0.0243
G1 X-18.524 Y-27.994 E0.0046
G1 X-18.148 Y-28.833 E0.0248
G1 X-18.092 Y-28.946 E0.0034
G1 X-17.835 Y-29.417 E0.0145
G1 X-17.769 Y-29.526 E0.0034
G1 X-17.208 Y-30.384 E0.0276
G1 X-17.110 Y-30.519 E0.0045
G1 X-16.372 Y-31.424 E0.0315
G1 X-16.261 Y-31.547 E0.0045
G1 X-15.325 Y-32.481 E0.0356
G1 X-15.201 Y-32.592 E0.0045
G1 X-14.056 Y-33.519 E0.0397
G1 X-13.956 Y-33.593 E0.0034
G1 X-13.251 Y-34.078 E0.0231
G1 X-13.180 Y-34.124 E0.0023
G1 X-12.446 Y-34.574 E0.0232
G1 X-12.375 Y-34.615 E0.0022
G1 X-11.562 Y-35.058 E0.0250
G1 X-11.489 Y-35.095 E0.0022
G1 X-10.587 Y-35.528 E0.0270
G1 X-10.511 Y-35.562 E0.0022
G1 X-9.521 Y-35.976 E0.0289
G1 X-9.444 Y-36.006 E0.0022
G1 X-8.370 Y-36.391 E0.0307
G1 X-8.291 Y-36.417 E0.0023
G1 X-7.144 Y-36.761 E0.0322
G1 X-7.063 Y-36.783 E0.0023
G1 X-5.860 Y-37.076 E0.0334
G1 X-5.778 Y-37.093 E0.0022
G1 X-4.505 Y-37.334 E0.0349
G1 X-4.423 Y-37.348 E0.0022
G1 X-3.075 Y-37.530 E0.0366
G1 X-2.991 Y-37.540 E0.0023
G1 X-1.590 Y-37.655 E0.0379
G1 X-1.504 Y-37.659 E0.0023
G1 X-0.076 Y-37.700 E0.0385
G1 X0.014 Y-37.700 E0.0024
G1 X1.548 Y-37.657 E0.0414
G1 X1.638 Y-37.652 E0.0024
G1 X3.049 Y-37.533 E0.0382
G1 X3.135 Y-37.524 E0.0023
G1 X4.531 Y-37.330 E0.0380
G1 X4.618 Y-37.315 E0.0024
G1 X5.970 Y-37.051 E0.0371
G1 X6.057 Y-37.032 E0.0024
G1 X7.338 Y-36.707 E0.0356
G1 X7.424 Y-36.683 E0.0024
G1 X8.610 Y-36.310 E0.0335
G1 X8.694 Y-36.281 E0.0024
G1 X9.803 Y-35.864 E0.0319
G1 X9.885 Y-35.830 E0.0024
G1 X10.921 Y-35.374 E0.0305
G1 X11.002 Y-35.335 E0.0024
G1 X11.951 Y-34.852 E0.0287
G1 X12.027 Y-34.811 E0.0023
G1 X12.799 Y-34.363 E0.0241
G1 X12.871 Y-34.319 E0.0023
G1 X13.604 Y-33.842 E0.0236
