; G-Code generated by Simplify3D(R) Version 4.1.2
; Nov 6, 2022 at 3:37:54 PM
; Settings Summary
;   processName,Right Nozzle
;   applyToModels,cylinder_head
;   profileName,myDefault (modified)
;   profileVersion,2018-01-19 08:00:00
;   baseProfile,Default
;   printMaterial,PLA
;   printQuality,Medium
;   printExtruders,Right Extruder Only
;   extruderName,Right Extruder,Left Extruder
;   extruderToolheadNumber,0,1
;   extruderDiameter,0.4,0.4
;   extruderAutoWidth,0,1
;   extruderWidth,0.4,0.48
;   extrusionMultiplier,0.9,0.9
;   extruderUseRetract,1,1
;   extruderRetractionDistance,1,4
;   extruderExtraRestartDistance,0,0
;   extruderRetractionZLift,0,0
;   extruderRetractionSpeed,1200,3600
;   extruderUseCoasting,0,1
;   extruderCoastingDistance,0.2,0.8
;   extruderUseWipe,0,0
;   extruderWipeDistance,5,5
;   primaryExtruder,0
;   layerHeight,0.2
;   topSolidLayers,4
;   bottomSolidLayers,4
;   perimeterOutlines,4
;   printPerimetersInsideOut,1
;   startPointOption,2
;   startPointOriginX,0
;   startPointOriginY,0
;   sequentialIslands,0
;   spiralVaseMode,0
;   firstLayerHeightPercentage,90
;   firstLayerWidthPercentage,100
;   firstLayerUnderspeed,0.5
;   useRaft,0
;   raftExtruder,0
;   raftTopLayers,3
;   raftBaseLayers,2
;   raftOffset,3
;   raftSeparationDistance,0.14
;   raftTopInfill,100
;   aboveRaftSpeedMultiplier,0.3
;   useSkirt,1
;   skirtExtruder,0
;   skirtLayers,1
;   skirtOutlines,2
;   skirtOffset,3
;   usePrimePillar,0
;   primePillarExtruder,999
;   primePillarWidth,12
;   primePillarLocation,7
;   primePillarSpeedMultiplier,1
;   useOozeShield,0
;   oozeShieldExtruder,999
;   oozeShieldOffset,2
;   oozeShieldOutlines,1
;   oozeShieldSidewallShape,1
;   oozeShieldSidewallAngle,30
;   oozeShieldSpeedMultiplier,1
;   infillExtruder,0
;   internalInfillPattern,Triangular
;   externalInfillPattern,Rectilinear
;   infillPercentage,40
;   outlineOverlapPercentage,70
;   infillExtrusionWidthPercentage,100
;   minInfillLength,5
;   infillLayerInterval,1
;   internalInfillAngles,0,60,-60
;   overlapInternalInfillAngles,1
;   externalInfillAngles,45,-45
;   generateSupport,1
;   supportExtruder,0
;   supportInfillPercentage,30
;   supportExtraInflation,0
;   supportBaseLayers,0
;   denseSupportExtruder,0
;   denseSupportLayers,0
;   denseSupportInfillPercentage,70
;   supportLayerInterval,1
;   supportHorizontalPartOffset,0.3
;   supportUpperSeparationLayers,1
;   supportLowerSeparationLayers,1
;   supportType,0
;   supportGridSpacing,2.5
;   maxOverhangAngle,45
;   supportAngles,0
;   temperatureName,Right Extruder,Left Extruder,Heated Build Platform
;   temperatureNumber,0,1,0
;   temperatureSetpointCount,1,1,1
;   temperatureSetpointLayers,1,1,1
;   temperatureSetpointTemperatures,195,0,60
;   temperatureStabilizeAtStartup,0,0,0
;   temperatureHeatedBed,0,0,1
;   fanLayers,1,3
;   fanSpeeds,0,100
;   blipFanToFullPower,0
;   adjustSpeedForCooling,1
;   minSpeedLayerTime,15
;   minCoolingSpeedSlowdown,20
;   increaseFanForCooling,0
;   minFanLayerTime,45
;   maxCoolingFanSpeed,100
;   increaseFanForBridging,1
;   bridgingFanSpeed,100
;   use5D,1
;   relativeEdistances,1
;   allowEaxisZeroing,0
;   independentExtruderAxes,1
;   includeM10123,0
;   stickySupport,1
;   applyToolheadOffsets,0
;   gcodeXoffset,0
;   gcodeYoffset,0
;   gcodeZoffset,0
;   overrideMachineDefinition,1
;   machineTypeOverride,0
;   strokeXoverride,225
;   strokeYoverride,145
;   strokeZoverride,150
;   originOffsetXoverride,112.5
;   originOffsetYoverride,72.5
;   originOffsetZoverride,0
;   homeXdirOverride,1
;   homeYdirOverride,1
;   homeZdirOverride,-1
;   flipXoverride,1
;   flipYoverride,-1
;   flipZoverride,1
;   toolheadOffsets,0,0|34,0|0,0|0,0|0,0|0,0
;   overrideFirmwareConfiguration,1
;   firmwareTypeOverride,MakerBot/Sailfish Firmware
;   GPXconfigOverride,r1d
;   baudRateOverride,115200
;   overridePrinterModels,1
;   printerModelsOverride,FlashForge_CreatorPro.stl
;   startingGcode,; **** Replicator 1 dual start.gcode ****,M73 P0 ; enable build progress,G162 X Y F3000 ; home XY maximum,G161 Z F1200 ; home Z minimum,G92 Z-5 ; set Z to -5,G1 Z0 ; move Z to 0,G161 Z F100 ; home Z slowly,M132 X Y Z A B ; recall home offsets,M135 T0 ; load right extruder offsets,G1 X150 Y-70 Z30 F9000 ; move to wait position right hand side of the table,G130 X20 Y20 Z20 A20 B20 ; lower stepper Vrefs while heating,M126 S[fan_speed_pwm],M140 S[bed0_temperature] T0,M134 T0 ; stabilize bed temperature,M104 S[extruder0_temperature] T0,M133 T0 ; stabilize right extruder temperature,G130 X127 Y127 Z40 A127 B127 ; default stepper Vrefs,G92 A0 B0 ; zero extruders,G1 Z0.4 ; position nozzle,G1 X110 Y-70 E25 F300 ; purge nozzle,G1 X120 Y-70 Z0.15 F1200 ; slow wipe,G1 X110 Y-70 Z0.5 F1200 ; lift,G92 A0 B0 ; zero extruders,M73 P1 ;@body (notify GPX body has started),; **** end of start.gcode ****
;   layerChangeGcode,
;   retractionGcode,
;   toolChangeGcode,
;   endingGcode,; **** Replicator 1 dual end.gcode ****,M73 P100 ; end build progress,G1 Z150 F1000 ; send Z axis to bottom of machine,M140 S0 T0 ; cool down HBP,M104 S0 T0 ; cool down right extruder,M104 S0 T1 ; cool down left extruder,M127 ; stop blower fan,G162 X Y F3000 ; home XY maximum,M18 ; disable stepper,M72 P1 ; play Ta-Da song,; **** end of end.gcode ****
;   exportFileFormat,x3g
;   celebration,0
;   celebrationSong,Random Song
;   postProcessing,
;   defaultSpeed,1800
;   outlineUnderspeed,0.5
;   solidInfillUnderspeed,0.8
;   supportUnderspeed,0.8
;   rapidXYspeed,4200
;   rapidZspeed,1200
;   minBridgingArea,50
;   bridgingExtraInflation,0
;   bridgingExtrusionMultiplier,1
;   bridgingSpeedMultiplier,0.8
;   useFixedBridgingAngle,0
;   fixedBridgingAngle,0
;   applyBridgingToPerimeters,0
;   filamentDiameters,1.75|1.75|1.75|1.75|1.75|1.75
;   filamentPricesPerKg,46|46|46|46|46|46
;   filamentDensities,1.25|1.25|1.25|1.25|1.25|1.25
;   useMinPrintHeight,0
;   minPrintHeight,0
;   useMaxPrintHeight,0
;   maxPrintHeight,30
;   useDiaphragm,1
;   diaphragmLayerInterval,20
;   robustSlicing,1
;   mergeAllIntoSolid,0
;   onlyRetractWhenCrossingOutline,1
;   retractBetweenLayers,1
;   useRetractionMinTravel,0
;   retractionMinTravel,3
;   retractWhileWiping,0
;   onlyWipeOutlines,1
;   avoidCrossingOutline,0
;   maxMovementDetourFactor,3
;   toolChangeRetractionDistance,12
;   toolChangeExtraRestartDistance,-0.5
;   toolChangeRetractionSpeed,600
;   externalThinWallType,0
;   internalThinWallType,2
;   thinWallAllowedOverlapPercentage,10
;   singleExtrusionMinLength,1
;   singleExtrusionMinPrintingWidthPercentage,50
;   singleExtrusionMaxPrintingWidthPercentage,200
;   singleExtrusionEndpointExtension,0.2
;   horizontalSizeCompensation,0
G90
M83
; **** Replicator 1 dual start.gcode ****
M73 P0 ; enable build progress
G162 X Y F3000 ; home XY maximum
G161 Z F1200 ; home Z minimum
G92 Z-5 ; set Z to -5
G1 Z0 ; move Z to 0
G161 Z F100 ; home Z slowly
M132 X Y Z A B ; recall home offsets
M135 T0 ; load right extruder offsets
G1 X150 Y-70 Z30 F9000 ; move to wait position right hand side of the table
G130 X20 Y20 Z20 A20 B20 ; lower stepper Vrefs while heating
M127
M140 S60 T0
M134 T0 ; stabilize bed temperature
M104 S195 T0
M133 T0 ; stabilize right extruder temperature
G130 X127 Y127 Z40 A127 B127 ; default stepper Vrefs
G92 A0 B0 ; zero extruders
G1 Z0.4 ; position nozzle
G1 X110 Y-70 E25 F300 ; purge nozzle
G1 X120 Y-70 Z0.15 F1200 ; slow wipe
G1 X110 Y-70 Z0.5 F1200 ; lift
G92 A0 B0 ; zero extruders
M73 P1 ;@body (notify GPX body has started)
; **** end of start.gcode ****
; process Right Nozzle
; layer 1, Z = 0.180
M135 T0
G1 E-1.0000 F1200
; feature skirt
; tool H0.180 W0.400
G1 Z0.180 F1200
G1 X-14.400 Y5.600 F4200
G1 E1.0000 F1200
G1 X-15.491 Y5.600 E0.0294 F900
G1 X-17.600 Y3.491 E0.0803
G1 X-17.600 Y-2.051 E0.1493
G1 X-17.597 Y-2.151 E0.0027
G1 X-17.501 Y-3.870 E0.0464
G1 X-17.478 Y-4.071 E0.0054
G1 X-17.181 Y-5.818 E0.0477
G1 X-17.136 Y-6.015 E0.0054
G1 X-16.646 Y-7.718 E0.0477
G1 X-16.579 Y-7.908 E0.0054
G1 X-15.901 Y-9.545 E0.0477
G1 X-15.813 Y-9.727 E0.0054
G1 X-14.956 Y-11.278 E0.0477
G1 X-14.849 Y-11.449 E0.0054
G1 X-13.823 Y-12.894 E0.0477
G1 X-13.697 Y-13.052 E0.0054
G1 X-12.516 Y-14.374 E0.0477
G1 X-12.374 Y-14.517 E0.0054
G1 X-11.052 Y-15.697 E0.0477
G1 X-10.894 Y-15.823 E0.0054
G1 X-9.449 Y-16.849 E0.0477
G1 X-9.278 Y-16.956 E0.0054
G1 X-7.727 Y-17.813 E0.0477
G1 X-7.545 Y-17.901 E0.0054
G1 X-5.908 Y-18.579 E0.0477
G1 X-5.718 Y-18.646 E0.0054
G1 X-4.015 Y-19.136 E0.0477
G1 X-3.818 Y-19.181 E0.0054
G1 X-2.071 Y-19.478 E0.0477
G1 X-1.870 Y-19.501 E0.0054
G1 X-0.101 Y-19.600 E0.0477
G1 X0.101 Y-19.600 E0.0054
G1 X1.870 Y-19.501 E0.0477
G1 X2.071 Y-19.478 E0.0054
G1 X3.818 Y-19.181 E0.0477
G1 X4.015 Y-19.136 E0.0054
G1 X5.718 Y-18.646 E0.0477
G1 X5.908 Y-18.579 E0.0054
G1 X7.545 Y-17.901 E0.0477
G1 X7.727 Y-17.813 E0.0054
G1 X9.278 Y-16.956 E0.0477
G1 X9.449 Y-16.849 E0.0054
G1 X10.894 Y-15.823 E0.0477
G1 X11.052 Y-15.697 E0.0054
G1 X12.374 Y-14.517 E0.0477
G1 X12.516 Y-14.374 E0.0054
G1 X13.697 Y-13.052 E0.0477
G1 X13.823 Y-12.894 E0.0054
G1 X14.849 Y-11.449 E0.0477
G1 X14.956 Y-11.278 E0.0054
G1 X15.813 Y-9.727 E0.0477
G1 X15.901 Y-9.545 E0.0054
G1 X16.579 Y-7.908 E0.0477
G1 X16.646 Y-7.718 E0.0054
G1 X17.136 Y-6.015 E0.0477
G1 X17.181 Y-5.818 E0.0054
G1 X17.478 Y-4.071 E0.0477
G1 X17.501 Y-3.870 E0.0054
G1 X17.597 Y-2.151 E0.0464
G1 X17.600 Y-2.051 E0.0027
G1 X17.600 Y13.491 E0.4187
G1 X15.491 Y15.600 E0.0803
G1 X6.100 Y15.600 E0.2530
G1 X6.100 Y17.491 E0.0509
G1 X3.991 Y19.600 E0.0803
G1 X-3.991 Y19.600 E0.2150
G1 X-6.100 Y17.491 E0.0803
G1 X-6.100 Y15.600 E0.0509
G1 X-12.291 Y15.600 E0.1668
G1 X-14.400 Y13.491 E0.0803
G1 X-14.400 Y5.600 E0.2126
G1 E-1.0000 F1200
G1 X-14.000 Y5.200 F4200
G1 E1.0000 F1200
G1 X-15.325 Y5.200 E0.0357 F900
G1 X-17.200 Y3.325 E0.0714
G1 X-17.200 Y-2.045 E0.1447
G1 X-17.197 Y-2.135 E0.0024
G1 X-17.102 Y-3.837 E0.0459
G1 X-17.082 Y-4.015 E0.0048
G1 X-16.789 Y-5.740 E0.0471
G1 X-16.749 Y-5.915 E0.0048
G1 X-16.264 Y-7.596 E0.0471
G1 X-16.205 Y-7.766 E0.0048
G1 X-15.536 Y-9.382 E0.0471
G1 X-15.458 Y-9.544 E0.0048
G1 X-14.611 Y-11.075 E0.0471
G1 X-14.516 Y-11.227 E0.0048
G1 X-13.503 Y-12.654 E0.0471
G1 X-13.392 Y-12.794 E0.0048
G1 X-12.226 Y-14.099 E0.0471
G1 X-12.099 Y-14.226 E0.0048
G1 X-10.794 Y-15.392 E0.0471
G1 X-10.654 Y-15.503 E0.0048
G1 X-9.227 Y-16.516 E0.0471
G1 X-9.075 Y-16.611 E0.0048
G1 X-7.544 Y-17.458 E0.0471
G1 X-7.382 Y-17.536 E0.0048
G1 X-5.766 Y-18.205 E0.0471
G1 X-5.596 Y-18.264 E0.0048
G1 X-3.915 Y-18.749 E0.0471
G1 X-3.740 Y-18.789 E0.0048
G1 X-2.015 Y-19.082 E0.0471
G1 X-1.837 Y-19.102 E0.0048
G1 X-0.090 Y-19.200 E0.0471
G1 X0.090 Y-19.200 E0.0048
G1 X1.837 Y-19.102 E0.0471
G1 X2.015 Y-19.082 E0.0048
G1 X3.740 Y-18.789 E0.0471
G1 X3.915 Y-18.749 E0.0048
G1 X5.596 Y-18.264 E0.0471
G1 X5.766 Y-18.205 E0.0048
G1 X7.382 Y-17.536 E0.0471
G1 X7.544 Y-17.458 E0.0048
G1 X9.075 Y-16.611 E0.0471
G1 X9.227 Y-16.516 E0.0048
G1 X10.654 Y-15.503 E0.0471
G1 X10.794 Y-15.392 E0.0048
G1 X12.099 Y-14.226 E0.0471
G1 X12.226 Y-14.099 E0.0048
G1 X13.392 Y-12.794 E0.0471
G1 X13.503 Y-12.654 E0.0048
G1 X14.516 Y-11.227 E0.0471
G1 X14.611 Y-11.075 E0.0048
G1 X15.458 Y-9.544 E0.0471
G1 X15.536 Y-9.382 E0.0048
G1 X16.205 Y-7.766 E0.0471
G1 X16.264 Y-7.596 E0.0048
G1 X16.749 Y-5.915 E0.0471
G1 X16.789 Y-5.740 E0.0048
G1 X17.082 Y-4.015 E0.0471
G1 X17.102 Y-3.837 E0.0048
G1 X17.197 Y-2.135 E0.0459
G1 X17.200 Y-2.045 E0.0024
G1 X17.200 Y13.325 E0.4141
G1 X15.325 Y15.200 E0.0714
G1 X5.700 Y15.200 E0.2593
G1 X5.700 Y17.325 E0.0573
G1 X3.825 Y19.200 E0.0714
G1 X-3.825 Y19.200 E0.2061
G1 X-5.700 Y17.325 E0.0714
G1 X-5.700 Y15.200 E0.0573
G1 X-12.125 Y15.200 E0.1731
G1 X-14.000 Y13.325 E0.0714
G1 X-14.000 Y5.200 E0.2189
G1 E-1.0000 F1200
; feature inner perimeter
G1 X-12.600 Y0.600 F4200
G1 E1.0000 F1200
G1 X-12.600 Y-1.961 E0.0690 F675
G1 X-12.519 Y-3.410 E0.0391
G1 X-12.282 Y-4.803 E0.0381
G1 X-11.891 Y-6.161 E0.0381
G1 X-11.350 Y-7.466 E0.0381
G1 X-10.667 Y-8.702 E0.0381
G1 X-9.849 Y-9.855 E0.0381
G1 X-8.908 Y-10.908 E0.0381
G1 X-7.854 Y-11.849 E0.0381
G1 X-6.702 Y-12.667 E0.0381
G1 X-5.466 Y-13.350 E0.0381
G1 X-4.161 Y-13.891 E0.0381
G1 X-2.803 Y-14.282 E0.0381
G1 X-1.410 Y-14.519 E0.0381
G1 X0.000 Y-14.598 E0.0381
G1 X1.410 Y-14.519 E0.0381
G1 X2.803 Y-14.282 E0.0381
G1 X4.161 Y-13.891 E0.0381
G1 X5.466 Y-13.350 E0.0381
G1 X6.702 Y-12.667 E0.0381
G1 X7.854 Y-11.849 E0.0381
G1 X8.908 Y-10.908 E0.0381
G1 X9.849 Y-9.854 E0.0381
G1 X10.667 Y-8.703 E0.0381
G1 X11.350 Y-7.466 E0.0381
G1 X11.891 Y-6.161 E0.0380
G1 X12.282 Y-4.803 E0.0381
G1 X12.519 Y-3.410 E0.0381
G1 X12.600 Y-1.961 E0.0391
G1 X12.600 Y10.600 E0.3384
G1 X1.100 Y10.600 E0.3098
G1 X1.100 Y14.600 E0.1078
G1 X-1.100 Y14.600 E0.0593
G1 X-1.100 Y10.600 E0.1078
G1 X-9.400 Y10.600 E0.2236
G1 X-9.400 Y0.600 E0.2694
G1 X-12.600 Y0.600 E0.0862
G1 X-13.000 Y1.000 F4200
G1 X-13.000 Y-1.972 E0.0801 F675
G1 X-12.917 Y-3.455 E0.0400
G1 X-12.673 Y-4.892 E0.0393
G1 X-12.269 Y-6.293 E0.0393
G1 X-11.711 Y-7.640 E0.0393
G1 X-11.006 Y-8.916 E0.0393
G1 X-10.163 Y-10.104 E0.0393
G1 X-9.191 Y-11.191 E0.0393
G1 X-8.104 Y-12.163 E0.0393
G1 X-6.916 Y-13.006 E0.0393
G1 X-5.640 Y-13.711 E0.0393
G1 X-4.293 Y-14.269 E0.0393
G1 X-2.892 Y-14.673 E0.0393
G1 X-1.455 Y-14.917 E0.0393
G1 X0.000 Y-14.998 E0.0393
G1 X1.455 Y-14.917 E0.0393
G1 X2.892 Y-14.673 E0.0393
G1 X4.293 Y-14.269 E0.0393
G1 X5.640 Y-13.711 E0.0393
G1 X6.916 Y-13.006 E0.0393
G1 X8.104 Y-12.163 E0.0393
G1 X9.191 Y-11.191 E0.0393
G1 X10.163 Y-10.104 E0.0393
G1 X11.006 Y-8.916 E0.0393
G1 X11.711 Y-7.640 E0.0393
G1 X12.269 Y-6.293 E0.0393
G1 X12.673 Y-4.892 E0.0393
G1 X12.917 Y-3.455 E0.0393
G1 X13.000 Y-1.972 E0.0400
G1 X13.000 Y11.000 E0.3495
G1 X1.500 Y11.000 E0.3098
G1 X1.500 Y15.000 E0.1078
G1 X-1.500 Y15.000 E0.0808
G1 X-1.500 Y11.000 E0.1078
G1 X-9.800 Y11.000 E0.2236
G1 X-9.800 Y1.000 E0.2694
G1 X-13.000 Y1.000 E0.0862
G1 X-13.400 Y1.400 F4200
G1 X-13.400 Y-1.983 E0.0911 F675
G1 X-13.315 Y-3.500 E0.0409
G1 X-13.063 Y-4.982 E0.0405
G1 X-12.647 Y-6.426 E0.0405
G1 X-12.072 Y-7.814 E0.0405
G1 X-11.345 Y-9.129 E0.0405
G1 X-10.476 Y-10.354 E0.0405
G1 X-9.475 Y-11.475 E0.0405
G1 X-8.354 Y-12.476 E0.0405
G1 X-7.129 Y-13.345 E0.0405
G1 X-5.814 Y-14.072 E0.0405
G1 X-4.426 Y-14.647 E0.0405
G1 X-2.982 Y-15.063 E0.0405
G1 X-1.500 Y-15.315 E0.0405
G1 X0.000 Y-15.399 E0.0405
G1 X1.500 Y-15.315 E0.0405
G1 X2.982 Y-15.063 E0.0405
G1 X4.426 Y-14.647 E0.0405
G1 X5.814 Y-14.072 E0.0405
G1 X7.129 Y-13.345 E0.0405
G1 X8.354 Y-12.476 E0.0405
G1 X9.475 Y-11.475 E0.0405
G1 X10.476 Y-10.354 E0.0405
G1 X11.345 Y-9.129 E0.0405
G1 X12.072 Y-7.814 E0.0405
G1 X12.647 Y-6.426 E0.0405
G1 X13.063 Y-4.982 E0.0405
G1 X13.315 Y-3.500 E0.0405
G1 X13.400 Y-1.983 E0.0409
G1 X13.400 Y11.400 E0.3606
G1 X1.900 Y11.400 E0.3098
G1 X1.900 Y15.400 E0.1078
G1 X-1.900 Y15.400 E0.1024
G1 X-1.900 Y11.400 E0.1078
G1 X-10.200 Y11.400 E0.2236
G1 X-10.200 Y1.400 E0.2694
G1 X-13.400 Y1.400 E0.0862
; feature outer perimeter
G1 X-13.800 Y1.800 F4200
G1 X-13.800 Y-1.994 E0.1022 F450
G1 X-13.713 Y-3.545 E0.0418
G1 X-13.454 Y-5.071 E0.0417
G1 X-13.025 Y-6.558 E0.0417
G1 X-12.433 Y-7.988 E0.0417
G1 X-11.685 Y-9.342 E0.0417
G1 X-10.789 Y-10.604 E0.0417
G1 X-9.758 Y-11.758 E0.0417
G1 X-8.604 Y-12.789 E0.0417
G1 X-7.342 Y-13.685 E0.0417
G1 X-5.988 Y-14.433 E0.0417
G1 X-4.558 Y-15.025 E0.0417
G1 X-3.071 Y-15.454 E0.0417
G1 X-1.545 Y-15.713 E0.0417
G1 X0.000 Y-15.800 E0.0417
G1 X1.545 Y-15.713 E0.0417
G1 X3.071 Y-15.454 E0.0417
G1 X4.558 Y-15.025 E0.0417
G1 X5.988 Y-14.433 E0.0417
