; G-Code generated by Simplify3D(R) Version 4.1.2
; Nov 6, 2022 at 3:43:31 PM
; Settings Summary
;   processName,Right Nozzle
;   applyToModels,front_sight_fold
;   profileName,myDefault (modified)
;   profileVersion,2018-01-19 08:00:00
;   baseProfile,Default
;   printMaterial,PLA
;   printQuality,Medium
;   printExtruders,Right Extruder Only
;   extruderName,Right Extruder,Left Extruder
;   extruderToolheadNumber,0,1
;   extruderDiameter,0.4,0.4
;   extruderAutoWidth,0,1
;   extruderWidth,0.4,0.48
;   extrusionMultiplier,0.9,0.9
;   extruderUseRetract,1,1
;   extruderRetractionDistance,1,4
;   extruderExtraRestartDistance,0,0
;   extruderRetractionZLift,0,0
;   extruderRetractionSpeed,1200,3600
;   extruderUseCoasting,0,1
;   extruderCoastingDistance,0.2,0.8
;   extruderUseWipe,0,0
;   extruderWipeDistance,5,5
;   primaryExtruder,0
;   layerHeight,0.2
;   topSolidLayers,3
;   bottomSolidLayers,3
;   perimeterOutlines,3
;   printPerimetersInsideOut,1
;   startPointOption,2
;   startPointOriginX,0
;   startPointOriginY,0
;   sequentialIslands,0
;   spiralVaseMode,0
;   firstLayerHeightPercentage,90
;   firstLayerWidthPercentage,100
;   firstLayerUnderspeed,0.5
;   useRaft,0
;   raftExtruder,0
;   raftTopLayers,3
;   raftBaseLayers,2
;   raftOffset,3
;   raftSeparationDistance,0.14
;   raftTopInfill,100
;   aboveRaftSpeedMultiplier,0.3
;   useSkirt,1
;   skirtExtruder,0
;   skirtLayers,1
;   skirtOutlines,2
;   skirtOffset,3
;   usePrimePillar,0
;   primePillarExtruder,999
;   primePillarWidth,12
;   primePillarLocation,7
;   primePillarSpeedMultiplier,1
;   useOozeShield,0
;   oozeShieldExtruder,999
;   oozeShieldOffset,2
;   oozeShieldOutlines,1
;   oozeShieldSidewallShape,1
;   oozeShieldSidewallAngle,30
;   oozeShieldSpeedMultiplier,1
;   infillExtruder,0
;   internalInfillPattern,Triangular
;   externalInfillPattern,Rectilinear
;   infillPercentage,40
;   outlineOverlapPercentage,40
;   infillExtrusionWidthPercentage,100
;   minInfillLength,5
;   infillLayerInterval,1
;   internalInfillAngles,0,60,-60
;   overlapInternalInfillAngles,1
;   externalInfillAngles,45,-45
;   generateSupport,1
;   supportExtruder,0
;   supportInfillPercentage,30
;   supportExtraInflation,0
;   supportBaseLayers,0
;   denseSupportExtruder,0
;   denseSupportLayers,0
;   denseSupportInfillPercentage,70
;   supportLayerInterval,1
;   supportHorizontalPartOffset,0.3
;   supportUpperSeparationLayers,1
;   supportLowerSeparationLayers,1
;   supportType,0
;   supportGridSpacing,2.5
;   maxOverhangAngle,45
;   supportAngles,0
;   temperatureName,Right Extruder,Left Extruder,Heated Build Platform
;   temperatureNumber,0,1,0
;   temperatureSetpointCount,1,1,1
;   temperatureSetpointLayers,1,1,1
;   temperatureSetpointTemperatures,195,0,60
;   temperatureStabilizeAtStartup,0,0,0
;   temperatureHeatedBed,0,0,1
;   fanLayers,1,3
;   fanSpeeds,0,100
;   blipFanToFullPower,0
;   adjustSpeedForCooling,1
;   minSpeedLayerTime,15
;   minCoolingSpeedSlowdown,20
;   increaseFanForCooling,0
;   minFanLayerTime,45
;   maxCoolingFanSpeed,100
;   increaseFanForBridging,1
;   bridgingFanSpeed,100
;   use5D,1
;   relativeEdistances,1
;   allowEaxisZeroing,0
;   independentExtruderAxes,1
;   includeM10123,0
;   stickySupport,1
;   applyToolheadOffsets,0
;   gcodeXoffset,0
;   gcodeYoffset,0
;   gcodeZoffset,0
;   overrideMachineDefinition,1
;   machineTypeOverride,0
;   strokeXoverride,225
;   strokeYoverride,145
;   strokeZoverride,150
;   originOffsetXoverride,112.5
;   originOffsetYoverride,72.5
;   originOffsetZoverride,0
;   homeXdirOverride,1
;   homeYdirOverride,1
;   homeZdirOverride,-1
;   flipXoverride,1
;   flipYoverride,-1
;   flipZoverride,1
;   toolheadOffsets,0,0|34,0|0,0|0,0|0,0|0,0
;   overrideFirmwareConfiguration,1
;   firmwareTypeOverride,MakerBot/Sailfish Firmware
;   GPXconfigOverride,r1d
;   baudRateOverride,115200
;   overridePrinterModels,1
;   printerModelsOverride,FlashForge_CreatorPro.stl
;   startingGcode,; **** Replicator 1 dual start.gcode ****,M73 P0 ; enable build progress,G162 X Y F3000 ; home XY maximum,G161 Z F1200 ; home Z minimum,G92 Z-5 ; set Z to -5,G1 Z0 ; move Z to 0,G161 Z F100 ; home Z slowly,M132 X Y Z A B ; recall home offsets,M135 T0 ; load right extruder offsets,G1 X150 Y-70 Z30 F9000 ; move to wait position right hand side of the table,G130 X20 Y20 Z20 A20 B20 ; lower stepper Vrefs while heating,M126 S[fan_speed_pwm],M140 S[bed0_temperature] T0,M134 T0 ; stabilize bed temperature,M104 S[extruder0_temperature] T0,M133 T0 ; stabilize right extruder temperature,G130 X127 Y127 Z40 A127 B127 ; default stepper Vrefs,G92 A0 B0 ; zero extruders,G1 Z0.4 ; position nozzle,G1 X110 Y-70 E25 F300 ; purge nozzle,G1 X120 Y-70 Z0.15 F1200 ; slow wipe,G1 X110 Y-70 Z0.5 F1200 ; lift,G92 A0 B0 ; zero extruders,M73 P1 ;@body (notify GPX body has started),; **** end of start.gcode ****
;   layerChangeGcode,
;   retractionGcode,
;   toolChangeGcode,
;   endingGcode,; **** Replicator 1 dual end.gcode ****,M73 P100 ; end build progress,G1 Z150 F1000 ; send Z axis to bottom of machine,M140 S0 T0 ; cool down HBP,M104 S0 T0 ; cool down right extruder,M104 S0 T1 ; cool down left extruder,M127 ; stop blower fan,G162 X Y F3000 ; home XY maximum,M18 ; disable stepper,M72 P1 ; play Ta-Da song,; **** end of end.gcode ****
;   exportFileFormat,x3g
;   celebration,0
;   celebrationSong,Random Song
;   postProcessing,
;   defaultSpeed,3000
;   outlineUnderspeed,0.5
;   solidInfillUnderspeed,0.8
;   supportUnderspeed,0.8
;   rapidXYspeed,4200
;   rapidZspeed,1200
;   minBridgingArea,50
;   bridgingExtraInflation,0
;   bridgingExtrusionMultiplier,1
;   bridgingSpeedMultiplier,0.8
;   useFixedBridgingAngle,0
;   fixedBridgingAngle,0
;   applyBridgingToPerimeters,0
;   filamentDiameters,1.75|1.75|1.75|1.75|1.75|1.75
;   filamentPricesPerKg,46|46|46|46|46|46
;   filamentDensities,1.25|1.25|1.25|1.25|1.25|1.25
;   useMinPrintHeight,0
;   minPrintHeight,0
;   useMaxPrintHeight,0
;   maxPrintHeight,30
;   useDiaphragm,1
;   diaphragmLayerInterval,20
;   robustSlicing,1
;   mergeAllIntoSolid,0
;   onlyRetractWhenCrossingOutline,1
;   retractBetweenLayers,1
;   useRetractionMinTravel,0
;   retractionMinTravel,3
;   retractWhileWiping,0
;   onlyWipeOutlines,1
;   avoidCrossingOutline,0
;   maxMovementDetourFactor,3
;   toolChangeRetractionDistance,12
;   toolChangeExtraRestartDistance,-0.5
;   toolChangeRetractionSpeed,600
;   externalThinWallType,0
;   internalThinWallType,2
;   thinWallAllowedOverlapPercentage,10
;   singleExtrusionMinLength,1
;   singleExtrusionMinPrintingWidthPercentage,50
;   singleExtrusionMaxPrintingWidthPercentage,200
;   singleExtrusionEndpointExtension,0.2
;   horizontalSizeCompensation,0
G90
M83
; **** Replicator 1 dual start.gcode ****
M73 P0 ; enable build progress
G162 X Y F3000 ; home XY maximum
G161 Z F1200 ; home Z minimum
G92 Z-5 ; set Z to -5
G1 Z0 ; move Z to 0
G161 Z F100 ; home Z slowly
M132 X Y Z A B ; recall home offsets
M135 T0 ; load right extruder offsets
G1 X150 Y-70 Z30 F9000 ; move to wait position right hand side of the table
G130 X20 Y20 Z20 A20 B20 ; lower stepper Vrefs while heating
M127
M140 S60 T0
M134 T0 ; stabilize bed temperature
M104 S195 T0
M133 T0 ; stabilize right extruder temperature
G130 X127 Y127 Z40 A127 B127 ; default stepper Vrefs
G92 A0 B0 ; zero extruders
G1 Z0.4 ; position nozzle
G1 X110 Y-70 E25 F300 ; purge nozzle
G1 X120 Y-70 Z0.15 F1200 ; slow wipe
G1 X110 Y-70 Z0.5 F1200 ; lift
G92 A0 B0 ; zero extruders
M73 P1 ;@body (notify GPX body has started)
; **** end of start.gcode ****
; process Right Nozzle
; layer 1, Z = 0.180
M135 T0
G1 E-1.0000 F1200
; feature skirt
; tool H0.180 W0.400
G1 Z0.180 F1200
G1 X8.982 Y-6.621 F4200
G1 E1.0000 F1200
G1 X11.078 Y6.575 E0.3600 F1500
G1 X11.100 Y6.858 E0.0076
G1 X11.100 Y22.881 E0.4317
G1 X11.096 Y23.003 E0.0033
G1 X11.008 Y24.291 E0.0348
G1 X10.983 Y24.492 E0.0055
G1 X10.810 Y25.445 E0.0261
G1 X10.778 Y25.587 E0.0039
G1 X10.591 Y26.287 E0.0195
G1 X10.545 Y26.432 E0.0041
G1 X10.195 Y27.404 E0.0278
G1 X10.129 Y27.564 E0.0047
G1 X9.747 Y28.371 E0.0241
G1 X9.682 Y28.495 E0.0038
G1 X9.309 Y29.148 E0.0203
G1 X9.234 Y29.268 E0.0038
G1 X8.731 Y30.006 E0.0241
G1 X8.626 Y30.145 E0.0047
G1 X7.968 Y30.935 E0.0277
G1 X7.851 Y31.062 E0.0046
G1 X7.300 Y31.607 E0.0209
G1 X7.202 Y31.698 E0.0036
G1 X6.605 Y32.208 E0.0212
G1 X6.469 Y32.313 E0.0046
G1 X5.650 Y32.887 E0.0269
G1 X5.494 Y32.985 E0.0050
G1 X4.711 Y33.421 E0.0241
G1 X4.516 Y33.515 E0.0058
G1 X3.328 Y34.002 E0.0346
G1 X3.108 Y34.076 E0.0063
G1 X2.211 Y34.314 E0.0250
G1 X2.032 Y34.352 E0.0049
G1 X1.194 Y34.486 E0.0229
G1 X1.009 Y34.505 E0.0050
G1 X0.101 Y34.555 E0.0245
G1 X-0.088 Y34.555 E0.0051
G1 X-0.949 Y34.512 E0.0232
G1 X-1.148 Y34.490 E0.0054
G1 X-2.154 Y34.326 E0.0275
G1 X-2.351 Y34.282 E0.0054
G1 X-3.221 Y34.038 E0.0244
G1 X-3.398 Y33.978 E0.0050
G1 X-4.246 Y33.642 E0.0246
G1 X-4.408 Y33.569 E0.0048
G1 X-5.161 Y33.180 E0.0228
G1 X-5.318 Y33.089 E0.0049
G1 X-6.164 Y32.538 E0.0272
G1 X-6.306 Y32.435 E0.0047
G1 X-6.983 Y31.894 E0.0234
G1 X-7.097 Y31.795 E0.0041
G1 X-7.643 Y31.278 E0.0202
G1 X-7.750 Y31.167 E0.0042
G1 X-8.370 Y30.469 E0.0251
G1 X-8.475 Y30.340 E0.0045
G1 X-9.014 Y29.606 E0.0245
G1 X-9.113 Y29.457 E0.0048
G1 X-9.673 Y28.513 E0.0296
G1 X-9.754 Y28.358 E0.0047
G1 X-10.144 Y27.527 E0.0247
G1 X-10.204 Y27.384 E0.0042
G1 X-10.500 Y26.578 E0.0231
G1 X-10.550 Y26.419 E0.0045
G1 X-10.819 Y25.405 E0.0283
G1 X-10.857 Y25.224 E0.0050
G1 X-11.020 Y24.198 E0.0280
G1 X-11.036 Y24.059 E0.0038
G1 X-11.083 Y23.478 E0.0157
G1 X-11.088 Y23.337 E0.0038
G1 X-11.100 Y6.860 E0.4439
G1 X-11.078 Y6.576 E0.0077
G1 X-8.982 Y-6.621 E0.3600
G1 X-8.655 Y-9.106 E0.0675
G1 X-8.465 Y-11.511 E0.0650
G1 X-8.400 Y-13.993 E0.0669
G1 X-8.400 Y-25.369 E0.3065
G1 X-8.820 Y-25.789 E0.0160
G1 X-8.820 Y-31.711 E0.1596
G1 X-6.711 Y-33.820 E0.0803
G1 X6.711 Y-33.820 E0.3616
G1 X8.820 Y-31.711 E0.0803
G1 X8.820 Y-25.789 E0.1596
G1 X8.400 Y-25.369 E0.0160
G1 X8.400 Y-13.969 E0.3071
G1 X8.465 Y-11.511 E0.0662
G1 X8.655 Y-9.106 E0.0650
G1 X8.982 Y-6.621 E0.0675
G1 E-1.0000 F1200
G1 X8.586 Y-6.563 F4200
G1 E1.0000 F1200
G1 X10.680 Y6.623 E0.3597 F1500
G1 X10.700 Y6.874 E0.0068
G1 X10.700 Y22.874 E0.4311
G1 X10.696 Y22.982 E0.0029
G1 X10.610 Y24.252 E0.0343
G1 X10.588 Y24.431 E0.0048
G1 X10.418 Y25.365 E0.0256
G1 X10.389 Y25.492 E0.0035
G1 X10.206 Y26.176 E0.0191
G1 X10.166 Y26.305 E0.0036
G1 X9.822 Y27.260 E0.0273
G1 X9.763 Y27.402 E0.0041
G1 X9.389 Y28.193 E0.0236
G1 X9.331 Y28.303 E0.0033
G1 X8.966 Y28.942 E0.0198
G1 X8.899 Y29.049 E0.0034
G1 X8.406 Y29.773 E0.0236
G1 X8.313 Y29.897 E0.0042
G1 X7.667 Y30.672 E0.0272
G1 X7.563 Y30.784 E0.0041
G1 X7.024 Y31.318 E0.0204
G1 X6.937 Y31.398 E0.0032
G1 X6.352 Y31.897 E0.0207
G1 X6.232 Y31.991 E0.0041
G1 X5.429 Y32.553 E0.0264
G1 X5.290 Y32.640 E0.0044
G1 X4.527 Y33.066 E0.0235
G1 X4.354 Y33.149 E0.0052
G1 X3.189 Y33.627 E0.0339
G1 X2.993 Y33.692 E0.0056
G1 X2.118 Y33.925 E0.0244
G1 X1.959 Y33.959 E0.0044
G1 X1.142 Y34.089 E0.0223
G1 X0.977 Y34.107 E0.0045
G1 X0.090 Y34.155 E0.0239
G1 X-0.078 Y34.155 E0.0045
G1 X-0.917 Y34.113 E0.0226
G1 X-1.094 Y34.094 E0.0048
G1 X-2.079 Y33.933 E0.0269
G1 X-2.253 Y33.894 E0.0048
G1 X-3.103 Y33.656 E0.0238
G1 X-3.261 Y33.603 E0.0045
G1 X-4.089 Y33.274 E0.0240
G1 X-4.233 Y33.209 E0.0043
G1 X-4.969 Y32.829 E0.0223
G1 X-5.108 Y32.748 E0.0043
G1 X-5.938 Y32.208 E0.0267
G1 X-6.064 Y32.117 E0.0042
G1 X-6.727 Y31.587 E0.0229
G1 X-6.828 Y31.498 E0.0036
G1 X-7.362 Y30.993 E0.0198
G1 X-7.457 Y30.895 E0.0037
G1 X-8.065 Y30.210 E0.0247
G1 X-8.158 Y30.095 E0.0040
G1 X-8.686 Y29.377 E0.0240
G1 X-8.774 Y29.245 E0.0043
G1 X-9.324 Y28.317 E0.0291
G1 X-9.396 Y28.180 E0.0042
G1 X-9.778 Y27.365 E0.0242
G1 X-9.831 Y27.238 E0.0037
G1 X-10.121 Y26.449 E0.0227
G1 X-10.166 Y26.308 E0.0040
G1 X-10.430 Y25.312 E0.0277
G1 X-10.464 Y25.152 E0.0044
G1 X-10.624 Y24.143 E0.0275
G1 X-10.638 Y24.019 E0.0034
G1 X-10.683 Y23.454 E0.0153
G1 X-10.688 Y23.329 E0.0034
G1 X-10.700 Y6.876 E0.4433
G1 X-10.680 Y6.623 E0.0068
G1 X-8.586 Y-6.563 E0.3597
G1 X-8.257 Y-9.064 E0.0680
G1 X-8.066 Y-11.490 E0.0656
G1 X-8.000 Y-13.988 E0.0673
G1 X-8.000 Y-25.535 E0.3111
G1 X-8.420 Y-25.955 E0.0160
G1 X-8.420 Y-31.545 E0.1506
G1 X-6.545 Y-33.420 E0.0714
G1 X6.545 Y-33.420 E0.3527
G1 X8.420 Y-31.545 E0.0714
G1 X8.420 Y-25.955 E0.1506
G1 X8.000 Y-25.535 E0.0160
G1 X8.000 Y-13.964 E0.3117
G1 X8.066 Y-11.490 E0.0667
G1 X8.257 Y-9.064 E0.0656
G1 X8.586 Y-6.563 E0.0680
G1 E-1.0000 F1200
; feature inner perimeter
G1 X4.429 Y-5.959 F4200
G1 E1.0000 F1200
G1 X6.500 Y7.079 E0.3557 F1125
G1 X6.500 Y15.252 E0.2202
G1 X6.227 Y15.320 E0.0076
G1 X6.001 Y14.893 E0.0130
G1 X5.576 Y14.266 E0.0204
G1 X5.086 Y13.689 E0.0204
G1 X4.537 Y13.167 E0.0204
G1 X3.934 Y12.709 E0.0204
G1 X2.084 Y11.593 E0.0582
G1 X1.088 Y17.241 E0.1545
G1 X-0.004 Y19.568 E0.0692
G1 X-1.088 Y17.242 E0.0691
G1 X-2.084 Y11.593 E0.1545
G1 X-3.934 Y12.709 E0.0582
G1 X-4.537 Y13.167 E0.0204
G1 X-5.077 Y13.679 E0.0200
G1 X-5.338 Y13.972 E0.0106
G1 X-5.584 Y14.278 E0.0106
G1 X-5.993 Y14.882 E0.0197
G1 X-6.232 Y15.304 E0.0130
G1 X-6.500 Y15.233 E0.0075
G1 X-6.500 Y7.079 E0.2197
G1 X-4.429 Y-5.959 E0.3557
G1 X-4.078 Y-8.624 E0.0724
G1 X-3.870 Y-11.269 E0.0715
G1 X-3.800 Y-13.933 E0.0718
G1 X-3.800 Y-25.031 E0.2990
G1 X3.800 Y-25.031 E0.2047
G1 X3.800 Y-13.908 E0.2997
G1 X3.870 Y-11.269 E0.0711
G1 X4.078 Y-8.624 E0.0715
G1 X4.429 Y-5.959 E0.0724
G1 X4.825 Y-6.017 F4200
G1 X6.900 Y7.047 E0.3564 F1125
G1 X6.900 Y17.784 E0.2893
G1 X6.564 Y17.807 E0.0091
G1 X6.512 Y17.425 E0.0104
G1 X6.361 Y16.736 E0.0190
G1 X6.136 Y16.067 E0.0190
G1 X5.988 Y15.724 E0.0101
G1 X5.658 Y15.100 E0.0190
G1 X5.257 Y14.509 E0.0192
G1 X4.795 Y13.964 E0.0192
G1 X4.277 Y13.473 E0.0192
G1 X3.709 Y13.040 E0.0192
G1 X2.377 Y12.236 E0.0419
G1 X1.473 Y17.363 E0.1402
G1 X0.373 Y19.706 E0.0697
G1 X0.318 Y19.778 E0.0024
G1 X0.248 Y19.834 E0.0024
G1 X0.167 Y19.873 E0.0024
G1 X0.080 Y19.894 E0.0024
G1 X-0.071 Y19.894 E0.0041
G1 X-0.188 Y19.863 E0.0032
G1 X-0.291 Y19.802 E0.0032
G1 X-0.347 Y19.744 E0.0022
G1 X-0.412 Y19.638 E0.0033
G1 X-1.473 Y17.364 E0.0676
G1 X-2.377 Y12.236 E0.1403
G1 X-3.709 Y13.040 E0.0419
G1 X-4.277 Y13.473 E0.0192
G1 X-4.790 Y13.958 E0.0190
G1 X-5.033 Y14.230 E0.0098
G1 X-5.262 Y14.515 E0.0098
G1 X-5.653 Y15.093 E0.0188
G1 X-5.837 Y15.418 E0.0101
G1 X-6.129 Y16.051 E0.0188
G1 X-6.258 Y16.400 E0.0100
G1 X-6.445 Y17.074 E0.0188
G1 X-6.515 Y17.441 E0.0101
G1 X-6.559 Y17.851 E0.0111
G1 X-6.900 Y17.832 E0.0092
G1 X-6.900 Y7.047 E0.2906
G1 X-4.825 Y-6.017 E0.3564
G1 X-4.476 Y-8.666 E0.0720
G1 X-4.270 Y-11.290 E0.0709
G1 X-4.200 Y-13.938 E0.0714
G1 X-4.200 Y-25.431 E0.3096
G1 X4.200 Y-25.431 E0.2263
G1 X4.200 Y-13.913 E0.3103
G1 X4.270 Y-11.290 E0.0707
G1 X4.476 Y-8.666 E0.0709
G1 X4.825 Y-6.017 E0.0720
G1 E-1.0000 F1200
G1 X4.967 Y27.439 F4200
G1 E1.0000 F1200
G1 X5.232 Y27.664 E0.0094 F1125
G1 X5.077 Y27.860 E0.0067
G1 X4.820 Y28.152 E0.0105
G1 X4.408 Y28.561 E0.0156
G1 X3.959 Y28.944 E0.0159
G1 X3.648 Y29.174 E0.0104
G1 X3.348 Y29.373 E0.0097
G1 X2.780 Y29.689 E0.0175
G1 X2.393 Y29.867 E0.0115
G1 X1.889 Y30.054 E0.0145
G1 X1.250 Y30.224 E0.0178
G1 X0.656 Y30.318 E0.0162
G1 X-0.001 Y30.354 E0.0177
G1 X-0.613 Y30.323 E0.0165
G1 X-0.921 Y30.284 E0.0084
G1 X-1.338 Y30.205 E0.0114
G1 X-1.966 Y30.028 E0.0176
G1 X-2.587 Y29.782 E0.0180
G1 X-3.134 Y29.500 E0.0166
G1 X-3.491 Y29.279 E0.0113
G1 X-3.768 Y29.087 E0.0091
G1 X-4.282 Y28.677 E0.0177
G1 X-4.679 Y28.300 E0.0147
G1 X-4.990 Y27.950 E0.0126
G1 X-4.739 Y27.710 E0.0094
G1 X-4.146 Y28.287 E0.0223
