; G-Code generated by Simplify3D(R) Version 4.1.2
; Nov 6, 2022 at 3:42:29 PM
; Settings Summary
;   processName,Right Nozzle
;   applyToModels,front_sight
;   profileName,myDefault (modified)
;   profileVersion,2018-01-19 08:00:00
;   baseProfile,Default
;   printMaterial,PLA
;   printQuality,Medium
;   printExtruders,Right Extruder Only
;   extruderName,Right Extruder,Left Extruder
;   extruderToolheadNumber,0,1
;   extruderDiameter,0.4,0.4
;   extruderAutoWidth,0,1
;   extruderWidth,0.4,0.48
;   extrusionMultiplier,0.9,0.9
;   extruderUseRetract,1,1
;   extruderRetractionDistance,1,4
;   extruderExtraRestartDistance,0,0
;   extruderRetractionZLift,0,0
;   extruderRetractionSpeed,1200,3600
;   extruderUseCoasting,0,1
;   extruderCoastingDistance,0.2,0.8
;   extruderUseWipe,0,0
;   extruderWipeDistance,5,5
;   primaryExtruder,0
;   layerHeight,0.2
;   topSolidLayers,3
;   bottomSolidLayers,3
;   perimeterOutlines,3
;   printPerimetersInsideOut,1
;   startPointOption,2
;   startPointOriginX,0
;   startPointOriginY,0
;   sequentialIslands,0
;   spiralVaseMode,0
;   firstLayerHeightPercentage,90
;   firstLayerWidthPercentage,100
;   firstLayerUnderspeed,0.5
;   useRaft,0
;   raftExtruder,0
;   raftTopLayers,3
;   raftBaseLayers,2
;   raftOffset,3
;   raftSeparationDistance,0.14
;   raftTopInfill,100
;   aboveRaftSpeedMultiplier,0.3
;   useSkirt,1
;   skirtExtruder,0
;   skirtLayers,1
;   skirtOutlines,2
;   skirtOffset,3
;   usePrimePillar,0
;   primePillarExtruder,999
;   primePillarWidth,12
;   primePillarLocation,7
;   primePillarSpeedMultiplier,1
;   useOozeShield,0
;   oozeShieldExtruder,999
;   oozeShieldOffset,2
;   oozeShieldOutlines,1
;   oozeShieldSidewallShape,1
;   oozeShieldSidewallAngle,30
;   oozeShieldSpeedMultiplier,1
;   infillExtruder,0
;   internalInfillPattern,Triangular
;   externalInfillPattern,Rectilinear
;   infillPercentage,40
;   outlineOverlapPercentage,40
;   infillExtrusionWidthPercentage,100
;   minInfillLength,5
;   infillLayerInterval,1
;   internalInfillAngles,0,60,-60
;   overlapInternalInfillAngles,1
;   externalInfillAngles,45,-45
;   generateSupport,1
;   supportExtruder,0
;   supportInfillPercentage,30
;   supportExtraInflation,0
;   supportBaseLayers,0
;   denseSupportExtruder,0
;   denseSupportLayers,0
;   denseSupportInfillPercentage,70
;   supportLayerInterval,1
;   supportHorizontalPartOffset,0.3
;   supportUpperSeparationLayers,1
;   supportLowerSeparationLayers,1
;   supportType,0
;   supportGridSpacing,2.5
;   maxOverhangAngle,45
;   supportAngles,0
;   temperatureName,Right Extruder,Left Extruder,Heated Build Platform
;   temperatureNumber,0,1,0
;   temperatureSetpointCount,1,1,1
;   temperatureSetpointLayers,1,1,1
;   temperatureSetpointTemperatures,195,0,60
;   temperatureStabilizeAtStartup,0,0,0
;   temperatureHeatedBed,0,0,1
;   fanLayers,1,3
;   fanSpeeds,0,100
;   blipFanToFullPower,0
;   adjustSpeedForCooling,1
;   minSpeedLayerTime,15
;   minCoolingSpeedSlowdown,20
;   increaseFanForCooling,0
;   minFanLayerTime,45
;   maxCoolingFanSpeed,100
;   increaseFanForBridging,1
;   bridgingFanSpeed,100
;   use5D,1
;   relativeEdistances,1
;   allowEaxisZeroing,0
;   independentExtruderAxes,1
;   includeM10123,0
;   stickySupport,1
;   applyToolheadOffsets,0
;   gcodeXoffset,0
;   gcodeYoffset,0
;   gcodeZoffset,0
;   overrideMachineDefinition,1
;   machineTypeOverride,0
;   strokeXoverride,225
;   strokeYoverride,145
;   strokeZoverride,150
;   originOffsetXoverride,112.5
;   originOffsetYoverride,72.5
;   originOffsetZoverride,0
;   homeXdirOverride,1
;   homeYdirOverride,1
;   homeZdirOverride,-1
;   flipXoverride,1
;   flipYoverride,-1
;   flipZoverride,1
;   toolheadOffsets,0,0|34,0|0,0|0,0|0,0|0,0
;   overrideFirmwareConfiguration,1
;   firmwareTypeOverride,MakerBot/Sailfish Firmware
;   GPXconfigOverride,r1d
;   baudRateOverride,115200
;   overridePrinterModels,1
;   printerModelsOverride,FlashForge_CreatorPro.stl
;   startingGcode,; **** Replicator 1 dual start.gcode ****,M73 P0 ; enable build progress,G162 X Y F3000 ; home XY maximum,G161 Z F1200 ; home Z minimum,G92 Z-5 ; set Z to -5,G1 Z0 ; move Z to 0,G161 Z F100 ; home Z slowly,M132 X Y Z A B ; recall home offsets,M135 T0 ; load right extruder offsets,G1 X150 Y-70 Z30 F9000 ; move to wait position right hand side of the table,G130 X20 Y20 Z20 A20 B20 ; lower stepper Vrefs while heating,M126 S[fan_speed_pwm],M140 S[bed0_temperature] T0,M134 T0 ; stabilize bed temperature,M104 S[extruder0_temperature] T0,M133 T0 ; stabilize right extruder temperature,G130 X127 Y127 Z40 A127 B127 ; default stepper Vrefs,G92 A0 B0 ; zero extruders,G1 Z0.4 ; position nozzle,G1 X110 Y-70 E25 F300 ; purge nozzle,G1 X120 Y-70 Z0.15 F1200 ; slow wipe,G1 X110 Y-70 Z0.5 F1200 ; lift,G92 A0 B0 ; zero extruders,M73 P1 ;@body (notify GPX body has started),; **** end of start.gcode ****
;   layerChangeGcode,
;   retractionGcode,
;   toolChangeGcode,
;   endingGcode,; **** Replicator 1 dual end.gcode ****,M73 P100 ; end build progress,G1 Z150 F1000 ; send Z axis to bottom of machine,M140 S0 T0 ; cool down HBP,M104 S0 T0 ; cool down right extruder,M104 S0 T1 ; cool down left extruder,M127 ; stop blower fan,G162 X Y F3000 ; home XY maximum,M18 ; disable stepper,M72 P1 ; play Ta-Da song,; **** end of end.gcode ****
;   exportFileFormat,x3g
;   celebration,0
;   celebrationSong,Random Song
;   postProcessing,
;   defaultSpeed,1800
;   outlineUnderspeed,0.5
;   solidInfillUnderspeed,0.8
;   supportUnderspeed,0.8
;   rapidXYspeed,4200
;   rapidZspeed,1200
;   minBridgingArea,50
;   bridgingExtraInflation,0
;   bridgingExtrusionMultiplier,1
;   bridgingSpeedMultiplier,0.8
;   useFixedBridgingAngle,0
;   fixedBridgingAngle,0
;   applyBridgingToPerimeters,0
;   filamentDiameters,1.75|1.75|1.75|1.75|1.75|1.75
;   filamentPricesPerKg,46|46|46|46|46|46
;   filamentDensities,1.25|1.25|1.25|1.25|1.25|1.25
;   useMinPrintHeight,0
;   minPrintHeight,0
;   useMaxPrintHeight,0
;   maxPrintHeight,30
;   useDiaphragm,1
;   diaphragmLayerInterval,20
;   robustSlicing,1
;   mergeAllIntoSolid,0
;   onlyRetractWhenCrossingOutline,1
;   retractBetweenLayers,1
;   useRetractionMinTravel,0
;   retractionMinTravel,3
;   retractWhileWiping,0
;   onlyWipeOutlines,1
;   avoidCrossingOutline,0
;   maxMovementDetourFactor,3
;   toolChangeRetractionDistance,12
;   toolChangeExtraRestartDistance,-0.5
;   toolChangeRetractionSpeed,600
;   externalThinWallType,0
;   internalThinWallType,2
;   thinWallAllowedOverlapPercentage,10
;   singleExtrusionMinLength,1
;   singleExtrusionMinPrintingWidthPercentage,50
;   singleExtrusionMaxPrintingWidthPercentage,200
;   singleExtrusionEndpointExtension,0.2
;   horizontalSizeCompensation,0
G90
M83
; **** Replicator 1 dual start.gcode ****
M73 P0 ; enable build progress
G162 X Y F3000 ; home XY maximum
G161 Z F1200 ; home Z minimum
G92 Z-5 ; set Z to -5
G1 Z0 ; move Z to 0
G161 Z F100 ; home Z slowly
M132 X Y Z A B ; recall home offsets
M135 T0 ; load right extruder offsets
G1 X150 Y-70 Z30 F9000 ; move to wait position right hand side of the table
G130 X20 Y20 Z20 A20 B20 ; lower stepper Vrefs while heating
M127
M140 S60 T0
M134 T0 ; stabilize bed temperature
M104 S195 T0
M133 T0 ; stabilize right extruder temperature
G130 X127 Y127 Z40 A127 B127 ; default stepper Vrefs
G92 A0 B0 ; zero extruders
G1 Z0.4 ; position nozzle
G1 X110 Y-70 E25 F300 ; purge nozzle
G1 X120 Y-70 Z0.15 F1200 ; slow wipe
G1 X110 Y-70 Z0.5 F1200 ; lift
G92 A0 B0 ; zero extruders
M73 P1 ;@body (notify GPX body has started)
; **** end of start.gcode ****
; process Right Nozzle
; layer 1, Z = 0.180
M135 T0
G1 E-1.0000 F1200
; feature skirt
; tool H0.180 W0.400
G1 Z0.180 F1200
G1 X10.600 Y-1.742 F4200
G1 E1.0000 F1200
G1 X10.600 Y12.399 E0.3810 F900
G1 X10.594 Y12.548 E0.0040
G1 X10.480 Y13.923 E0.0372
G1 X10.431 Y14.216 E0.0080
G1 X10.074 Y15.626 E0.0392
G1 X9.977 Y15.908 E0.0080
G1 X9.393 Y17.239 E0.0392
G1 X9.252 Y17.501 E0.0080
G1 X8.456 Y18.718 E0.0392
G1 X8.273 Y18.953 E0.0080
G1 X7.289 Y20.023 E0.0392
G1 X7.070 Y20.224 E0.0080
G1 X5.922 Y21.117 E0.0392
G1 X5.673 Y21.280 E0.0080
G1 X4.394 Y21.972 E0.0392
G1 X4.122 Y22.092 E0.0080
G1 X2.746 Y22.564 E0.0392
G1 X2.458 Y22.637 E0.0080
G1 X1.024 Y22.876 E0.0392
G1 X0.727 Y22.901 E0.0080
G1 X-0.727 Y22.901 E0.0392
G1 X-1.024 Y22.876 E0.0080
G1 X-2.458 Y22.637 E0.0392
G1 X-2.746 Y22.564 E0.0080
G1 X-4.122 Y22.092 E0.0392
G1 X-4.394 Y21.972 E0.0080
G1 X-5.673 Y21.280 E0.0392
G1 X-5.922 Y21.117 E0.0080
G1 X-7.070 Y20.224 E0.0392
G1 X-7.289 Y20.023 E0.0080
G1 X-8.273 Y18.953 E0.0392
G1 X-8.456 Y18.718 E0.0080
G1 X-9.252 Y17.501 E0.0392
G1 X-9.393 Y17.239 E0.0080
G1 X-9.977 Y15.908 E0.0392
G1 X-10.074 Y15.626 E0.0080
G1 X-10.431 Y14.217 E0.0392
G1 X-10.480 Y13.923 E0.0080
G1 X-10.594 Y12.548 E0.0372
G1 X-10.600 Y12.399 E0.0040
G1 X-10.600 Y-1.742 E0.3810
G1 X-10.726 Y-1.894 E0.0053
G1 X-10.873 Y-2.102 E0.0069
G1 X-11.714 Y-3.481 E0.0435
G1 X-11.831 Y-3.707 E0.0069
G1 X-12.469 Y-5.192 E0.0435
G1 X-12.553 Y-5.432 E0.0069
G1 X-12.976 Y-6.991 E0.0435
G1 X-13.025 Y-7.241 E0.0069
G1 X-13.225 Y-8.844 E0.0435
G1 X-13.238 Y-9.098 E0.0069
G1 X-13.210 Y-10.714 E0.0435
G1 X-13.187 Y-10.967 E0.0069
G1 X-12.932 Y-12.563 E0.0435
G1 X-12.874 Y-12.810 E0.0069
G1 X-12.398 Y-14.350 E0.0434
G1 X-12.307 Y-14.586 E0.0068
G1 X-11.617 Y-16.047 E0.0435
G1 X-11.493 Y-16.269 E0.0069
G1 X-10.603 Y-17.623 E0.0437
G1 X-10.448 Y-17.825 E0.0069
G1 X-9.378 Y-19.037 E0.0435
G1 X-9.196 Y-19.215 E0.0069
G1 X-7.967 Y-20.263 E0.0435
G1 X-7.762 Y-20.414 E0.0069
G1 X-6.397 Y-21.279 E0.0435
G1 X-6.173 Y-21.400 E0.0069
G1 X-4.700 Y-22.064 E0.0435
G1 X-4.462 Y-22.152 E0.0069
G1 X-2.910 Y-22.602 E0.0435
G1 X-2.661 Y-22.656 E0.0069
G1 X-1.062 Y-22.883 E0.0435
G1 X-0.808 Y-22.901 E0.0069
G1 X0.808 Y-22.901 E0.0435
G1 X1.062 Y-22.883 E0.0069
G1 X2.661 Y-22.656 E0.0435
G1 X2.910 Y-22.602 E0.0069
G1 X4.462 Y-22.152 E0.0435
G1 X4.700 Y-22.064 E0.0069
G1 X6.173 Y-21.400 E0.0435
G1 X6.397 Y-21.279 E0.0069
G1 X7.762 Y-20.414 E0.0435
G1 X7.967 Y-20.263 E0.0069
G1 X9.196 Y-19.215 E0.0435
G1 X9.378 Y-19.037 E0.0069
G1 X10.447 Y-17.826 E0.0435
G1 X10.602 Y-17.624 E0.0069
G1 X11.491 Y-16.274 E0.0435
G1 X11.615 Y-16.052 E0.0068
G1 X12.305 Y-14.591 E0.0435
G1 X12.397 Y-14.354 E0.0069
G1 X12.874 Y-12.810 E0.0435
G1 X12.932 Y-12.563 E0.0069
G1 X13.187 Y-10.967 E0.0435
G1 X13.210 Y-10.714 E0.0069
G1 X13.238 Y-9.098 E0.0435
G1 X13.225 Y-8.844 E0.0069
G1 X13.025 Y-7.241 E0.0435
G1 X12.976 Y-6.991 E0.0069
G1 X12.553 Y-5.432 E0.0435
G1 X12.469 Y-5.192 E0.0069
G1 X11.831 Y-3.707 E0.0435
G1 X11.714 Y-3.481 E0.0069
G1 X10.873 Y-2.102 E0.0435
G1 X10.726 Y-1.894 E0.0069
G1 X10.600 Y-1.742 E0.0053
G1 E-1.0000 F1200
G1 X10.200 Y-1.885 F4200
G1 E1.0000 F1200
G1 X10.200 Y12.391 E0.3846 F900
G1 X10.195 Y12.523 E0.0036
G1 X10.083 Y13.873 E0.0365
G1 X10.039 Y14.134 E0.0071
G1 X9.690 Y15.512 E0.0383
G1 X9.604 Y15.762 E0.0071
G1 X9.034 Y17.063 E0.0383
G1 X8.908 Y17.296 E0.0071
G1 X8.131 Y18.485 E0.0383
G1 X7.968 Y18.694 E0.0071
G1 X7.006 Y19.740 E0.0383
G1 X6.811 Y19.919 E0.0071
G1 X5.690 Y20.792 E0.0383
G1 X5.468 Y20.936 E0.0071
G1 X4.218 Y21.613 E0.0383
G1 X3.976 Y21.719 E0.0071
G1 X2.632 Y22.180 E0.0383
G1 X2.376 Y22.245 E0.0071
G1 X0.974 Y22.479 E0.0383
G1 X0.710 Y22.501 E0.0071
G1 X-0.710 Y22.501 E0.0383
G1 X-0.974 Y22.479 E0.0071
G1 X-2.376 Y22.245 E0.0383
G1 X-2.632 Y22.180 E0.0071
G1 X-3.976 Y21.719 E0.0383
G1 X-4.218 Y21.613 E0.0071
G1 X-5.468 Y20.936 E0.0383
G1 X-5.690 Y20.792 E0.0071
G1 X-6.811 Y19.919 E0.0383
G1 X-7.006 Y19.740 E0.0071
G1 X-7.968 Y18.694 E0.0383
G1 X-8.131 Y18.485 E0.0071
G1 X-8.908 Y17.296 E0.0383
G1 X-9.034 Y17.063 E0.0071
G1 X-9.604 Y15.762 E0.0383
G1 X-9.690 Y15.512 E0.0071
G1 X-10.039 Y14.134 E0.0383
G1 X-10.083 Y13.873 E0.0071
G1 X-10.195 Y12.523 E0.0365
G1 X-10.200 Y12.391 E0.0036
G1 X-10.200 Y-1.885 E0.3846
G1 X-10.408 Y-2.138 E0.0088
G1 X-10.539 Y-2.322 E0.0061
G1 X-11.365 Y-3.678 E0.0428
G1 X-11.469 Y-3.878 E0.0061
G1 X-12.096 Y-5.337 E0.0428
G1 X-12.171 Y-5.550 E0.0061
G1 X-12.586 Y-7.082 E0.0428
G1 X-12.630 Y-7.304 E0.0061
G1 X-12.826 Y-8.880 E0.0428
G1 X-12.838 Y-9.105 E0.0061
G1 X-12.810 Y-10.693 E0.0428
G1 X-12.790 Y-10.918 E0.0061
G1 X-12.539 Y-12.486 E0.0428
G1 X-12.488 Y-12.706 E0.0061
G1 X-12.020 Y-14.218 E0.0427
G1 X-11.939 Y-14.428 E0.0061
G1 X-11.262 Y-15.864 E0.0428
G1 X-11.151 Y-16.061 E0.0061
G1 X-10.276 Y-17.391 E0.0429
G1 X-10.138 Y-17.571 E0.0061
G1 X-9.087 Y-18.761 E0.0428
G1 X-8.926 Y-18.920 E0.0061
G1 X-7.718 Y-19.950 E0.0428
G1 X-7.536 Y-20.084 E0.0061
G1 X-6.195 Y-20.934 E0.0428
G1 X-5.996 Y-21.041 E0.0061
G1 X-4.549 Y-21.694 E0.0428
G1 X-4.337 Y-21.772 E0.0061
G1 X-2.812 Y-22.214 E0.0428
G1 X-2.591 Y-22.262 E0.0061
G1 X-1.019 Y-22.485 E0.0428
G1 X-0.794 Y-22.501 E0.0061
G1 X0.794 Y-22.501 E0.0428
G1 X1.019 Y-22.485 E0.0061
G1 X2.591 Y-22.262 E0.0428
G1 X2.812 Y-22.214 E0.0061
G1 X4.337 Y-21.772 E0.0428
G1 X4.549 Y-21.694 E0.0061
G1 X5.996 Y-21.041 E0.0428
G1 X6.195 Y-20.934 E0.0061
G1 X7.536 Y-20.084 E0.0428
G1 X7.718 Y-19.950 E0.0061
G1 X8.926 Y-18.920 E0.0428
G1 X9.087 Y-18.761 E0.0061
G1 X10.138 Y-17.571 E0.0428
G1 X10.276 Y-17.392 E0.0061
G1 X11.149 Y-16.066 E0.0428
G1 X11.259 Y-15.869 E0.0061
G1 X11.937 Y-14.433 E0.0428
G1 X12.019 Y-14.222 E0.0061
G1 X12.488 Y-12.706 E0.0428
G1 X12.539 Y-12.486 E0.0061
G1 X12.790 Y-10.918 E0.0428
G1 X12.810 Y-10.693 E0.0061
G1 X12.838 Y-9.105 E0.0428
G1 X12.826 Y-8.880 E0.0061
G1 X12.630 Y-7.304 E0.0428
G1 X12.586 Y-7.082 E0.0061
G1 X12.171 Y-5.550 E0.0428
G1 X12.096 Y-5.337 E0.0061
G1 X11.469 Y-3.878 E0.0428
G1 X11.365 Y-3.678 E0.0061
G1 X10.539 Y-2.322 E0.0428
G1 X10.408 Y-2.138 E0.0061
G1 X10.200 Y-1.885 E0.0088
G1 E-1.0000 F1200
; feature inner perimeter
G1 X6.000 Y-3.827 F4200
G1 E1.0000 F1200
G1 X6.000 Y12.284 E0.4340 F675
G1 X5.915 Y13.312 E0.0278
G1 X5.672 Y14.272 E0.0267
G1 X5.274 Y15.179 E0.0267
G1 X4.732 Y16.008 E0.0267
G1 X4.061 Y16.737 E0.0267
G1 X3.280 Y17.345 E0.0267
G1 X2.409 Y17.816 E0.0267
G1 X1.472 Y18.138 E0.0267
G1 X0.495 Y18.301 E0.0267
G1 X-0.495 Y18.301 E0.0267
G1 X-1.472 Y18.138 E0.0267
G1 X-2.409 Y17.816 E0.0267
G1 X-3.280 Y17.345 E0.0267
G1 X-4.061 Y16.737 E0.0267
G1 X-4.732 Y16.008 E0.0267
G1 X-5.274 Y15.179 E0.0267
G1 X-5.672 Y14.272 E0.0267
G1 X-5.915 Y13.312 E0.0267
G1 X-6.000 Y12.284 E0.0278
G1 X-6.000 Y-3.827 E0.4340
G1 X-5.692 Y-3.493 E0.0123
G1 X-4.596 Y-2.640 E0.0374
G1 X-3.376 Y-1.979 E0.0374
G1 X-2.063 Y-1.529 E0.0374
G1 X-0.694 Y-1.300 E0.0374
G1 X0.694 Y-1.300 E0.0374
G1 X2.063 Y-1.529 E0.0374
G1 X3.376 Y-1.979 E0.0374
G1 X4.596 Y-2.640 E0.0374
G1 X5.691 Y-3.492 E0.0374
G1 X6.000 Y-3.827 E0.0123
G1 X6.400 Y-3.248 F4200
G1 X6.400 Y12.300 E0.4189 F675
G1 X6.311 Y13.378 E0.0291
G1 X6.051 Y14.402 E0.0285
G1 X5.627 Y15.370 E0.0285
G1 X5.049 Y16.255 E0.0285
G1 X4.333 Y17.032 E0.0285
G1 X3.499 Y17.681 E0.0285
G1 X2.570 Y18.184 E0.0285
G1 X1.571 Y18.527 E0.0285
G1 X0.528 Y18.701 E0.0285
G1 X-0.528 Y18.701 E0.0285
G1 X-1.571 Y18.527 E0.0285
G1 X-2.570 Y18.184 E0.0285
G1 X-3.499 Y17.681 E0.0285
G1 X-4.333 Y17.032 E0.0285
G1 X-5.049 Y16.255 E0.0285
G1 X-5.627 Y15.370 E0.0285
G1 X-6.051 Y14.402 E0.0285
G1 X-6.311 Y13.378 E0.0285
G1 X-6.400 Y12.300 E0.0291
G1 X-6.400 Y-3.248 E0.4189
G1 X-7.375 Y-4.432 E0.0413
G1 X-8.039 Y-5.523 E0.0344
G1 X-8.544 Y-6.695 E0.0344
G1 X-8.878 Y-7.928 E0.0344
G1 X-9.036 Y-9.194 E0.0344
G1 X-9.013 Y-10.471 E0.0344
G1 X-8.812 Y-11.732 E0.0344
G1 X-8.436 Y-12.948 E0.0343
G1 X-7.891 Y-14.102 E0.0344
G1 X-7.187 Y-15.172 E0.0345
G1 X-6.342 Y-16.129 E0.0344
G1 X-5.371 Y-16.957 E0.0344
G1 X-4.292 Y-17.641 E0.0344
