; G-Code generated by Simplify3D(R) Version 4.1.2
; Nov 6, 2022 at 3:49:47 PM
; Settings Summary
;   processName,Right Nozzle
;   applyToModels,hop_slide
;   profileName,myDefault (modified)
;   profileVersion,2018-01-19 08:00:00
;   baseProfile,Default
;   printMaterial,PLA
;   printQuality,Medium
;   printExtruders,Right Extruder Only
;   extruderName,Right Extruder,Left Extruder
;   extruderToolheadNumber,0,1
;   extruderDiameter,0.4,0.4
;   extruderAutoWidth,0,1
;   extruderWidth,0.4,0.48
;   extrusionMultiplier,0.9,0.9
;   extruderUseRetract,1,1
;   extruderRetractionDistance,1,4
;   extruderExtraRestartDistance,0,0
;   extruderRetractionZLift,0,0
;   extruderRetractionSpeed,1200,3600
;   extruderUseCoasting,0,1
;   extruderCoastingDistance,0.2,0.8
;   extruderUseWipe,0,0
;   extruderWipeDistance,5,5
;   primaryExtruder,0
;   layerHeight,0.2
;   topSolidLayers,3
;   bottomSolidLayers,3
;   perimeterOutlines,3
;   printPerimetersInsideOut,1
;   startPointOption,2
;   startPointOriginX,0
;   startPointOriginY,0
;   sequentialIslands,0
;   spiralVaseMode,0
;   firstLayerHeightPercentage,90
;   firstLayerWidthPercentage,100
;   firstLayerUnderspeed,0.5
;   useRaft,0
;   raftExtruder,0
;   raftTopLayers,3
;   raftBaseLayers,2
;   raftOffset,3
;   raftSeparationDistance,0.14
;   raftTopInfill,100
;   aboveRaftSpeedMultiplier,0.3
;   useSkirt,1
;   skirtExtruder,0
;   skirtLayers,1
;   skirtOutlines,2
;   skirtOffset,3
;   usePrimePillar,0
;   primePillarExtruder,999
;   primePillarWidth,12
;   primePillarLocation,7
;   primePillarSpeedMultiplier,1
;   useOozeShield,0
;   oozeShieldExtruder,999
;   oozeShieldOffset,2
;   oozeShieldOutlines,1
;   oozeShieldSidewallShape,1
;   oozeShieldSidewallAngle,30
;   oozeShieldSpeedMultiplier,1
;   infillExtruder,0
;   internalInfillPattern,Triangular
;   externalInfillPattern,Rectilinear
;   infillPercentage,60
;   outlineOverlapPercentage,40
;   infillExtrusionWidthPercentage,100
;   minInfillLength,5
;   infillLayerInterval,1
;   internalInfillAngles,0,60,-60
;   overlapInternalInfillAngles,1
;   externalInfillAngles,45,-45
;   generateSupport,1
;   supportExtruder,0
;   supportInfillPercentage,30
;   supportExtraInflation,0
;   supportBaseLayers,0
;   denseSupportExtruder,0
;   denseSupportLayers,0
;   denseSupportInfillPercentage,70
;   supportLayerInterval,1
;   supportHorizontalPartOffset,0.3
;   supportUpperSeparationLayers,1
;   supportLowerSeparationLayers,1
;   supportType,0
;   supportGridSpacing,2.5
;   maxOverhangAngle,45
;   supportAngles,0
;   temperatureName,Right Extruder,Left Extruder,Heated Build Platform
;   temperatureNumber,0,1,0
;   temperatureSetpointCount,1,1,1
;   temperatureSetpointLayers,1,1,1
;   temperatureSetpointTemperatures,195,0,60
;   temperatureStabilizeAtStartup,0,0,0
;   temperatureHeatedBed,0,0,1
;   fanLayers,1,3
;   fanSpeeds,0,100
;   blipFanToFullPower,0
;   adjustSpeedForCooling,1
;   minSpeedLayerTime,15
;   minCoolingSpeedSlowdown,20
;   increaseFanForCooling,0
;   minFanLayerTime,45
;   maxCoolingFanSpeed,100
;   increaseFanForBridging,1
;   bridgingFanSpeed,100
;   use5D,1
;   relativeEdistances,1
;   allowEaxisZeroing,0
;   independentExtruderAxes,1
;   includeM10123,0
;   stickySupport,1
;   applyToolheadOffsets,0
;   gcodeXoffset,0
;   gcodeYoffset,0
;   gcodeZoffset,0
;   overrideMachineDefinition,1
;   machineTypeOverride,0
;   strokeXoverride,225
;   strokeYoverride,145
;   strokeZoverride,150
;   originOffsetXoverride,112.5
;   originOffsetYoverride,72.5
;   originOffsetZoverride,0
;   homeXdirOverride,1
;   homeYdirOverride,1
;   homeZdirOverride,-1
;   flipXoverride,1
;   flipYoverride,-1
;   flipZoverride,1
;   toolheadOffsets,0,0|34,0|0,0|0,0|0,0|0,0
;   overrideFirmwareConfiguration,1
;   firmwareTypeOverride,MakerBot/Sailfish Firmware
;   GPXconfigOverride,r1d
;   baudRateOverride,115200
;   overridePrinterModels,1
;   printerModelsOverride,FlashForge_CreatorPro.stl
;   startingGcode,; **** Replicator 1 dual start.gcode ****,M73 P0 ; enable build progress,G162 X Y F3000 ; home XY maximum,G161 Z F1200 ; home Z minimum,G92 Z-5 ; set Z to -5,G1 Z0 ; move Z to 0,G161 Z F100 ; home Z slowly,M132 X Y Z A B ; recall home offsets,M135 T0 ; load right extruder offsets,G1 X150 Y-70 Z30 F9000 ; move to wait position right hand side of the table,G130 X20 Y20 Z20 A20 B20 ; lower stepper Vrefs while heating,M126 S[fan_speed_pwm],M140 S[bed0_temperature] T0,M134 T0 ; stabilize bed temperature,M104 S[extruder0_temperature] T0,M133 T0 ; stabilize right extruder temperature,G130 X127 Y127 Z40 A127 B127 ; default stepper Vrefs,G92 A0 B0 ; zero extruders,G1 Z0.4 ; position nozzle,G1 X110 Y-70 E25 F300 ; purge nozzle,G1 X120 Y-70 Z0.15 F1200 ; slow wipe,G1 X110 Y-70 Z0.5 F1200 ; lift,G92 A0 B0 ; zero extruders,M73 P1 ;@body (notify GPX body has started),; **** end of start.gcode ****
;   layerChangeGcode,
;   retractionGcode,
;   toolChangeGcode,
;   endingGcode,; **** Replicator 1 dual end.gcode ****,M73 P100 ; end build progress,G1 Z150 F1000 ; send Z axis to bottom of machine,M140 S0 T0 ; cool down HBP,M104 S0 T0 ; cool down right extruder,M104 S0 T1 ; cool down left extruder,M127 ; stop blower fan,G162 X Y F3000 ; home XY maximum,M18 ; disable stepper,M72 P1 ; play Ta-Da song,; **** end of end.gcode ****
;   exportFileFormat,x3g
;   celebration,0
;   celebrationSong,Random Song
;   postProcessing,
;   defaultSpeed,1800
;   outlineUnderspeed,0.5
;   solidInfillUnderspeed,0.8
;   supportUnderspeed,0.8
;   rapidXYspeed,4200
;   rapidZspeed,1200
;   minBridgingArea,50
;   bridgingExtraInflation,0
;   bridgingExtrusionMultiplier,1
;   bridgingSpeedMultiplier,0.8
;   useFixedBridgingAngle,0
;   fixedBridgingAngle,0
;   applyBridgingToPerimeters,0
;   filamentDiameters,1.75|1.75|1.75|1.75|1.75|1.75
;   filamentPricesPerKg,46|46|46|46|46|46
;   filamentDensities,1.25|1.25|1.25|1.25|1.25|1.25
;   useMinPrintHeight,0
;   minPrintHeight,0
;   useMaxPrintHeight,0
;   maxPrintHeight,30
;   useDiaphragm,1
;   diaphragmLayerInterval,20
;   robustSlicing,1
;   mergeAllIntoSolid,0
;   onlyRetractWhenCrossingOutline,1
;   retractBetweenLayers,1
;   useRetractionMinTravel,0
;   retractionMinTravel,3
;   retractWhileWiping,0
;   onlyWipeOutlines,1
;   avoidCrossingOutline,0
;   maxMovementDetourFactor,3
;   toolChangeRetractionDistance,12
;   toolChangeExtraRestartDistance,-0.5
;   toolChangeRetractionSpeed,600
;   externalThinWallType,0
;   internalThinWallType,2
;   thinWallAllowedOverlapPercentage,10
;   singleExtrusionMinLength,1
;   singleExtrusionMinPrintingWidthPercentage,50
;   singleExtrusionMaxPrintingWidthPercentage,200
;   singleExtrusionEndpointExtension,0.2
;   horizontalSizeCompensation,0
G90
M83
; **** Replicator 1 dual start.gcode ****
M73 P0 ; enable build progress
G162 X Y F3000 ; home XY maximum
G161 Z F1200 ; home Z minimum
G92 Z-5 ; set Z to -5
G1 Z0 ; move Z to 0
G161 Z F100 ; home Z slowly
M132 X Y Z A B ; recall home offsets
M135 T0 ; load right extruder offsets
G1 X150 Y-70 Z30 F9000 ; move to wait position right hand side of the table
G130 X20 Y20 Z20 A20 B20 ; lower stepper Vrefs while heating
M127
M140 S60 T0
M134 T0 ; stabilize bed temperature
M104 S195 T0
M133 T0 ; stabilize right extruder temperature
G130 X127 Y127 Z40 A127 B127 ; default stepper Vrefs
G92 A0 B0 ; zero extruders
G1 Z0.4 ; position nozzle
G1 X110 Y-70 E25 F300 ; purge nozzle
G1 X120 Y-70 Z0.15 F1200 ; slow wipe
G1 X110 Y-70 Z0.5 F1200 ; lift
G92 A0 B0 ; zero extruders
M73 P1 ;@body (notify GPX body has started)
; **** end of start.gcode ****
; process Right Nozzle
; layer 1, Z = 0.180
M135 T0
G1 E-1.0000 F1200
; feature skirt
; tool H0.180 W0.400
G1 Z0.180 F1200
G1 X-7.037 Y-5.922 F4200
G1 E1.0000 F1200
G1 X6.371 Y-6.817 E0.3620 F900
G1 X6.727 Y-6.806 E0.0096
G1 X7.596 Y-6.691 E0.0236
G1 X8.180 Y-6.510 E0.0165
G1 X8.930 Y-6.129 E0.0227
G1 X9.347 Y-5.837 E0.0137
G1 X9.924 Y-5.297 E0.0213
G1 X10.244 Y-4.901 E0.0137
G1 X10.647 Y-4.221 E0.0213
G1 X10.843 Y-3.752 E0.0137
G1 X11.035 Y-3.013 E0.0206
G1 X11.093 Y-2.560 E0.0123
G1 X11.102 Y4.704 E0.1957
G1 X8.992 Y6.816 E0.0804
G1 X-8.994 Y6.816 E0.4846
G1 X-11.104 Y4.699 E0.0805
G1 X-11.085 Y-1.749 E0.1737
G1 X-11.029 Y-2.192 E0.0120
G1 X-10.882 Y-2.765 E0.0159
G1 X-10.740 Y-3.140 E0.0108
G1 X-10.407 Y-3.789 E0.0197
G1 X-10.118 Y-4.200 E0.0135
G1 X-9.586 Y-4.770 E0.0210
G1 X-9.195 Y-5.085 E0.0135
G1 X-8.526 Y-5.486 E0.0210
G1 X-8.064 Y-5.682 E0.0135
G1 X-7.383 Y-5.864 E0.0190
G1 X-7.037 Y-5.922 E0.0095
G1 E-1.0000 F1200
G1 X-6.991 Y-5.524 F4200
G1 E1.0000 F1200
G1 X6.378 Y-6.417 E0.3610 F900
G1 X6.695 Y-6.407 E0.0085
G1 X7.510 Y-6.299 E0.0222
G1 X8.029 Y-6.138 E0.0146
G1 X8.724 Y-5.786 E0.0210
G1 X9.095 Y-5.526 E0.0122
G1 X9.630 Y-5.025 E0.0198
G1 X9.914 Y-4.672 E0.0122
G1 X10.289 Y-4.041 E0.0198
G1 X10.463 Y-3.624 E0.0122
G1 X10.642 Y-2.937 E0.0191
G1 X10.693 Y-2.535 E0.0109
G1 X10.702 Y4.538 E0.1906
G1 X8.827 Y6.416 E0.0715
G1 X-8.828 Y6.416 E0.4756
G1 X-10.704 Y4.534 E0.0716
G1 X-10.685 Y-1.723 E0.1686
G1 X-10.635 Y-2.117 E0.0107
G1 X-10.500 Y-2.644 E0.0147
G1 X-10.374 Y-2.977 E0.0096
G1 X-10.064 Y-3.582 E0.0183
G1 X-9.807 Y-3.947 E0.0120
G1 X-9.313 Y-4.476 E0.0195
G1 X-8.965 Y-4.757 E0.0120
G1 X-8.344 Y-5.129 E0.0195
G1 X-7.933 Y-5.303 E0.0120
G1 X-7.299 Y-5.473 E0.0177
G1 X-6.991 Y-5.524 E0.0084
G1 E-1.0000 F1200
; feature inner perimeter
G1 X-6.500 Y-1.347 F4200
G1 E1.0000 F1200
G1 X6.494 Y-2.215 E0.3508 F675
G1 X6.499 Y2.216 E0.1194
G1 X-6.500 Y2.216 E0.3502
G1 X-6.500 Y-1.347 E0.0960
G1 X-6.822 Y-1.576 F4200
G1 X-6.748 Y-1.656 E0.0029 F675
G1 X-6.654 Y-1.712 E0.0029
G1 X-6.523 Y-1.747 E0.0036
G1 X6.448 Y-2.613 E0.3502
G1 X6.532 Y-2.611 E0.0023
G1 X6.619 Y-2.592 E0.0024
G1 X6.726 Y-2.538 E0.0032
G1 X6.807 Y-2.463 E0.0030
G1 X6.864 Y-2.367 E0.0030
G1 X6.894 Y-2.251 E0.0032
G1 X6.899 Y2.616 E0.1311
G1 X-6.900 Y2.616 E0.3718
G1 X-6.900 Y-1.324 E0.1061
G1 X-6.892 Y-1.415 E0.0025
G1 X-6.880 Y-1.463 E0.0013
G1 X-6.822 Y-1.576 E0.0034
; feature outer perimeter
G1 X-7.153 Y-1.808 F4200
G1 X-7.001 Y-1.970 E0.0060 F450
G1 X-6.811 Y-2.084 E0.0060
G1 X-6.589 Y-2.143 E0.0062
G1 X6.438 Y-3.013 E0.3518
G1 X6.579 Y-3.011 E0.0038
G1 X6.755 Y-2.972 E0.0048
G1 X6.958 Y-2.869 E0.0061
G1 X7.122 Y-2.716 E0.0060
G1 X7.236 Y-2.523 E0.0060
G1 X7.294 Y-2.303 E0.0061
G1 X7.300 Y3.016 E0.1433
G1 X-7.300 Y3.016 E0.3933
G1 X-7.300 Y-1.341 E0.1174
G1 X-7.288 Y-1.482 E0.0038
G1 X-7.256 Y-1.606 E0.0034
G1 X-7.153 Y-1.808 E0.0061
; feature solid layer
G1 X-5.944 Y1.976 F4200
G1 X-6.260 Y1.660 E0.0120 F720
G1 X-6.260 Y1.094 E0.0152
G1 X-5.378 Y1.976 E0.0336
G1 X-4.813 Y1.976 E0.0152
G1 X-6.260 Y0.528 E0.0551
G1 X-6.260 Y-0.037 E0.0152
G1 X-4.247 Y1.976 E0.0767
G1 X-3.681 Y1.976 E0.0152
G1 X-6.260 Y-0.603 E0.0982
G1 X-6.260 Y-1.123 E0.0140
G1 X-6.217 Y-1.126 E0.0012
G1 X-3.116 Y1.976 E0.1182
G1 X-2.550 Y1.976 E0.0152
G1 X-5.687 Y-1.161 E0.1195
G1 X-5.156 Y-1.197 E0.0143
G1 X-1.984 Y1.976 E0.1209
G1 X-1.419 Y1.976 E0.0152
G1 X-4.626 Y-1.232 E0.1222
G1 X-4.096 Y-1.267 E0.0143
G1 X-0.853 Y1.976 E0.1236
G1 X-0.287 Y1.976 E0.0152
G1 X-3.566 Y-1.303 E0.1249
G1 X-3.035 Y-1.338 E0.0143
G1 X0.278 Y1.976 E0.1263
G1 X0.844 Y1.976 E0.0152
G1 X-2.505 Y-1.374 E0.1276
G1 X-1.975 Y-1.409 E0.0143
G1 X1.410 Y1.976 E0.1290
G1 X1.976 Y1.976 E0.0152
G1 X-1.444 Y-1.444 E0.1303
G1 X-0.914 Y-1.480 E0.0143
G1 X2.541 Y1.976 E0.1317
G1 X3.107 Y1.976 E0.0152
G1 X-0.384 Y-1.515 E0.1330
G1 X0.146 Y-1.551 E0.0143
G1 X3.673 Y1.976 E0.1343
G1 X4.238 Y1.976 E0.0152
G1 X0.677 Y-1.586 E0.1357
G1 X1.207 Y-1.622 E0.0143
G1 X4.804 Y1.976 E0.1370
G1 X5.370 Y1.976 E0.0152
G1 X1.737 Y-1.657 E0.1384
G1 X2.267 Y-1.692 E0.0143
G1 X5.935 Y1.976 E0.1397
G1 X6.259 Y1.976 E0.0087
G1 X6.258 Y1.733 E0.0065
G1 X2.798 Y-1.728 E0.1318
G1 X3.328 Y-1.763 E0.0143
G1 X6.258 Y1.166 E0.1116
G1 X6.257 Y0.600 E0.0153
G1 X3.858 Y-1.799 E0.0914
G1 X4.389 Y-1.834 E0.0143
G1 X6.256 Y0.034 E0.0712
G1 X6.256 Y-0.533 E0.0153
G1 X4.919 Y-1.869 E0.0509
G1 X5.449 Y-1.905 E0.0143
G1 X6.255 Y-1.099 E0.0307
G1 X6.254 Y-1.665 E0.0153
G1 X5.979 Y-1.940 E0.0105
G1 E-1.0000 F1200
; layer 2, Z = 0.380
; feature inner perimeter
; tool H0.200 W0.400
G1 Z0.380 F1200
G1 X6.494 Y-2.215 F4200
G1 E1.0000 F1200
G1 X6.499 Y2.216 E0.1326 F993
G1 X-6.500 Y2.216 E0.3891
G1 X-6.500 Y-1.347 E0.1067
G1 X6.494 Y-2.215 E0.3898
G1 X6.619 Y-2.592 F4200
G1 X6.726 Y-2.538 E0.0036 F993
G1 X6.807 Y-2.463 E0.0033
G1 X6.864 Y-2.367 E0.0033
G1 X6.894 Y-2.251 E0.0036
G1 X6.899 Y2.616 E0.1457
G1 X-6.900 Y2.616 E0.4131
G1 X-6.900 Y-1.324 E0.1179
G1 X-6.892 Y-1.415 E0.0027
G1 X-6.880 Y-1.463 E0.0015
G1 X-6.822 Y-1.576 E0.0038
G1 X-6.748 Y-1.656 E0.0033
G1 X-6.654 Y-1.712 E0.0033
G1 X-6.523 Y-1.747 E0.0040
G1 X6.448 Y-2.613 E0.3892
G1 X6.532 Y-2.611 E0.0025
G1 X6.619 Y-2.592 E0.0027
; feature outer perimeter
G1 X6.755 Y-2.972 F4200
G1 X6.958 Y-2.869 E0.0068 F662
G1 X7.122 Y-2.716 E0.0067
G1 X7.236 Y-2.523 E0.0067
G1 X7.294 Y-2.303 E0.0068
G1 X7.300 Y3.016 E0.1592
G1 X-7.300 Y3.016 E0.4370
G1 X-7.300 Y-1.341 E0.1304
G1 X-7.288 Y-1.482 E0.0042
G1 X-7.256 Y-1.606 E0.0038
G1 X-7.153 Y-1.808 E0.0068
G1 X-7.001 Y-1.970 E0.0066
G1 X-6.811 Y-2.084 E0.0066
G1 X-6.589 Y-2.143 E0.0069
G1 X6.438 Y-3.013 E0.3908
G1 X6.579 Y-3.011 E0.0042
G1 X6.755 Y-2.972 E0.0054
; feature solid layer
G1 X5.944 Y1.976 F4200
G1 X6.258 Y1.661 E0.0133 F1059
G1 X6.258 Y1.096 E0.0169
G1 X5.378 Y1.976 E0.0372
G1 X4.813 Y1.976 E0.0169
G1 X6.257 Y0.531 E0.0611
G1 X6.256 Y-0.034 E0.0169
G1 X4.247 Y1.976 E0.0851
G1 X3.681 Y1.976 E0.0169
G1 X6.256 Y-0.599 E0.1090
G1 X6.255 Y-1.164 E0.0169
G1 X3.116 Y1.976 E0.1329
G1 X2.550 Y1.976 E0.0169
G1 X6.254 Y-1.729 E0.1568
G1 X6.254 Y-1.959 E0.0069
G1 X5.894 Y-1.935 E0.0108
G1 X1.984 Y1.976 E0.1655
G1 X1.419 Y1.976 E0.0169
G1 X5.288 Y-1.894 E0.1638
G1 X4.682 Y-1.854 E0.0182
G1 X0.853 Y1.976 E0.1621
G1 X0.287 Y1.976 E0.0169
G1 X4.076 Y-1.813 E0.1604
G1 X3.470 Y-1.773 E0.0182
G1 X-0.278 Y1.976 E0.1587
G1 X-0.844 Y1.976 E0.0169
G1 X2.864 Y-1.732 E0.1570
G1 X2.257 Y-1.692 E0.0182
G1 X-1.410 Y1.976 E0.1552
G1 X-1.975 Y1.976 E0.0169
G1 X1.651 Y-1.651 E0.1535
G1 X1.045 Y-1.611 E0.0182
G1 X-2.541 Y1.976 E0.1518
G1 X-3.107 Y1.976 E0.0169
G1 X0.439 Y-1.570 E0.1501
G1 X-0.167 Y-1.530 E0.0182
G1 X-3.673 Y1.976 E0.1484
G1 X-4.238 Y1.976 E0.0169
G1 X-0.773 Y-1.489 E0.1467
G1 X-1.380 Y-1.449 E0.0182
G1 X-4.804 Y1.976 E0.1450
G1 X-5.370 Y1.976 E0.0169
G1 X-1.986 Y-1.408 E0.1432
G1 X-2.592 Y-1.368 E0.0182
G1 X-5.935 Y1.976 E0.1415
G1 X-6.260 Y1.976 E0.0097
G1 X-6.260 Y1.735 E0.0072
G1 X-3.198 Y-1.327 E0.1296
G1 X-3.804 Y-1.287 E0.0182
G1 X-6.260 Y1.169 E0.1040
G1 X-6.260 Y0.603 E0.0169
G1 X-4.410 Y-1.246 E0.0783
G1 X-5.017 Y-1.206 E0.0182
G1 X-6.260 Y0.037 E0.0526
G1 X-6.260 Y-0.528 E0.0169
G1 X-5.623 Y-1.165 E0.0270
G1 X-6.229 Y-1.125 E0.0182
G1 X-6.260 Y-1.094 E0.0013
G1 E-1.0000 F1200
; layer 3, Z = 0.580
M126 S255
; feature inner perimeter
G1 Z0.580 F1200
G1 X-6.500 Y-1.347 F4200
G1 E1.0000 F1200
G1 X6.494 Y-2.215 E0.3898 F993
G1 X6.499 Y2.216 E0.1326
G1 X-6.500 Y2.216 E0.3891
G1 X-6.500 Y-1.347 E0.1067
G1 X-6.822 Y-1.576 F4200
G1 X-6.748 Y-1.656 E0.0033 F993
G1 X-6.654 Y-1.712 E0.0033
G1 X-6.523 Y-1.747 E0.0040
G1 X6.448 Y-2.613 E0.3892
G1 X6.532 Y-2.611 E0.0025
G1 X6.619 Y-2.592 E0.0027
G1 X6.726 Y-2.538 E0.0036
G1 X6.807 Y-2.463 E0.0033
G1 X6.864 Y-2.367 E0.0033
G1 X6.894 Y-2.251 E0.0036
G1 X6.899 Y2.616 E0.1457
G1 X-6.900 Y2.616 E0.4131
G1 X-6.900 Y-1.324 E0.1179
G1 X-6.892 Y-1.415 E0.0027
G1 X-6.880 Y-1.463 E0.0015
G1 X-6.822 Y-1.576 E0.0038
; feature outer perimeter
G1 X-7.153 Y-1.808 F4200
