; G-Code generated by Simplify3D(R) Version 4.1.2
; Nov 6, 2022 at 3:49:12 PM
; Settings Summary
;   processName,Right Nozzle
;   applyToModels,hop_cap
;   profileName,myDefault (modified)
;   profileVersion,2018-01-19 08:00:00
;   baseProfile,Default
;   printMaterial,PLA
;   printQuality,Medium
;   printExtruders,Right Extruder Only
;   extruderName,Right Extruder,Left Extruder
;   extruderToolheadNumber,0,1
;   extruderDiameter,0.4,0.4
;   extruderAutoWidth,0,1
;   extruderWidth,0.4,0.48
;   extrusionMultiplier,0.9,0.9
;   extruderUseRetract,1,1
;   extruderRetractionDistance,1,4
;   extruderExtraRestartDistance,0,0
;   extruderRetractionZLift,0,0
;   extruderRetractionSpeed,1200,3600
;   extruderUseCoasting,0,1
;   extruderCoastingDistance,0.2,0.8
;   extruderUseWipe,0,0
;   extruderWipeDistance,5,5
;   primaryExtruder,0
;   layerHeight,0.2
;   topSolidLayers,3
;   bottomSolidLayers,3
;   perimeterOutlines,3
;   printPerimetersInsideOut,1
;   startPointOption,2
;   startPointOriginX,0
;   startPointOriginY,0
;   sequentialIslands,0
;   spiralVaseMode,0
;   firstLayerHeightPercentage,90
;   firstLayerWidthPercentage,100
;   firstLayerUnderspeed,0.5
;   useRaft,0
;   raftExtruder,0
;   raftTopLayers,3
;   raftBaseLayers,2
;   raftOffset,3
;   raftSeparationDistance,0.14
;   raftTopInfill,100
;   aboveRaftSpeedMultiplier,0.3
;   useSkirt,1
;   skirtExtruder,0
;   skirtLayers,1
;   skirtOutlines,2
;   skirtOffset,3
;   usePrimePillar,0
;   primePillarExtruder,999
;   primePillarWidth,12
;   primePillarLocation,7
;   primePillarSpeedMultiplier,1
;   useOozeShield,0
;   oozeShieldExtruder,999
;   oozeShieldOffset,2
;   oozeShieldOutlines,1
;   oozeShieldSidewallShape,1
;   oozeShieldSidewallAngle,30
;   oozeShieldSpeedMultiplier,1
;   infillExtruder,0
;   internalInfillPattern,Triangular
;   externalInfillPattern,Rectilinear
;   infillPercentage,40
;   outlineOverlapPercentage,40
;   infillExtrusionWidthPercentage,100
;   minInfillLength,5
;   infillLayerInterval,1
;   internalInfillAngles,0,60,-60
;   overlapInternalInfillAngles,1
;   externalInfillAngles,45,-45
;   generateSupport,1
;   supportExtruder,0
;   supportInfillPercentage,30
;   supportExtraInflation,0
;   supportBaseLayers,0
;   denseSupportExtruder,0
;   denseSupportLayers,0
;   denseSupportInfillPercentage,70
;   supportLayerInterval,1
;   supportHorizontalPartOffset,0.3
;   supportUpperSeparationLayers,1
;   supportLowerSeparationLayers,1
;   supportType,0
;   supportGridSpacing,2.5
;   maxOverhangAngle,45
;   supportAngles,0
;   temperatureName,Right Extruder,Left Extruder,Heated Build Platform
;   temperatureNumber,0,1,0
;   temperatureSetpointCount,1,1,1
;   temperatureSetpointLayers,1,1,1
;   temperatureSetpointTemperatures,195,0,60
;   temperatureStabilizeAtStartup,0,0,0
;   temperatureHeatedBed,0,0,1
;   fanLayers,1,3
;   fanSpeeds,0,100
;   blipFanToFullPower,0
;   adjustSpeedForCooling,1
;   minSpeedLayerTime,15
;   minCoolingSpeedSlowdown,20
;   increaseFanForCooling,0
;   minFanLayerTime,45
;   maxCoolingFanSpeed,100
;   increaseFanForBridging,1
;   bridgingFanSpeed,100
;   use5D,1
;   relativeEdistances,1
;   allowEaxisZeroing,0
;   independentExtruderAxes,1
;   includeM10123,0
;   stickySupport,1
;   applyToolheadOffsets,0
;   gcodeXoffset,0
;   gcodeYoffset,0
;   gcodeZoffset,0
;   overrideMachineDefinition,1
;   machineTypeOverride,0
;   strokeXoverride,225
;   strokeYoverride,145
;   strokeZoverride,150
;   originOffsetXoverride,112.5
;   originOffsetYoverride,72.5
;   originOffsetZoverride,0
;   homeXdirOverride,1
;   homeYdirOverride,1
;   homeZdirOverride,-1
;   flipXoverride,1
;   flipYoverride,-1
;   flipZoverride,1
;   toolheadOffsets,0,0|34,0|0,0|0,0|0,0|0,0
;   overrideFirmwareConfiguration,1
;   firmwareTypeOverride,MakerBot/Sailfish Firmware
;   GPXconfigOverride,r1d
;   baudRateOverride,115200
;   overridePrinterModels,1
;   printerModelsOverride,FlashForge_CreatorPro.stl
;   startingGcode,; **** Replicator 1 dual start.gcode ****,M73 P0 ; enable build progress,G162 X Y F3000 ; home XY maximum,G161 Z F1200 ; home Z minimum,G92 Z-5 ; set Z to -5,G1 Z0 ; move Z to 0,G161 Z F100 ; home Z slowly,M132 X Y Z A B ; recall home offsets,M135 T0 ; load right extruder offsets,G1 X150 Y-70 Z30 F9000 ; move to wait position right hand side of the table,G130 X20 Y20 Z20 A20 B20 ; lower stepper Vrefs while heating,M126 S[fan_speed_pwm],M140 S[bed0_temperature] T0,M134 T0 ; stabilize bed temperature,M104 S[extruder0_temperature] T0,M133 T0 ; stabilize right extruder temperature,G130 X127 Y127 Z40 A127 B127 ; default stepper Vrefs,G92 A0 B0 ; zero extruders,G1 Z0.4 ; position nozzle,G1 X110 Y-70 E25 F300 ; purge nozzle,G1 X120 Y-70 Z0.15 F1200 ; slow wipe,G1 X110 Y-70 Z0.5 F1200 ; lift,G92 A0 B0 ; zero extruders,M73 P1 ;@body (notify GPX body has started),; **** end of start.gcode ****
;   layerChangeGcode,
;   retractionGcode,
;   toolChangeGcode,
;   endingGcode,; **** Replicator 1 dual end.gcode ****,M73 P100 ; end build progress,G1 Z150 F1000 ; send Z axis to bottom of machine,M140 S0 T0 ; cool down HBP,M104 S0 T0 ; cool down right extruder,M104 S0 T1 ; cool down left extruder,M127 ; stop blower fan,G162 X Y F3000 ; home XY maximum,M18 ; disable stepper,M72 P1 ; play Ta-Da song,; **** end of end.gcode ****
;   exportFileFormat,x3g
;   celebration,0
;   celebrationSong,Random Song
;   postProcessing,
;   defaultSpeed,1800
;   outlineUnderspeed,0.5
;   solidInfillUnderspeed,0.8
;   supportUnderspeed,0.8
;   rapidXYspeed,4200
;   rapidZspeed,1200
;   minBridgingArea,50
;   bridgingExtraInflation,0
;   bridgingExtrusionMultiplier,1
;   bridgingSpeedMultiplier,0.8
;   useFixedBridgingAngle,0
;   fixedBridgingAngle,0
;   applyBridgingToPerimeters,0
;   filamentDiameters,1.75|1.75|1.75|1.75|1.75|1.75
;   filamentPricesPerKg,46|46|46|46|46|46
;   filamentDensities,1.25|1.25|1.25|1.25|1.25|1.25
;   useMinPrintHeight,0
;   minPrintHeight,0
;   useMaxPrintHeight,0
;   maxPrintHeight,30
;   useDiaphragm,1
;   diaphragmLayerInterval,20
;   robustSlicing,1
;   mergeAllIntoSolid,0
;   onlyRetractWhenCrossingOutline,1
;   retractBetweenLayers,1
;   useRetractionMinTravel,0
;   retractionMinTravel,3
;   retractWhileWiping,0
;   onlyWipeOutlines,1
;   avoidCrossingOutline,0
;   maxMovementDetourFactor,3
;   toolChangeRetractionDistance,12
;   toolChangeExtraRestartDistance,-0.5
;   toolChangeRetractionSpeed,600
;   externalThinWallType,0
;   internalThinWallType,2
;   thinWallAllowedOverlapPercentage,10
;   singleExtrusionMinLength,1
;   singleExtrusionMinPrintingWidthPercentage,50
;   singleExtrusionMaxPrintingWidthPercentage,200
;   singleExtrusionEndpointExtension,0.2
;   horizontalSizeCompensation,0
G90
M83
; **** Replicator 1 dual start.gcode ****
M73 P0 ; enable build progress
G162 X Y F3000 ; home XY maximum
G161 Z F1200 ; home Z minimum
G92 Z-5 ; set Z to -5
G1 Z0 ; move Z to 0
G161 Z F100 ; home Z slowly
M132 X Y Z A B ; recall home offsets
M135 T0 ; load right extruder offsets
G1 X150 Y-70 Z30 F9000 ; move to wait position right hand side of the table
G130 X20 Y20 Z20 A20 B20 ; lower stepper Vrefs while heating
M127
M140 S60 T0
M134 T0 ; stabilize bed temperature
M104 S195 T0
M133 T0 ; stabilize right extruder temperature
G130 X127 Y127 Z40 A127 B127 ; default stepper Vrefs
G92 A0 B0 ; zero extruders
G1 Z0.4 ; position nozzle
G1 X110 Y-70 E25 F300 ; purge nozzle
G1 X120 Y-70 Z0.15 F1200 ; slow wipe
G1 X110 Y-70 Z0.5 F1200 ; lift
G92 A0 B0 ; zero extruders
M73 P1 ;@body (notify GPX body has started)
; **** end of start.gcode ****
; process Right Nozzle
; layer 1, Z = 0.180
M135 T0
G1 E-1.0000 F1200
; feature skirt
; tool H0.180 W0.400
G1 Z0.180 F1200
G1 X11.600 Y11.712 F4200
G1 E1.0000 F1200
G1 X11.600 Y13.616 E0.0513 F900
G1 X9.491 Y15.725 E0.0803
G1 X-9.491 Y15.725 E0.5114
G1 X-11.600 Y13.616 E0.0803
G1 X-11.601 Y11.711 E0.0513
G1 X-12.732 Y11.243 E0.0330
G1 X-12.984 Y11.114 E0.0076
G1 X-14.028 Y10.475 E0.0330
G1 X-14.257 Y10.308 E0.0076
G1 X-15.188 Y9.513 E0.0330
G1 X-15.388 Y9.313 E0.0076
G1 X-16.183 Y8.382 E0.0330
G1 X-16.350 Y8.153 E0.0076
G1 X-16.989 Y7.109 E0.0330
G1 X-17.118 Y6.857 E0.0076
G1 X-17.586 Y5.726 E0.0330
G1 X-17.674 Y5.457 E0.0076
G1 X-17.960 Y4.266 E0.0330
G1 X-18.004 Y3.987 E0.0076
G1 X-18.094 Y2.837 E0.0311
G1 X-18.100 Y2.696 E0.0038
G1 X-18.100 Y-5.905 E0.2317
G1 X-18.099 Y-5.964 E0.0016
G1 X-18.065 Y-7.009 E0.0282
G1 X-18.057 Y-7.128 E0.0032
G1 X-17.946 Y-8.240 E0.0301
G1 X-17.915 Y-8.441 E0.0055
G1 X-17.695 Y-9.461 E0.0281
G1 X-17.612 Y-9.737 E0.0078
G1 X-17.218 Y-10.749 E0.0293
G1 X-17.092 Y-11.008 E0.0078
G1 X-16.541 Y-11.945 E0.0293
G1 X-16.376 Y-12.181 E0.0078
G1 X-15.683 Y-13.017 E0.0293
G1 X-15.482 Y-13.224 E0.0078
G1 X-14.665 Y-13.940 E0.0293
G1 X-14.434 Y-14.112 E0.0078
G1 X-13.513 Y-14.688 E0.0293
G1 X-13.258 Y-14.821 E0.0078
G1 X-12.257 Y-15.244 E0.0293
G1 X-11.984 Y-15.334 E0.0078
G1 X-10.929 Y-15.592 E0.0293
G1 X-10.644 Y-15.638 E0.0078
G1 X-9.633 Y-15.719 E0.0273
G1 X-9.489 Y-15.725 E0.0039
G1 X9.489 Y-15.725 E0.5113
G1 X9.633 Y-15.719 E0.0039
G1 X10.644 Y-15.638 E0.0273
G1 X10.929 Y-15.592 E0.0078
G1 X11.984 Y-15.334 E0.0293
G1 X12.257 Y-15.244 E0.0078
G1 X13.258 Y-14.821 E0.0293
G1 X13.513 Y-14.688 E0.0078
G1 X14.434 Y-14.112 E0.0293
G1 X14.665 Y-13.940 E0.0078
G1 X15.482 Y-13.224 E0.0293
G1 X15.683 Y-13.017 E0.0078
G1 X16.376 Y-12.181 E0.0293
G1 X16.541 Y-11.945 E0.0078
G1 X17.092 Y-11.008 E0.0293
G1 X17.218 Y-10.749 E0.0078
G1 X17.612 Y-9.737 E0.0293
G1 X17.695 Y-9.461 E0.0078
G1 X17.915 Y-8.441 E0.0281
G1 X17.946 Y-8.240 E0.0055
G1 X18.057 Y-7.128 E0.0301
G1 X18.065 Y-7.009 E0.0032
G1 X18.099 Y-5.964 E0.0282
G1 X18.100 Y-5.905 E0.0016
G1 X18.100 Y2.696 E0.2317
G1 X18.094 Y2.837 E0.0038
G1 X18.004 Y3.987 E0.0311
G1 X17.960 Y4.266 E0.0076
G1 X17.674 Y5.457 E0.0330
G1 X17.586 Y5.726 E0.0076
G1 X17.118 Y6.857 E0.0330
G1 X16.989 Y7.109 E0.0076
G1 X16.350 Y8.153 E0.0330
G1 X16.183 Y8.382 E0.0076
G1 X15.388 Y9.313 E0.0330
G1 X15.188 Y9.513 E0.0076
G1 X14.257 Y10.308 E0.0330
G1 X14.028 Y10.475 E0.0076
G1 X12.984 Y11.114 E0.0330
G1 X12.732 Y11.243 E0.0076
G1 X11.600 Y11.712 E0.0330
G1 E-1.0000 F1200
G1 X11.463 Y11.336 F4200
G1 E1.0000 F1200
G1 X11.223 Y11.414 E0.0068 F900
G1 X11.200 Y11.419 E0.0006
G1 X11.200 Y13.450 E0.0547
G1 X9.325 Y15.325 E0.0714
G1 X-9.325 Y15.325 E0.5025
G1 X-11.200 Y13.450 E0.0714
G1 X-11.200 Y11.419 E0.0547
G1 X-11.223 Y11.414 E0.0006
G1 X-11.462 Y11.336 E0.0068
G1 X-12.565 Y10.879 E0.0321
G1 X-12.789 Y10.765 E0.0068
G1 X-13.806 Y10.142 E0.0321
G1 X-14.009 Y9.994 E0.0068
G1 X-14.916 Y9.219 E0.0321
G1 X-15.094 Y9.041 E0.0068
G1 X-15.869 Y8.134 E0.0321
G1 X-16.017 Y7.931 E0.0068
G1 X-16.640 Y6.914 E0.0321
G1 X-16.754 Y6.690 E0.0068
G1 X-17.211 Y5.588 E0.0321
G1 X-17.289 Y5.348 E0.0068
G1 X-17.567 Y4.188 E0.0321
G1 X-17.606 Y3.940 E0.0068
G1 X-17.695 Y2.813 E0.0304
G1 X-17.700 Y2.688 E0.0034
G1 X-17.700 Y-5.901 E0.2314
G1 X-17.699 Y-5.954 E0.0014
G1 X-17.665 Y-6.989 E0.0279
G1 X-17.658 Y-7.095 E0.0028
G1 X-17.549 Y-8.189 E0.0296
G1 X-17.521 Y-8.368 E0.0049
G1 X-17.308 Y-9.362 E0.0274
G1 X-17.234 Y-9.607 E0.0069
G1 X-16.851 Y-10.589 E0.0284
G1 X-16.739 Y-10.819 E0.0069
G1 X-16.205 Y-11.728 E0.0284
G1 X-16.058 Y-11.938 E0.0069
G1 X-15.385 Y-12.750 E0.0284
G1 X-15.207 Y-12.934 E0.0069
G1 X-14.414 Y-13.628 E0.0284
G1 X-14.208 Y-13.781 E0.0069
G1 X-13.315 Y-14.341 E0.0284
G1 X-13.088 Y-14.459 E0.0069
G1 X-12.116 Y-14.869 E0.0284
G1 X-11.873 Y-14.950 E0.0069
G1 X-10.849 Y-15.200 E0.0284
G1 X-10.596 Y-15.241 E0.0069
G1 X-9.609 Y-15.320 E0.0267
G1 X-9.481 Y-15.325 E0.0034
G1 X9.481 Y-15.325 E0.5109
G1 X9.609 Y-15.320 E0.0034
G1 X10.596 Y-15.241 E0.0267
G1 X10.849 Y-15.200 E0.0069
G1 X11.873 Y-14.950 E0.0284
G1 X12.116 Y-14.869 E0.0069
G1 X13.088 Y-14.459 E0.0284
G1 X13.315 Y-14.341 E0.0069
G1 X14.208 Y-13.781 E0.0284
G1 X14.414 Y-13.628 E0.0069
G1 X15.207 Y-12.934 E0.0284
G1 X15.385 Y-12.750 E0.0069
G1 X16.058 Y-11.938 E0.0284
G1 X16.205 Y-11.728 E0.0069
G1 X16.739 Y-10.819 E0.0284
G1 X16.851 Y-10.589 E0.0069
G1 X17.234 Y-9.607 E0.0284
G1 X17.308 Y-9.362 E0.0069
G1 X17.521 Y-8.368 E0.0274
G1 X17.549 Y-8.189 E0.0049
G1 X17.658 Y-7.095 E0.0296
G1 X17.665 Y-6.989 E0.0028
G1 X17.699 Y-5.954 E0.0279
G1 X17.700 Y-5.901 E0.0014
G1 X17.700 Y2.688 E0.2314
G1 X17.695 Y2.813 E0.0034
G1 X17.606 Y3.940 E0.0304
G1 X17.567 Y4.188 E0.0068
G1 X17.289 Y5.348 E0.0321
G1 X17.211 Y5.588 E0.0068
G1 X16.754 Y6.690 E0.0321
G1 X16.640 Y6.914 E0.0068
G1 X16.017 Y7.931 E0.0321
G1 X15.869 Y8.134 E0.0068
G1 X15.094 Y9.041 E0.0321
G1 X14.916 Y9.219 E0.0068
G1 X14.009 Y9.994 E0.0321
G1 X13.806 Y10.142 E0.0068
G1 X12.789 Y10.765 E0.0321
G1 X12.565 Y10.879 E0.0068
G1 X11.463 Y11.336 E0.0321
G1 E-1.0000 F1200
; feature inner perimeter
G1 X7.000 Y11.125 F4200
G1 E1.0000 F1200
G1 X-7.000 Y11.125 E0.3772 F675
G1 X-7.000 Y8.074 E0.0822
G1 X-6.841 Y8.040 E0.0044
G1 X-5.946 Y7.680 E0.0260
G1 X-5.132 Y7.179 E0.0257
G1 X-4.411 Y6.544 E0.0259
G1 X-3.808 Y5.796 E0.0259
G1 X-3.339 Y4.958 E0.0259
G1 X-3.019 Y4.052 E0.0259
G1 X-2.857 Y3.105 E0.0259
G1 X-2.857 Y2.145 E0.0259
G1 X-3.019 Y1.198 E0.0259
G1 X-3.339 Y0.292 E0.0259
G1 X-3.808 Y-0.546 E0.0259
G1 X-4.411 Y-1.294 E0.0259
G1 X-5.132 Y-1.929 E0.0259
G1 X-5.950 Y-2.432 E0.0259
G1 X-6.842 Y-2.790 E0.0259
G1 X-7.781 Y-2.993 E0.0259
G1 X-8.740 Y-3.034 E0.0259
G1 X-9.693 Y-2.912 E0.0259
G1 X-10.612 Y-2.630 E0.0259
G1 X-11.470 Y-2.198 E0.0259
G1 X-12.242 Y-1.627 E0.0259
G1 X-12.906 Y-0.933 E0.0259
G1 X-13.245 Y-0.432 E0.0163
G1 X-13.500 Y-0.509 E0.0072
G1 X-13.500 Y-5.188 E0.1260
G1 X-13.241 Y-5.264 E0.0073
G1 X-12.777 Y-4.539 E0.0232
G1 X-12.287 Y-4.005 E0.0195
G1 X-11.373 Y-3.299 E0.0311
G1 X-9.976 Y-3.724 E0.0394
G1 X-9.111 Y-3.865 E0.0236
G1 X-8.234 Y-3.888 E0.0236
G1 X-6.094 Y-3.656 E0.0580
G1 X-6.268 Y-5.815 E0.0584
G1 X-6.214 Y-6.700 E0.0239
G1 X-6.035 Y-7.568 E0.0239
G1 X-5.533 Y-8.969 E0.0401
G1 X-6.224 Y-9.913 E0.0315
G1 X-6.745 Y-10.416 E0.0195
G1 X-7.416 Y-10.871 E0.0218
G1 X-7.337 Y-11.125 E0.0072
G1 X-2.432 Y-11.125 E0.1322
G1 X-2.358 Y-10.863 E0.0073
G1 X-3.273 Y-10.300 E0.0289
G1 X-3.973 Y-9.683 E0.0251
G1 X-4.557 Y-8.961 E0.0250
G1 X-5.015 Y-8.142 E0.0253
G1 X-5.326 Y-7.262 E0.0252
G1 X-5.484 Y-6.342 E0.0251
G1 X-5.484 Y-5.408 E0.0251
G1 X-5.326 Y-4.488 E0.0251
G1 X-5.015 Y-3.608 E0.0251
G1 X-4.560 Y-2.793 E0.0251
G1 X-3.973 Y-2.067 E0.0251
G1 X-3.273 Y-1.450 E0.0251
G1 X-2.478 Y-0.961 E0.0251
G1 X-1.612 Y-0.613 E0.0251
G1 X-0.699 Y-0.416 E0.0251
G1 X0.234 Y-0.376 E0.0251
G1 X1.159 Y-0.495 E0.0251
G1 X2.052 Y-0.768 E0.0251
G1 X2.886 Y-1.189 E0.0252
G1 X3.636 Y-1.744 E0.0251
G1 X4.282 Y-2.418 E0.0251
G1 X4.805 Y-3.191 E0.0251
G1 X5.189 Y-4.042 E0.0251
G1 X5.424 Y-4.945 E0.0251
G1 X5.504 Y-5.875 E0.0251
G1 X5.424 Y-6.805 E0.0251
G1 X5.189 Y-7.708 E0.0251
G1 X4.805 Y-8.559 E0.0251
G1 X4.282 Y-9.332 E0.0252
G1 X3.636 Y-10.006 E0.0251
G1 X2.882 Y-10.564 E0.0253
G1 X2.310 Y-10.847 E0.0172
G1 X2.375 Y-11.125 E0.0077
G1 X7.337 Y-11.125 E0.1337
G1 X7.416 Y-10.871 E0.0072
G1 X6.745 Y-10.416 E0.0218
G1 X6.224 Y-9.913 E0.0195
G1 X5.533 Y-8.969 E0.0315
G1 X6.035 Y-7.568 E0.0401
G1 X6.214 Y-6.700 E0.0239
G1 X6.268 Y-5.815 E0.0239
G1 X6.094 Y-3.656 E0.0584
G1 X8.234 Y-3.888 E0.0580
G1 X9.111 Y-3.865 E0.0236
G1 X9.976 Y-3.724 E0.0236
G1 X11.373 Y-3.299 E0.0394
G1 X12.287 Y-4.005 E0.0311
G1 X12.777 Y-4.539 E0.0195
G1 X13.241 Y-5.264 E0.0232
G1 X13.500 Y-5.188 E0.0073
G1 X13.500 Y-0.548 E0.1250
G1 X13.260 Y-0.463 E0.0069
G1 X12.589 Y-1.294 E0.0288
G1 X11.868 Y-1.929 E0.0259
G1 X11.049 Y-2.432 E0.0259
G1 X10.154 Y-2.791 E0.0260
G1 X9.219 Y-2.993 E0.0257
