; G-Code generated by Simplify3D(R) Version 4.1.2
; Nov 18, 2022 at 4:04:38 PM
; Settings Summary
;   processName,Right Nozzle
;   applyToModels,trigger_box_right
;   profileName,myDefault (modified)
;   profileVersion,2018-01-19 08:00:00
;   baseProfile,Default
;   printMaterial,PLA
;   printQuality,Medium
;   printExtruders,Right Extruder Only
;   extruderName,Right Extruder,Left Extruder
;   extruderToolheadNumber,0,1
;   extruderDiameter,0.4,0.4
;   extruderAutoWidth,0,1
;   extruderWidth,0.4,0.48
;   extrusionMultiplier,0.9,0.9
;   extruderUseRetract,1,1
;   extruderRetractionDistance,1,4
;   extruderExtraRestartDistance,0,0
;   extruderRetractionZLift,0,0
;   extruderRetractionSpeed,1200,3600
;   extruderUseCoasting,0,1
;   extruderCoastingDistance,0.2,0.8
;   extruderUseWipe,0,0
;   extruderWipeDistance,5,5
;   primaryExtruder,0
;   layerHeight,0.2
;   topSolidLayers,3
;   bottomSolidLayers,3
;   perimeterOutlines,4
;   printPerimetersInsideOut,1
;   startPointOption,2
;   startPointOriginX,0
;   startPointOriginY,0
;   sequentialIslands,0
;   spiralVaseMode,0
;   firstLayerHeightPercentage,90
;   firstLayerWidthPercentage,100
;   firstLayerUnderspeed,0.5
;   useRaft,0
;   raftExtruder,0
;   raftTopLayers,3
;   raftBaseLayers,2
;   raftOffset,3
;   raftSeparationDistance,0.14
;   raftTopInfill,100
;   aboveRaftSpeedMultiplier,0.3
;   useSkirt,1
;   skirtExtruder,0
;   skirtLayers,1
;   skirtOutlines,2
;   skirtOffset,3
;   usePrimePillar,0
;   primePillarExtruder,999
;   primePillarWidth,12
;   primePillarLocation,7
;   primePillarSpeedMultiplier,1
;   useOozeShield,0
;   oozeShieldExtruder,999
;   oozeShieldOffset,2
;   oozeShieldOutlines,1
;   oozeShieldSidewallShape,1
;   oozeShieldSidewallAngle,30
;   oozeShieldSpeedMultiplier,1
;   infillExtruder,0
;   internalInfillPattern,Triangular
;   externalInfillPattern,Rectilinear
;   infillPercentage,40
;   outlineOverlapPercentage,40
;   infillExtrusionWidthPercentage,100
;   minInfillLength,5
;   infillLayerInterval,1
;   internalInfillAngles,0,60,-60
;   overlapInternalInfillAngles,1
;   externalInfillAngles,45,-45
;   generateSupport,1
;   supportExtruder,0
;   supportInfillPercentage,30
;   supportExtraInflation,0
;   supportBaseLayers,0
;   denseSupportExtruder,0
;   denseSupportLayers,0
;   denseSupportInfillPercentage,70
;   supportLayerInterval,1
;   supportHorizontalPartOffset,0.15
;   supportUpperSeparationLayers,1
;   supportLowerSeparationLayers,1
;   supportType,0
;   supportGridSpacing,2
;   maxOverhangAngle,45
;   supportAngles,0
;   temperatureName,Right Extruder,Left Extruder,Heated Build Platform
;   temperatureNumber,0,1,0
;   temperatureSetpointCount,1,1,1
;   temperatureSetpointLayers,1,1,1
;   temperatureSetpointTemperatures,195,0,60
;   temperatureStabilizeAtStartup,0,0,0
;   temperatureHeatedBed,0,0,1
;   fanLayers,1,3
;   fanSpeeds,0,100
;   blipFanToFullPower,0
;   adjustSpeedForCooling,1
;   minSpeedLayerTime,15
;   minCoolingSpeedSlowdown,20
;   increaseFanForCooling,0
;   minFanLayerTime,45
;   maxCoolingFanSpeed,100
;   increaseFanForBridging,1
;   bridgingFanSpeed,100
;   use5D,1
;   relativeEdistances,1
;   allowEaxisZeroing,0
;   independentExtruderAxes,1
;   includeM10123,0
;   stickySupport,1
;   applyToolheadOffsets,0
;   gcodeXoffset,0
;   gcodeYoffset,0
;   gcodeZoffset,0
;   overrideMachineDefinition,1
;   machineTypeOverride,0
;   strokeXoverride,225
;   strokeYoverride,145
;   strokeZoverride,150
;   originOffsetXoverride,112.5
;   originOffsetYoverride,72.5
;   originOffsetZoverride,0
;   homeXdirOverride,1
;   homeYdirOverride,1
;   homeZdirOverride,-1
;   flipXoverride,1
;   flipYoverride,-1
;   flipZoverride,1
;   toolheadOffsets,0,0|34,0|0,0|0,0|0,0|0,0
;   overrideFirmwareConfiguration,1
;   firmwareTypeOverride,MakerBot/Sailfish Firmware
;   GPXconfigOverride,r1d
;   baudRateOverride,115200
;   overridePrinterModels,1
;   printerModelsOverride,FlashForge_CreatorPro.stl
;   startingGcode,; **** Replicator 1 dual start.gcode ****,M73 P0 ; enable build progress,G162 X Y F3000 ; home XY maximum,G161 Z F1200 ; home Z minimum,G92 Z-5 ; set Z to -5,G1 Z0 ; move Z to 0,G161 Z F100 ; home Z slowly,M132 X Y Z A B ; recall home offsets,M135 T0 ; load right extruder offsets,G1 X150 Y-70 Z30 F9000 ; move to wait position right hand side of the table,G130 X20 Y20 Z20 A20 B20 ; lower stepper Vrefs while heating,M126 S[fan_speed_pwm],M140 S[bed0_temperature] T0,M134 T0 ; stabilize bed temperature,M104 S[extruder0_temperature] T0,M133 T0 ; stabilize right extruder temperature,G130 X127 Y127 Z40 A127 B127 ; default stepper Vrefs,G92 A0 B0 ; zero extruders,G1 Z0.4 ; position nozzle,G1 X110 Y-70 E25 F300 ; purge nozzle,G1 X120 Y-70 Z0.15 F1200 ; slow wipe,G1 X110 Y-70 Z0.5 F1200 ; lift,G92 A0 B0 ; zero extruders,M73 P1 ;@body (notify GPX body has started),; **** end of start.gcode ****
;   layerChangeGcode,
;   retractionGcode,
;   toolChangeGcode,
;   endingGcode,; **** Replicator 1 dual end.gcode ****,M73 P100 ; end build progress,G1 Z150 F1000 ; send Z axis to bottom of machine,M140 S0 T0 ; cool down HBP,M104 S0 T0 ; cool down right extruder,M104 S0 T1 ; cool down left extruder,M127 ; stop blower fan,G162 X Y F3000 ; home XY maximum,M18 ; disable stepper,M72 P1 ; play Ta-Da song,; **** end of end.gcode ****
;   exportFileFormat,x3g
;   celebration,0
;   celebrationSong,Random Song
;   postProcessing,
;   defaultSpeed,2400
;   outlineUnderspeed,0.5
;   solidInfillUnderspeed,0.8
;   supportUnderspeed,0.8
;   rapidXYspeed,4200
;   rapidZspeed,1200
;   minBridgingArea,50
;   bridgingExtraInflation,0
;   bridgingExtrusionMultiplier,1
;   bridgingSpeedMultiplier,0.8
;   useFixedBridgingAngle,0
;   fixedBridgingAngle,0
;   applyBridgingToPerimeters,0
;   filamentDiameters,1.75|1.75|1.75|1.75|1.75|1.75
;   filamentPricesPerKg,46|46|46|46|46|46
;   filamentDensities,1.25|1.25|1.25|1.25|1.25|1.25
;   useMinPrintHeight,0
;   minPrintHeight,0
;   useMaxPrintHeight,0
;   maxPrintHeight,30
;   useDiaphragm,1
;   diaphragmLayerInterval,20
;   robustSlicing,1
;   mergeAllIntoSolid,0
;   onlyRetractWhenCrossingOutline,1
;   retractBetweenLayers,1
;   useRetractionMinTravel,0
;   retractionMinTravel,3
;   retractWhileWiping,0
;   onlyWipeOutlines,1
;   avoidCrossingOutline,0
;   maxMovementDetourFactor,3
;   toolChangeRetractionDistance,12
;   toolChangeExtraRestartDistance,-0.5
;   toolChangeRetractionSpeed,600
;   externalThinWallType,0
;   internalThinWallType,2
;   thinWallAllowedOverlapPercentage,10
;   singleExtrusionMinLength,1
;   singleExtrusionMinPrintingWidthPercentage,50
;   singleExtrusionMaxPrintingWidthPercentage,200
;   singleExtrusionEndpointExtension,0.2
;   horizontalSizeCompensation,0
G90
M83
; **** Replicator 1 dual start.gcode ****
M73 P0 ; enable build progress
G162 X Y F3000 ; home XY maximum
G161 Z F1200 ; home Z minimum
G92 Z-5 ; set Z to -5
G1 Z0 ; move Z to 0
G161 Z F100 ; home Z slowly
M132 X Y Z A B ; recall home offsets
M135 T0 ; load right extruder offsets
G1 X150 Y-70 Z30 F9000 ; move to wait position right hand side of the table
G130 X20 Y20 Z20 A20 B20 ; lower stepper Vrefs while heating
M127
M140 S60 T0
M134 T0 ; stabilize bed temperature
M104 S195 T0
M133 T0 ; stabilize right extruder temperature
G130 X127 Y127 Z40 A127 B127 ; default stepper Vrefs
G92 A0 B0 ; zero extruders
G1 Z0.4 ; position nozzle
G1 X110 Y-70 E25 F300 ; purge nozzle
G1 X120 Y-70 Z0.15 F1200 ; slow wipe
G1 X110 Y-70 Z0.5 F1200 ; lift
G92 A0 B0 ; zero extruders
M73 P1 ;@body (notify GPX body has started)
; **** end of start.gcode ****
; process Right Nozzle
; layer 1, Z = 0.180
M135 T0
G1 E-1.0000 F1200
; feature skirt
; tool H0.180 W0.400
G1 Z0.180 F1200
G1 X-0.400 Y-18.350 F4200
G1 E1.0000 F1200
G1 X31.861 Y-18.350 E0.8691 F1200
G1 X33.184 Y-17.802 E0.0386
G1 X42.826 Y-8.160 E0.3674
G1 X43.251 Y-7.491 E0.0214
G1 X51.492 Y15.321 E0.6534
G1 X51.600 Y15.937 E0.0169
G1 X51.600 Y21.241 E0.1429
G1 X49.491 Y23.350 E0.0803
G1 X1.509 Y23.350 E1.2927
G1 X-0.600 Y21.241 E0.0803
G1 X-0.600 Y19.850 E0.0375
G1 X-49.493 Y19.850 E1.3172
G1 X-51.602 Y17.738 E0.0804
G1 X-51.587 Y7.257 E0.2823
G1 X-51.576 Y7.059 E0.0054
G1 X-51.453 Y5.964 E0.0297
G1 X-51.419 Y5.764 E0.0055
G1 X-51.175 Y4.692 E0.0296
G1 X-51.119 Y4.498 E0.0054
G1 X-50.756 Y3.460 E0.0296
G1 X-50.678 Y3.274 E0.0054
G1 X-50.202 Y2.284 E0.0296
G1 X-50.104 Y2.107 E0.0054
G1 X-49.535 Y1.201 E0.0288
G1 X-49.450 Y1.077 E0.0041
G1 X-49.086 Y0.594 E0.0163
G1 X-48.990 Y0.476 E0.0041
G1 X-48.308 Y-0.287 E0.0276
G1 X-48.238 Y-0.361 E0.0027
G1 X-37.600 Y-10.999 E0.4053
G1 X-37.600 Y-21.241 E0.2759
G1 X-35.491 Y-23.350 E0.0803
G1 X-2.509 Y-23.350 E0.8886
G1 X-0.400 Y-21.241 E0.0803
G1 X-0.400 Y-18.350 E0.0779
G1 E-1.0000 F1200
G1 X-0.800 Y-17.950 F4200
G1 E1.0000 F1200
G1 X31.781 Y-17.950 E0.8778 F1200
G1 X32.957 Y-17.463 E0.0343
G1 X42.512 Y-7.908 E0.3640
G1 X42.890 Y-7.313 E0.0190
G1 X51.104 Y15.424 E0.6513
G1 X51.200 Y15.972 E0.0150
G1 X51.200 Y21.075 E0.1375
G1 X49.325 Y22.950 E0.0714
G1 X1.675 Y22.950 E1.2838
G1 X-0.200 Y21.075 E0.0714
G1 X-0.200 Y19.450 E0.0438
G1 X-49.327 Y19.450 E1.3235
G1 X-51.202 Y17.572 E0.0715
G1 X-51.187 Y7.269 E0.2776
G1 X-51.177 Y7.092 E0.0048
G1 X-51.057 Y6.020 E0.0291
G1 X-51.027 Y5.842 E0.0049
G1 X-50.787 Y4.792 E0.0290
G1 X-50.737 Y4.619 E0.0048
G1 X-50.382 Y3.603 E0.0290
G1 X-50.313 Y3.437 E0.0048
G1 X-49.846 Y2.467 E0.0290
G1 X-49.759 Y2.310 E0.0048
G1 X-49.201 Y1.421 E0.0283
G1 X-49.125 Y1.311 E0.0036
G1 X-48.772 Y0.841 E0.0158
G1 X-48.686 Y0.736 E0.0037
G1 X-48.013 Y-0.016 E0.0272
G1 X-47.951 Y-0.082 E0.0024
G1 X-37.200 Y-10.833 E0.4096
G1 X-37.200 Y-21.075 E0.2759
G1 X-35.325 Y-22.950 E0.0714
G1 X-2.675 Y-22.950 E0.8796
G1 X-0.800 Y-21.075 E0.0714
G1 X-0.800 Y-17.950 E0.0842
G1 E-1.0000 F1200
; feature inner perimeter
G1 X-5.400 Y-18.350 F4200
G1 E1.0000 F1200
G1 X-5.400 Y-13.350 E0.1347 F900
G1 X30.565 Y-13.350 E0.9689
G1 X38.789 Y-5.125 E0.3134
G1 X46.600 Y16.495 E0.6193
G1 X46.600 Y18.350 E0.0500
G1 X4.400 Y18.350 E1.1369
G1 X4.400 Y14.850 E0.0943
G1 X-2.381 Y14.850 E0.1827
G1 X-1.982 Y12.741 E0.0578
G1 X-1.738 Y10.919 E0.0495
G1 X-1.591 Y9.087 E0.0495
G1 X-1.542 Y7.250 E0.0495
G1 X-1.591 Y5.413 E0.0495
G1 X-1.738 Y3.581 E0.0495
G1 X-1.982 Y1.759 E0.0495
G1 X-2.532 Y-1.150 E0.0798
G1 X-15.416 Y-1.150 E0.3471
G1 X-14.574 Y1.837 E0.0836
G1 X-14.309 Y3.022 E0.0327
G1 X-14.109 Y4.221 E0.0327
G1 X-13.976 Y5.429 E0.0327
G1 X-13.909 Y6.643 E0.0328
G1 X-13.909 Y7.857 E0.0327
G1 X-13.976 Y9.071 E0.0328
G1 X-14.103 Y10.223 E0.0312
G1 X-14.309 Y11.479 E0.0343
G1 X-14.574 Y12.663 E0.0327
G1 X-15.191 Y14.850 E0.0612
G1 X-46.600 Y14.850 E0.8462
G1 X-46.600 Y7.825 E0.1892
G1 X-46.589 Y7.440 E0.0104
G1 X-46.558 Y7.067 E0.0101
G1 X-46.506 Y6.701 E0.0100
G1 X-46.434 Y6.338 E0.0100
G1 X-46.342 Y5.979 E0.0100
G1 X-46.230 Y5.630 E0.0099
G1 X-46.097 Y5.280 E0.0101
G1 X-45.946 Y4.943 E0.0100
G1 X-45.776 Y4.614 E0.0100
G1 X-45.588 Y4.295 E0.0100
G1 X-45.384 Y3.990 E0.0099
G1 X-45.160 Y3.691 E0.0101
G1 X-44.921 Y3.409 E0.0100
G1 X-44.653 Y3.125 E0.0105
G1 X-32.600 Y-8.928 E0.4592
G1 X-32.600 Y-18.350 E0.2538
G1 X-22.433 Y-18.350 E0.2739
G1 X-22.364 Y-18.078 E0.0076
G1 X-22.532 Y-17.987 E0.0051
G1 X-22.980 Y-17.656 E0.0150
G1 X-23.366 Y-17.253 E0.0150
G1 X-23.602 Y-16.924 E0.0109
G1 X-23.790 Y-16.588 E0.0104
G1 X-23.939 Y-16.233 E0.0104
G1 X-24.052 Y-15.844 E0.0109
G1 X-24.130 Y-15.292 E0.0150
G1 X-24.114 Y-14.735 E0.0150
G1 X-24.046 Y-14.336 E0.0109
G1 X-23.933 Y-13.947 E0.0109
G1 X-23.712 Y-13.457 E0.0145
G1 X-23.494 Y-13.116 E0.0109
G1 X-23.240 Y-12.801 E0.0109
G1 X-22.847 Y-12.434 E0.0145
G1 X-22.514 Y-12.203 E0.0109
G1 X-22.176 Y-12.020 E0.0104
G1 X-21.819 Y-11.876 E0.0104
G1 X-21.428 Y-11.769 E0.0109
G1 X-20.895 Y-11.700 E0.0145
G1 X-20.490 Y-11.706 E0.0109
G1 X-20.089 Y-11.757 E0.0109
G1 X-19.551 Y-11.906 E0.0150
G1 X-19.046 Y-12.142 E0.0150
G1 X-18.708 Y-12.364 E0.0109
G1 X-18.396 Y-12.623 E0.0109
G1 X-18.035 Y-13.022 E0.0145
G1 X-17.809 Y-13.357 E0.0109
G1 X-17.622 Y-13.714 E0.0108
G1 X-17.436 Y-14.241 E0.0151
G1 X-17.338 Y-14.811 E0.0156
G1 X-17.338 Y-15.369 E0.0150
G1 X-17.395 Y-15.769 E0.0109
G1 X-17.492 Y-16.142 E0.0104
G1 X-17.630 Y-16.501 E0.0104
G1 X-17.816 Y-16.858 E0.0108
G1 X-18.131 Y-17.296 E0.0145
G1 X-18.411 Y-17.589 E0.0109
G1 X-18.723 Y-17.848 E0.0109
G1 X-19.113 Y-18.088 E0.0123
G1 X-19.039 Y-18.350 E0.0073
G1 X-5.400 Y-18.350 E0.3674
G1 X-5.000 Y-18.750 F4200
G1 X-5.000 Y-13.750 E0.1347 F900
G1 X30.730 Y-13.750 E0.9626
G1 X39.135 Y-5.345 E0.3202
G1 X47.000 Y16.425 E0.6236
G1 X47.000 Y18.750 E0.0626
G1 X4.000 Y18.750 E1.1585
G1 X4.000 Y15.250 E0.0943
G1 X-2.863 Y15.250 E0.1849
G1 X-2.377 Y12.677 E0.0705
G1 X-2.136 Y10.877 E0.0489
G1 X-1.990 Y9.066 E0.0489
G1 X-1.942 Y7.250 E0.0489
G1 X-1.990 Y5.434 E0.0489
G1 X-2.136 Y3.623 E0.0489
G1 X-2.377 Y1.823 E0.0489
G1 X-2.863 Y-0.750 E0.0705
G1 X-14.888 Y-0.750 E0.3240
G1 X-14.186 Y1.739 E0.0697
G1 X-13.916 Y2.946 E0.0333
G1 X-13.713 Y4.167 E0.0333
G1 X-13.577 Y5.396 E0.0333
G1 X-13.509 Y6.632 E0.0333
G1 X-13.509 Y7.868 E0.0333
G1 X-13.577 Y9.104 E0.0333
G1 X-13.706 Y10.277 E0.0318
G1 X-13.916 Y11.555 E0.0349
G1 X-14.186 Y12.761 E0.0333
G1 X-14.888 Y15.250 E0.0697
G1 X-47.000 Y15.250 E0.8651
G1 X-47.000 Y7.820 E0.2002
G1 X-46.989 Y7.418 E0.0108
G1 X-46.956 Y7.022 E0.0107
G1 X-46.901 Y6.634 E0.0106
G1 X-46.824 Y6.249 E0.0106
G1 X-46.726 Y5.868 E0.0106
G1 X-46.608 Y5.498 E0.0105
G1 X-46.467 Y5.127 E0.0107
G1 X-46.306 Y4.769 E0.0106
G1 X-46.126 Y4.420 E0.0106
G1 X-45.927 Y4.082 E0.0106
G1 X-45.711 Y3.759 E0.0105
G1 X-45.472 Y3.442 E0.0107
G1 X-45.219 Y3.142 E0.0106
G1 X-44.940 Y2.846 E0.0110
G1 X-33.000 Y-9.093 E0.4549
G1 X-33.000 Y-18.750 E0.2602
G1 X-5.000 Y-18.750 E0.7543
G1 X-4.600 Y-19.150 F4200
G1 X-4.600 Y-14.150 E0.1347 F900
G1 X30.896 Y-14.150 E0.9563
G1 X39.481 Y-5.565 E0.3271
G1 X47.400 Y16.355 E0.6279
G1 X47.400 Y19.150 E0.0753
G1 X3.600 Y19.150 E1.1800
G1 X3.600 Y15.650 E0.0943
G1 X-47.400 Y15.650 E1.3740
G1 X-47.400 Y7.814 E0.2111
G1 X-47.388 Y7.395 E0.0113
G1 X-47.353 Y6.977 E0.0113
G1 X-47.295 Y6.567 E0.0112
G1 X-47.214 Y6.160 E0.0112
G1 X-47.111 Y5.758 E0.0112
G1 X-46.986 Y5.366 E0.0111
G1 X-46.836 Y4.974 E0.0113
G1 X-46.667 Y4.596 E0.0112
G1 X-46.476 Y4.227 E0.0112
G1 X-46.265 Y3.869 E0.0112
G1 X-46.037 Y3.527 E0.0111
G1 X-45.785 Y3.192 E0.0113
G1 X-45.518 Y2.875 E0.0112
G1 X-45.226 Y2.567 E0.0114
G1 X-33.400 Y-9.259 E0.4506
G1 X-33.400 Y-19.150 E0.2665
G1 X-4.600 Y-19.150 E0.7759
; feature outer perimeter
G1 X-4.200 Y-19.550 F4200
G1 X-4.200 Y-14.550 E0.1347 F600
G1 X31.062 Y-14.550 E0.9500
G1 X39.827 Y-5.785 E0.3340
G1 X47.800 Y16.285 E0.6322
G1 X47.800 Y19.550 E0.0880
G1 X3.200 Y19.550 E1.2016
G1 X3.200 Y16.050 E0.0943
G1 X-47.800 Y16.050 E1.3740
G1 X-47.800 Y7.809 E0.2220
G1 X-47.788 Y7.373 E0.0118
G1 X-47.751 Y6.933 E0.0119
G1 X-47.690 Y6.500 E0.0118
G1 X-47.604 Y6.071 E0.0118
G1 X-47.495 Y5.647 E0.0118
G1 X-47.363 Y5.234 E0.0117
G1 X-47.206 Y4.821 E0.0119
G1 X-47.028 Y4.422 E0.0118
G1 X-46.827 Y4.033 E0.0118
G1 X-46.604 Y3.656 E0.0118
G1 X-46.363 Y3.296 E0.0117
G1 X-46.098 Y2.943 E0.0119
G1 X-45.816 Y2.609 E0.0118
G1 X-45.513 Y2.289 E0.0119
G1 X-33.800 Y-9.425 E0.4463
G1 X-33.800 Y-19.550 E0.2728
G1 X-4.200 Y-19.550 E0.7974
; feature inner perimeter
G1 X-17.873 Y-16.019 F4200
G1 X-17.995 Y-16.336 E0.0091 F900
G1 X-18.158 Y-16.647 E0.0095
G1 X-18.440 Y-17.040 E0.0130
G1 X-18.685 Y-17.296 E0.0095
G1 X-18.957 Y-17.522 E0.0095
G1 X-19.378 Y-17.782 E0.0133
G1 X-19.838 Y-17.966 E0.0133
G1 X-20.195 Y-18.054 E0.0099
G1 X-20.685 Y-18.103 E0.0133
G1 X-21.196 Y-18.067 E0.0138
