; G-Code generated by Simplify3D(R) Version 4.1.2
; Nov 18, 2022 at 4:07:26 PM
; Settings Summary
;   processName,Right Nozzle
;   applyToModels,trigger
;   profileName,myDefault (modified)
;   profileVersion,2018-01-19 08:00:00
;   baseProfile,Default
;   printMaterial,PLA
;   printQuality,Medium
;   printExtruders,Right Extruder Only
;   extruderName,Right Extruder,Left Extruder
;   extruderToolheadNumber,0,1
;   extruderDiameter,0.4,0.4
;   extruderAutoWidth,0,1
;   extruderWidth,0.4,0.48
;   extrusionMultiplier,0.9,0.9
;   extruderUseRetract,1,1
;   extruderRetractionDistance,1,4
;   extruderExtraRestartDistance,0,0
;   extruderRetractionZLift,0,0
;   extruderRetractionSpeed,1200,3600
;   extruderUseCoasting,0,1
;   extruderCoastingDistance,0.2,0.8
;   extruderUseWipe,0,0
;   extruderWipeDistance,5,5
;   primaryExtruder,0
;   layerHeight,0.2
;   topSolidLayers,3
;   bottomSolidLayers,3
;   perimeterOutlines,4
;   printPerimetersInsideOut,1
;   startPointOption,2
;   startPointOriginX,0
;   startPointOriginY,0
;   sequentialIslands,0
;   spiralVaseMode,0
;   firstLayerHeightPercentage,90
;   firstLayerWidthPercentage,100
;   firstLayerUnderspeed,0.5
;   useRaft,0
;   raftExtruder,0
;   raftTopLayers,3
;   raftBaseLayers,2
;   raftOffset,3
;   raftSeparationDistance,0.14
;   raftTopInfill,100
;   aboveRaftSpeedMultiplier,0.3
;   useSkirt,1
;   skirtExtruder,0
;   skirtLayers,1
;   skirtOutlines,2
;   skirtOffset,3
;   usePrimePillar,0
;   primePillarExtruder,999
;   primePillarWidth,12
;   primePillarLocation,7
;   primePillarSpeedMultiplier,1
;   useOozeShield,0
;   oozeShieldExtruder,999
;   oozeShieldOffset,2
;   oozeShieldOutlines,1
;   oozeShieldSidewallShape,1
;   oozeShieldSidewallAngle,30
;   oozeShieldSpeedMultiplier,1
;   infillExtruder,0
;   internalInfillPattern,Triangular
;   externalInfillPattern,Rectilinear
;   infillPercentage,60
;   outlineOverlapPercentage,40
;   infillExtrusionWidthPercentage,100
;   minInfillLength,5
;   infillLayerInterval,1
;   internalInfillAngles,0,60,-60
;   overlapInternalInfillAngles,1
;   externalInfillAngles,45,-45
;   generateSupport,1
;   supportExtruder,0
;   supportInfillPercentage,30
;   supportExtraInflation,0
;   supportBaseLayers,0
;   denseSupportExtruder,0
;   denseSupportLayers,0
;   denseSupportInfillPercentage,70
;   supportLayerInterval,1
;   supportHorizontalPartOffset,0.15
;   supportUpperSeparationLayers,1
;   supportLowerSeparationLayers,1
;   supportType,0
;   supportGridSpacing,2
;   maxOverhangAngle,45
;   supportAngles,0
;   temperatureName,Right Extruder,Left Extruder,Heated Build Platform
;   temperatureNumber,0,1,0
;   temperatureSetpointCount,1,1,1
;   temperatureSetpointLayers,1,1,1
;   temperatureSetpointTemperatures,195,0,60
;   temperatureStabilizeAtStartup,0,0,0
;   temperatureHeatedBed,0,0,1
;   fanLayers,1,3
;   fanSpeeds,0,100
;   blipFanToFullPower,0
;   adjustSpeedForCooling,1
;   minSpeedLayerTime,15
;   minCoolingSpeedSlowdown,20
;   increaseFanForCooling,0
;   minFanLayerTime,45
;   maxCoolingFanSpeed,100
;   increaseFanForBridging,1
;   bridgingFanSpeed,100
;   use5D,1
;   relativeEdistances,1
;   allowEaxisZeroing,0
;   independentExtruderAxes,1
;   includeM10123,0
;   stickySupport,1
;   applyToolheadOffsets,0
;   gcodeXoffset,0
;   gcodeYoffset,0
;   gcodeZoffset,0
;   overrideMachineDefinition,1
;   machineTypeOverride,0
;   strokeXoverride,225
;   strokeYoverride,145
;   strokeZoverride,150
;   originOffsetXoverride,112.5
;   originOffsetYoverride,72.5
;   originOffsetZoverride,0
;   homeXdirOverride,1
;   homeYdirOverride,1
;   homeZdirOverride,-1
;   flipXoverride,1
;   flipYoverride,-1
;   flipZoverride,1
;   toolheadOffsets,0,0|34,0|0,0|0,0|0,0|0,0
;   overrideFirmwareConfiguration,1
;   firmwareTypeOverride,MakerBot/Sailfish Firmware
;   GPXconfigOverride,r1d
;   baudRateOverride,115200
;   overridePrinterModels,1
;   printerModelsOverride,FlashForge_CreatorPro.stl
;   startingGcode,; **** Replicator 1 dual start.gcode ****,M73 P0 ; enable build progress,G162 X Y F3000 ; home XY maximum,G161 Z F1200 ; home Z minimum,G92 Z-5 ; set Z to -5,G1 Z0 ; move Z to 0,G161 Z F100 ; home Z slowly,M132 X Y Z A B ; recall home offsets,M135 T0 ; load right extruder offsets,G1 X150 Y-70 Z30 F9000 ; move to wait position right hand side of the table,G130 X20 Y20 Z20 A20 B20 ; lower stepper Vrefs while heating,M126 S[fan_speed_pwm],M140 S[bed0_temperature] T0,M134 T0 ; stabilize bed temperature,M104 S[extruder0_temperature] T0,M133 T0 ; stabilize right extruder temperature,G130 X127 Y127 Z40 A127 B127 ; default stepper Vrefs,G92 A0 B0 ; zero extruders,G1 Z0.4 ; position nozzle,G1 X110 Y-70 E25 F300 ; purge nozzle,G1 X120 Y-70 Z0.15 F1200 ; slow wipe,G1 X110 Y-70 Z0.5 F1200 ; lift,G92 A0 B0 ; zero extruders,M73 P1 ;@body (notify GPX body has started),; **** end of start.gcode ****
;   layerChangeGcode,
;   retractionGcode,
;   toolChangeGcode,
;   endingGcode,; **** Replicator 1 dual end.gcode ****,M73 P100 ; end build progress,G1 Z150 F1000 ; send Z axis to bottom of machine,M140 S0 T0 ; cool down HBP,M104 S0 T0 ; cool down right extruder,M104 S0 T1 ; cool down left extruder,M127 ; stop blower fan,G162 X Y F3000 ; home XY maximum,M18 ; disable stepper,M72 P1 ; play Ta-Da song,; **** end of end.gcode ****
;   exportFileFormat,x3g
;   celebration,0
;   celebrationSong,Random Song
;   postProcessing,
;   defaultSpeed,1200
;   outlineUnderspeed,0.5
;   solidInfillUnderspeed,0.8
;   supportUnderspeed,0.8
;   rapidXYspeed,4200
;   rapidZspeed,1200
;   minBridgingArea,50
;   bridgingExtraInflation,0
;   bridgingExtrusionMultiplier,1
;   bridgingSpeedMultiplier,0.8
;   useFixedBridgingAngle,0
;   fixedBridgingAngle,0
;   applyBridgingToPerimeters,0
;   filamentDiameters,1.75|1.75|1.75|1.75|1.75|1.75
;   filamentPricesPerKg,46|46|46|46|46|46
;   filamentDensities,1.25|1.25|1.25|1.25|1.25|1.25
;   useMinPrintHeight,0
;   minPrintHeight,0
;   useMaxPrintHeight,0
;   maxPrintHeight,30
;   useDiaphragm,1
;   diaphragmLayerInterval,20
;   robustSlicing,1
;   mergeAllIntoSolid,0
;   onlyRetractWhenCrossingOutline,1
;   retractBetweenLayers,1
;   useRetractionMinTravel,0
;   retractionMinTravel,3
;   retractWhileWiping,0
;   onlyWipeOutlines,1
;   avoidCrossingOutline,0
;   maxMovementDetourFactor,3
;   toolChangeRetractionDistance,12
;   toolChangeExtraRestartDistance,-0.5
;   toolChangeRetractionSpeed,600
;   externalThinWallType,0
;   internalThinWallType,2
;   thinWallAllowedOverlapPercentage,10
;   singleExtrusionMinLength,1
;   singleExtrusionMinPrintingWidthPercentage,50
;   singleExtrusionMaxPrintingWidthPercentage,200
;   singleExtrusionEndpointExtension,0.2
;   horizontalSizeCompensation,0
G90
M83
; **** Replicator 1 dual start.gcode ****
M73 P0 ; enable build progress
G162 X Y F3000 ; home XY maximum
G161 Z F1200 ; home Z minimum
G92 Z-5 ; set Z to -5
G1 Z0 ; move Z to 0
G161 Z F100 ; home Z slowly
M132 X Y Z A B ; recall home offsets
M135 T0 ; load right extruder offsets
G1 X150 Y-70 Z30 F9000 ; move to wait position right hand side of the table
G130 X20 Y20 Z20 A20 B20 ; lower stepper Vrefs while heating
M127
M140 S60 T0
M134 T0 ; stabilize bed temperature
M104 S195 T0
M133 T0 ; stabilize right extruder temperature
G130 X127 Y127 Z40 A127 B127 ; default stepper Vrefs
G92 A0 B0 ; zero extruders
G1 Z0.4 ; position nozzle
G1 X110 Y-70 E25 F300 ; purge nozzle
G1 X120 Y-70 Z0.15 F1200 ; slow wipe
G1 X110 Y-70 Z0.5 F1200 ; lift
G92 A0 B0 ; zero extruders
M73 P1 ;@body (notify GPX body has started)
; **** end of start.gcode ****
; process Right Nozzle
; layer 1, Z = 0.180
M135 T0
G1 E-1.0000 F1200
; feature skirt
; tool H0.180 W0.400
G1 Z0.180 F1200
G1 X-4.778 Y-4.514 F4200
G1 E1.0000 F1200
G1 X-4.189 Y-5.097 E0.0223 F600
G1 X-3.494 Y-5.844 E0.0275
G1 X-2.846 Y-6.601 E0.0268
G1 X-0.594 Y-9.538 E0.0997
G1 X0.622 Y-10.250 E0.0380
G1 X1.955 Y-10.442 E0.0363
G1 X2.212 Y-10.461 E0.0069
G1 X16.916 Y-10.465 E0.3961
G1 X17.018 Y-10.462 E0.0028
G1 X17.624 Y-10.428 E0.0164
G1 X17.827 Y-10.405 E0.0055
G1 X18.476 Y-10.294 E0.0177
G1 X18.675 Y-10.248 E0.0055
G1 X19.306 Y-10.063 E0.0177
G1 X19.499 Y-9.995 E0.0055
G1 X20.105 Y-9.741 E0.0177
G1 X20.289 Y-9.651 E0.0055
G1 X20.863 Y-9.330 E0.0177
G1 X21.035 Y-9.220 E0.0055
G1 X21.590 Y-8.821 E0.0184
G1 X21.786 Y-8.658 E0.0069
G1 X22.460 Y-8.009 E0.0252
G1 X22.631 Y-7.820 E0.0069
G1 X23.067 Y-7.261 E0.0191
G1 X23.210 Y-7.049 E0.0069
G1 X23.676 Y-6.239 E0.0252
G1 X23.787 Y-6.009 E0.0069
G1 X24.040 Y-5.374 E0.0184
G1 X24.105 Y-5.180 E0.0055
G1 X24.278 Y-4.546 E0.0177
G1 X24.321 Y-4.346 E0.0055
G1 X24.421 Y-3.696 E0.0177
G1 X24.440 Y-3.492 E0.0055
G1 X24.466 Y-2.835 E0.0177
G1 X24.463 Y-2.631 E0.0055
G1 X24.414 Y-1.975 E0.0177
G1 X24.387 Y-1.772 E0.0055
G1 X24.265 Y-1.126 E0.0177
G1 X24.215 Y-0.928 E0.0055
G1 X24.020 Y-0.300 E0.0177
G1 X23.949 Y-0.109 E0.0055
G1 X23.684 Y0.494 E0.0177
G1 X23.591 Y0.676 E0.0055
G1 X23.260 Y1.244 E0.0177
G1 X23.147 Y1.414 E0.0055
G1 X22.753 Y1.941 E0.0177
G1 X22.622 Y2.098 E0.0055
G1 X22.171 Y2.577 E0.0177
G1 X22.023 Y2.717 E0.0055
G1 X21.521 Y3.142 E0.0177
G1 X21.358 Y3.265 E0.0055
G1 X20.790 Y3.645 E0.0184
G1 X20.568 Y3.772 E0.0069
G1 X19.725 Y4.176 E0.0252
G1 X19.488 Y4.270 E0.0069
G1 X18.835 Y4.476 E0.0184
G1 X18.635 Y4.527 E0.0056
G1 X18.170 Y4.616 E0.0127
G1 X17.494 Y5.526 E0.0305
G1 X17.376 Y5.668 E0.0050
G1 X16.520 Y6.602 E0.0341
G1 X16.378 Y6.741 E0.0054
G1 X15.419 Y7.579 E0.0343
G1 X15.262 Y7.702 E0.0054
G1 X14.216 Y8.429 E0.0343
G1 X14.047 Y8.534 E0.0054
G1 X12.928 Y9.141 E0.0343
G1 X12.748 Y9.226 E0.0054
G1 X11.568 Y9.707 E0.0343
G1 X11.380 Y9.772 E0.0054
G1 X10.178 Y10.112 E0.0336
G1 X10.033 Y10.147 E0.0040
G1 X9.359 Y10.279 E0.0185
G1 X9.212 Y10.302 E0.0040
G1 X7.978 Y10.439 E0.0334
G1 X7.796 Y10.450 E0.0049
G1 X5.997 Y10.465 E0.0485
G1 X5.931 Y10.465 E0.0018
G1 X5.263 Y10.446 E0.0180
G1 X5.112 Y10.436 E0.0041
G1 X3.825 Y10.291 E0.0349
G1 X3.626 Y10.257 E0.0054
G1 X2.364 Y9.970 E0.0349
G1 X2.218 Y9.930 E0.0041
G1 X1.541 Y9.715 E0.0191
G1 X1.399 Y9.663 E0.0041
G1 X0.225 Y9.178 E0.0342
G1 X0.087 Y9.114 E0.0041
G1 X-0.522 Y8.800 E0.0184
G1 X-0.541 Y8.792 E0.0006
G1 X-0.569 Y8.788 E0.0007
G1 X-1.943 Y9.079 E0.0379
G1 X-2.032 Y9.096 E0.0024
G1 X-3.357 Y9.308 E0.0361
G1 X-3.457 Y9.321 E0.0027
G1 X-4.797 Y9.459 E0.0363
G1 X-4.898 Y9.466 E0.0027
G1 X-6.243 Y9.528 E0.0363
G1 X-6.345 Y9.530 E0.0027
G1 X-7.691 Y9.517 E0.0363
G1 X-7.793 Y9.513 E0.0027
G1 X-9.136 Y9.423 E0.0363
G1 X-9.237 Y9.414 E0.0027
G1 X-10.574 Y9.249 E0.0363
G1 X-10.674 Y9.234 E0.0027
G1 X-11.999 Y8.994 E0.0363
G1 X-12.099 Y8.973 E0.0027
G1 X-13.408 Y8.660 E0.0363
G1 X-13.506 Y8.633 E0.0027
G1 X-14.796 Y8.246 E0.0363
G1 X-14.892 Y8.214 E0.0027
G1 X-16.158 Y7.755 E0.0363
G1 X-16.253 Y7.718 E0.0027
G1 X-17.491 Y7.189 E0.0363
G1 X-17.583 Y7.146 E0.0027
G1 X-18.789 Y6.548 E0.0363
G1 X-18.879 Y6.501 E0.0027
G1 X-20.050 Y5.835 E0.0363
G1 X-20.137 Y5.783 E0.0027
G1 X-21.271 Y5.051 E0.0364
G1 X-21.360 Y4.990 E0.0029
G1 X-22.594 Y4.085 E0.0412
G1 X-22.818 Y3.891 E0.0080
G1 X-23.220 Y3.480 E0.0155
G1 X-23.440 Y3.205 E0.0095
G1 X-23.829 Y2.609 E0.0192
G1 X-24.010 Y2.250 E0.0108
G1 X-24.275 Y1.535 E0.0205
G1 X-24.378 Y1.094 E0.0122
G1 X-24.468 Y0.228 E0.0235
G1 X-24.458 Y-0.224 E0.0122
G1 X-24.345 Y-0.985 E0.0207
G1 X-24.237 Y-1.386 E0.0112
G1 X-23.445 Y-3.381 E0.0578
G1 X-20.462 Y-4.502 E0.0858
G1 X-18.245 Y-3.365 E0.0671
G1 X-17.435 Y-2.999 E0.0239
G1 X-16.608 Y-2.675 E0.0239
G1 X-15.767 Y-2.392 E0.0239
G1 X-14.912 Y-2.151 E0.0239
G1 X-14.046 Y-1.953 E0.0239
G1 X-13.172 Y-1.799 E0.0239
G1 X-12.291 Y-1.689 E0.0239
G1 X-11.439 Y-1.625 E0.0230
G1 X-10.140 Y-1.617 E0.0350
G1 X-9.424 Y-1.698 E0.0194
G1 X-8.711 Y-1.862 E0.0197
G1 X-8.020 Y-2.106 E0.0197
G1 X-7.316 Y-2.448 E0.0211
G1 X-7.088 Y-2.583 E0.0071
G1 X-6.399 Y-3.077 E0.0229
G1 X-5.676 Y-3.685 E0.0254
G1 X-4.778 Y-4.514 E0.0329
G1 E-1.0000 F1200
G1 X-4.502 Y-4.225 F4200
G1 E1.0000 F1200
G1 X-3.902 Y-4.819 E0.0227 F600
G1 X-3.196 Y-5.578 E0.0279
G1 X-2.535 Y-6.349 E0.0274
G1 X-0.324 Y-9.232 E0.0979
G1 X0.757 Y-9.865 E0.0337
G1 X1.998 Y-10.044 E0.0338
G1 X2.227 Y-10.061 E0.0062
G1 X16.910 Y-10.065 E0.3956
G1 X17.001 Y-10.063 E0.0025
G1 X17.590 Y-10.029 E0.0159
G1 X17.771 Y-10.009 E0.0049
G1 X18.397 Y-9.901 E0.0171
G1 X18.574 Y-9.860 E0.0049
G1 X19.183 Y-9.683 E0.0171
G1 X19.354 Y-9.622 E0.0049
G1 X19.940 Y-9.376 E0.0171
G1 X20.103 Y-9.297 E0.0049
G1 X20.657 Y-8.987 E0.0171
G1 X20.810 Y-8.889 E0.0049
G1 X21.344 Y-8.505 E0.0177
G1 X21.519 Y-8.359 E0.0061
G1 X22.172 Y-7.731 E0.0244
G1 X22.324 Y-7.562 E0.0061
G1 X22.743 Y-7.026 E0.0183
G1 X22.870 Y-6.838 E0.0061
G1 X23.322 Y-6.052 E0.0244
G1 X23.421 Y-5.847 E0.0061
G1 X23.665 Y-5.236 E0.0177
G1 X23.722 Y-5.064 E0.0049
G1 X23.889 Y-4.451 E0.0171
G1 X23.927 Y-4.274 E0.0049
G1 X24.024 Y-3.646 E0.0171
G1 X24.041 Y-3.465 E0.0049
G1 X24.066 Y-2.831 E0.0171
G1 X24.063 Y-2.649 E0.0049
G1 X24.016 Y-2.016 E0.0171
G1 X23.992 Y-1.836 E0.0049
G1 X23.874 Y-1.212 E0.0171
G1 X23.830 Y-1.036 E0.0049
G1 X23.641 Y-0.429 E0.0171
G1 X23.578 Y-0.259 E0.0049
G1 X23.322 Y0.322 E0.0171
G1 X23.240 Y0.484 E0.0049
G1 X22.920 Y1.033 E0.0171
G1 X22.820 Y1.184 E0.0049
G1 X22.440 Y1.693 E0.0171
G1 X22.323 Y1.832 E0.0049
G1 X21.888 Y2.295 E0.0171
G1 X21.756 Y2.419 E0.0049
G1 X21.272 Y2.830 E0.0171
G1 X21.127 Y2.939 E0.0049
G1 X20.580 Y3.305 E0.0177
G1 X20.382 Y3.417 E0.0061
G1 X19.565 Y3.809 E0.0244
G1 X19.354 Y3.893 E0.0061
G1 X18.725 Y4.091 E0.0177
G1 X18.547 Y4.136 E0.0049
G1 X17.942 Y4.253 E0.0166
G1 X17.179 Y5.279 E0.0344
G1 X17.074 Y5.406 E0.0044
G1 X16.233 Y6.324 E0.0336
G1 X16.106 Y6.447 E0.0048
G1 X15.164 Y7.271 E0.0337
G1 X15.025 Y7.380 E0.0048
G1 X13.997 Y8.095 E0.0337
G1 X13.846 Y8.187 E0.0048
G1 X12.746 Y8.785 E0.0337
G1 X12.587 Y8.860 E0.0048
G1 X11.427 Y9.332 E0.0337
G1 X11.260 Y9.390 E0.0048
G1 X10.077 Y9.725 E0.0331
G1 X9.948 Y9.756 E0.0036
G1 X9.290 Y9.885 E0.0181
G1 X9.159 Y9.905 E0.0036
G1 X7.944 Y10.040 E0.0329
G1 X7.782 Y10.050 E0.0044
G1 X5.997 Y10.065 E0.0481
G1 X5.938 Y10.065 E0.0016
G1 X5.282 Y10.047 E0.0177
G1 X5.148 Y10.037 E0.0036
G1 X3.881 Y9.895 E0.0344
G1 X3.704 Y9.865 E0.0048
G1 X2.461 Y9.582 E0.0344
G1 X2.331 Y9.546 E0.0036
G1 X1.670 Y9.336 E0.0187
G1 X1.544 Y9.290 E0.0036
G1 X0.385 Y8.811 E0.0338
G1 X0.263 Y8.755 E0.0036
G1 X-0.352 Y8.438 E0.0186
G1 X-0.431 Y8.405 E0.0023
G1 X-0.576 Y8.382 E0.0039
G1 X-0.586 Y8.382 E0.0003
G1 X-2.021 Y8.687 E0.0395
G1 X-2.101 Y8.702 E0.0022
G1 X-3.415 Y8.912 E0.0359
G1 X-3.504 Y8.924 E0.0024
G1 X-4.832 Y9.060 E0.0360
G1 X-4.922 Y9.067 E0.0024
G1 X-6.256 Y9.129 E0.0360
G1 X-6.346 Y9.130 E0.0024
G1 X-7.682 Y9.117 E0.0360
G1 X-7.772 Y9.113 E0.0024
G1 X-9.104 Y9.025 E0.0360
G1 X-9.194 Y9.016 E0.0024
G1 X-10.519 Y8.853 E0.0360
G1 X-10.608 Y8.839 E0.0024
G1 X-11.923 Y8.602 E0.0360
G1 X-12.011 Y8.583 E0.0024
G1 X-13.310 Y8.272 E0.0360
G1 X-13.396 Y8.248 E0.0024
G1 X-14.676 Y7.865 E0.0360
G1 X-14.761 Y7.836 E0.0024
G1 X-16.017 Y7.381 E0.0360
G1 X-16.100 Y7.348 E0.0024
G1 X-17.328 Y6.823 E0.0360
G1 X-17.410 Y6.785 E0.0024
G1 X-18.607 Y6.192 E0.0360
G1 X-18.686 Y6.150 E0.0024
G1 X-19.848 Y5.490 E0.0360
G1 X-19.925 Y5.444 E0.0024
G1 X-21.049 Y4.718 E0.0361
G1 X-21.128 Y4.664 E0.0026
G1 X-22.345 Y3.772 E0.0406
G1 X-22.543 Y3.600 E0.0071
G1 X-22.920 Y3.214 E0.0145
G1 X-23.116 Y2.970 E0.0084
G1 X-23.482 Y2.409 E0.0180
G1 X-23.643 Y2.090 E0.0096
G1 X-23.891 Y1.420 E0.0193
G1 X-23.983 Y1.028 E0.0108
G1 X-24.068 Y0.212 E0.0221
G1 X-24.059 Y-0.191 E0.0108
G1 X-23.953 Y-0.903 E0.0194
G1 X-23.857 Y-1.260 E0.0100
G1 X-23.138 Y-3.069 E0.0525
G1 X-20.487 Y-4.065 E0.0763
