; G-Code generated by Simplify3D(R) Version 4.1.2
; Nov 18, 2022 at 4:05:02 PM
; Settings Summary
;   processName,Right Nozzle
;   applyToModels,trigger_box_left
;   profileName,myDefault (modified)
;   profileVersion,2018-01-19 08:00:00
;   baseProfile,Default
;   printMaterial,PLA
;   printQuality,Medium
;   printExtruders,Right Extruder Only
;   extruderName,Right Extruder,Left Extruder
;   extruderToolheadNumber,0,1
;   extruderDiameter,0.4,0.4
;   extruderAutoWidth,0,1
;   extruderWidth,0.4,0.48
;   extrusionMultiplier,0.9,0.9
;   extruderUseRetract,1,1
;   extruderRetractionDistance,1,4
;   extruderExtraRestartDistance,0,0
;   extruderRetractionZLift,0,0
;   extruderRetractionSpeed,1200,3600
;   extruderUseCoasting,0,1
;   extruderCoastingDistance,0.2,0.8
;   extruderUseWipe,0,0
;   extruderWipeDistance,5,5
;   primaryExtruder,0
;   layerHeight,0.2
;   topSolidLayers,3
;   bottomSolidLayers,3
;   perimeterOutlines,4
;   printPerimetersInsideOut,1
;   startPointOption,2
;   startPointOriginX,0
;   startPointOriginY,0
;   sequentialIslands,0
;   spiralVaseMode,0
;   firstLayerHeightPercentage,90
;   firstLayerWidthPercentage,100
;   firstLayerUnderspeed,0.5
;   useRaft,0
;   raftExtruder,0
;   raftTopLayers,3
;   raftBaseLayers,2
;   raftOffset,3
;   raftSeparationDistance,0.14
;   raftTopInfill,100
;   aboveRaftSpeedMultiplier,0.3
;   useSkirt,1
;   skirtExtruder,0
;   skirtLayers,1
;   skirtOutlines,2
;   skirtOffset,3
;   usePrimePillar,0
;   primePillarExtruder,999
;   primePillarWidth,12
;   primePillarLocation,7
;   primePillarSpeedMultiplier,1
;   useOozeShield,0
;   oozeShieldExtruder,999
;   oozeShieldOffset,2
;   oozeShieldOutlines,1
;   oozeShieldSidewallShape,1
;   oozeShieldSidewallAngle,30
;   oozeShieldSpeedMultiplier,1
;   infillExtruder,0
;   internalInfillPattern,Triangular
;   externalInfillPattern,Rectilinear
;   infillPercentage,40
;   outlineOverlapPercentage,40
;   infillExtrusionWidthPercentage,100
;   minInfillLength,5
;   infillLayerInterval,1
;   internalInfillAngles,0,60,-60
;   overlapInternalInfillAngles,1
;   externalInfillAngles,45,-45
;   generateSupport,1
;   supportExtruder,0
;   supportInfillPercentage,30
;   supportExtraInflation,0
;   supportBaseLayers,0
;   denseSupportExtruder,0
;   denseSupportLayers,0
;   denseSupportInfillPercentage,70
;   supportLayerInterval,1
;   supportHorizontalPartOffset,0.15
;   supportUpperSeparationLayers,1
;   supportLowerSeparationLayers,1
;   supportType,0
;   supportGridSpacing,2
;   maxOverhangAngle,45
;   supportAngles,0
;   temperatureName,Right Extruder,Left Extruder,Heated Build Platform
;   temperatureNumber,0,1,0
;   temperatureSetpointCount,1,1,1
;   temperatureSetpointLayers,1,1,1
;   temperatureSetpointTemperatures,195,0,60
;   temperatureStabilizeAtStartup,0,0,0
;   temperatureHeatedBed,0,0,1
;   fanLayers,1,3
;   fanSpeeds,0,100
;   blipFanToFullPower,0
;   adjustSpeedForCooling,1
;   minSpeedLayerTime,15
;   minCoolingSpeedSlowdown,20
;   increaseFanForCooling,0
;   minFanLayerTime,45
;   maxCoolingFanSpeed,100
;   increaseFanForBridging,1
;   bridgingFanSpeed,100
;   use5D,1
;   relativeEdistances,1
;   allowEaxisZeroing,0
;   independentExtruderAxes,1
;   includeM10123,0
;   stickySupport,1
;   applyToolheadOffsets,0
;   gcodeXoffset,0
;   gcodeYoffset,0
;   gcodeZoffset,0
;   overrideMachineDefinition,1
;   machineTypeOverride,0
;   strokeXoverride,225
;   strokeYoverride,145
;   strokeZoverride,150
;   originOffsetXoverride,112.5
;   originOffsetYoverride,72.5
;   originOffsetZoverride,0
;   homeXdirOverride,1
;   homeYdirOverride,1
;   homeZdirOverride,-1
;   flipXoverride,1
;   flipYoverride,-1
;   flipZoverride,1
;   toolheadOffsets,0,0|34,0|0,0|0,0|0,0|0,0
;   overrideFirmwareConfiguration,1
;   firmwareTypeOverride,MakerBot/Sailfish Firmware
;   GPXconfigOverride,r1d
;   baudRateOverride,115200
;   overridePrinterModels,1
;   printerModelsOverride,FlashForge_CreatorPro.stl
;   startingGcode,; **** Replicator 1 dual start.gcode ****,M73 P0 ; enable build progress,G162 X Y F3000 ; home XY maximum,G161 Z F1200 ; home Z minimum,G92 Z-5 ; set Z to -5,G1 Z0 ; move Z to 0,G161 Z F100 ; home Z slowly,M132 X Y Z A B ; recall home offsets,M135 T0 ; load right extruder offsets,G1 X150 Y-70 Z30 F9000 ; move to wait position right hand side of the table,G130 X20 Y20 Z20 A20 B20 ; lower stepper Vrefs while heating,M126 S[fan_speed_pwm],M140 S[bed0_temperature] T0,M134 T0 ; stabilize bed temperature,M104 S[extruder0_temperature] T0,M133 T0 ; stabilize right extruder temperature,G130 X127 Y127 Z40 A127 B127 ; default stepper Vrefs,G92 A0 B0 ; zero extruders,G1 Z0.4 ; position nozzle,G1 X110 Y-70 E25 F300 ; purge nozzle,G1 X120 Y-70 Z0.15 F1200 ; slow wipe,G1 X110 Y-70 Z0.5 F1200 ; lift,G92 A0 B0 ; zero extruders,M73 P1 ;@body (notify GPX body has started),; **** end of start.gcode ****
;   layerChangeGcode,
;   retractionGcode,
;   toolChangeGcode,
;   endingGcode,; **** Replicator 1 dual end.gcode ****,M73 P100 ; end build progress,G1 Z150 F1000 ; send Z axis to bottom of machine,M140 S0 T0 ; cool down HBP,M104 S0 T0 ; cool down right extruder,M104 S0 T1 ; cool down left extruder,M127 ; stop blower fan,G162 X Y F3000 ; home XY maximum,M18 ; disable stepper,M72 P1 ; play Ta-Da song,; **** end of end.gcode ****
;   exportFileFormat,x3g
;   celebration,0
;   celebrationSong,Random Song
;   postProcessing,
;   defaultSpeed,2400
;   outlineUnderspeed,0.5
;   solidInfillUnderspeed,0.8
;   supportUnderspeed,0.8
;   rapidXYspeed,4200
;   rapidZspeed,1200
;   minBridgingArea,50
;   bridgingExtraInflation,0
;   bridgingExtrusionMultiplier,1
;   bridgingSpeedMultiplier,0.8
;   useFixedBridgingAngle,0
;   fixedBridgingAngle,0
;   applyBridgingToPerimeters,0
;   filamentDiameters,1.75|1.75|1.75|1.75|1.75|1.75
;   filamentPricesPerKg,46|46|46|46|46|46
;   filamentDensities,1.25|1.25|1.25|1.25|1.25|1.25
;   useMinPrintHeight,0
;   minPrintHeight,0
;   useMaxPrintHeight,0
;   maxPrintHeight,30
;   useDiaphragm,1
;   diaphragmLayerInterval,20
;   robustSlicing,1
;   mergeAllIntoSolid,0
;   onlyRetractWhenCrossingOutline,1
;   retractBetweenLayers,1
;   useRetractionMinTravel,0
;   retractionMinTravel,3
;   retractWhileWiping,0
;   onlyWipeOutlines,1
;   avoidCrossingOutline,0
;   maxMovementDetourFactor,3
;   toolChangeRetractionDistance,12
;   toolChangeExtraRestartDistance,-0.5
;   toolChangeRetractionSpeed,600
;   externalThinWallType,0
;   internalThinWallType,2
;   thinWallAllowedOverlapPercentage,10
;   singleExtrusionMinLength,1
;   singleExtrusionMinPrintingWidthPercentage,50
;   singleExtrusionMaxPrintingWidthPercentage,200
;   singleExtrusionEndpointExtension,0.2
;   horizontalSizeCompensation,0
G90
M83
; **** Replicator 1 dual start.gcode ****
M73 P0 ; enable build progress
G162 X Y F3000 ; home XY maximum
G161 Z F1200 ; home Z minimum
G92 Z-5 ; set Z to -5
G1 Z0 ; move Z to 0
G161 Z F100 ; home Z slowly
M132 X Y Z A B ; recall home offsets
M135 T0 ; load right extruder offsets
G1 X150 Y-70 Z30 F9000 ; move to wait position right hand side of the table
G130 X20 Y20 Z20 A20 B20 ; lower stepper Vrefs while heating
M127
M140 S60 T0
M134 T0 ; stabilize bed temperature
M104 S195 T0
M133 T0 ; stabilize right extruder temperature
G130 X127 Y127 Z40 A127 B127 ; default stepper Vrefs
G92 A0 B0 ; zero extruders
G1 Z0.4 ; position nozzle
G1 X110 Y-70 E25 F300 ; purge nozzle
G1 X120 Y-70 Z0.15 F1200 ; slow wipe
G1 X110 Y-70 Z0.5 F1200 ; lift
G92 A0 B0 ; zero extruders
M73 P1 ;@body (notify GPX body has started)
; **** end of start.gcode ****
; process Right Nozzle
; layer 1, Z = 0.180
M135 T0
G1 E-1.0000 F1200
; feature skirt
; tool H0.180 W0.400
G1 Z0.180 F1200
G1 X0.400 Y-18.350 F4200
G1 E1.0000 F1200
G1 X0.400 Y-21.241 E0.0779 F1200
G1 X2.509 Y-23.350 E0.0803
G1 X35.491 Y-23.350 E0.8886
G1 X37.600 Y-21.241 E0.0803
G1 X37.600 Y-10.999 E0.2759
G1 X48.238 Y-0.361 E0.4053
G1 X48.308 Y-0.287 E0.0027
G1 X49.006 Y0.495 E0.0283
G1 X49.132 Y0.653 E0.0054
G1 X49.754 Y1.528 E0.0289
G1 X49.836 Y1.656 E0.0041
G1 X50.141 Y2.173 E0.0162
G1 X50.212 Y2.306 E0.0041
G1 X50.678 Y3.274 E0.0289
G1 X50.756 Y3.460 E0.0054
G1 X51.119 Y4.498 E0.0296
G1 X51.175 Y4.692 E0.0054
G1 X51.419 Y5.764 E0.0296
G1 X51.453 Y5.963 E0.0054
G1 X51.576 Y7.054 E0.0296
G1 X51.587 Y7.253 E0.0054
G1 X51.602 Y17.738 E0.2825
G1 X49.493 Y19.850 E0.0804
G1 X0.600 Y19.850 E1.3172
G1 X0.600 Y21.241 E0.0375
G1 X-1.509 Y23.350 E0.0803
G1 X-49.491 Y23.350 E1.2927
G1 X-51.600 Y21.241 E0.0803
G1 X-51.600 Y15.937 E0.1429
G1 X-51.492 Y15.321 E0.0169
G1 X-43.251 Y-7.491 E0.6534
G1 X-42.826 Y-8.160 E0.0214
G1 X-33.184 Y-17.802 E0.3674
G1 X-31.861 Y-18.350 E0.0386
G1 X0.400 Y-18.350 E0.8691
G1 E-1.0000 F1200
G1 X0.800 Y-17.950 F4200
G1 E1.0000 F1200
G1 X0.800 Y-21.075 E0.0842 F1200
G1 X2.675 Y-22.950 E0.0714
G1 X35.325 Y-22.950 E0.8796
G1 X37.200 Y-21.075 E0.0714
G1 X37.200 Y-10.833 E0.2759
G1 X47.951 Y-0.082 E0.4096
G1 X48.013 Y-0.016 E0.0024
G1 X48.701 Y0.753 E0.0278
G1 X48.812 Y0.893 E0.0048
G1 X49.423 Y1.753 E0.0284
G1 X49.496 Y1.866 E0.0036
G1 X49.792 Y2.369 E0.0157
G1 X49.856 Y2.487 E0.0036
G1 X50.313 Y3.437 E0.0284
G1 X50.382 Y3.603 E0.0048
G1 X50.737 Y4.619 E0.0290
G1 X50.787 Y4.792 E0.0048
G1 X51.027 Y5.842 E0.0290
G1 X51.057 Y6.019 E0.0048
G1 X51.177 Y7.087 E0.0290
G1 X51.187 Y7.264 E0.0048
G1 X51.202 Y17.572 E0.2777
G1 X49.327 Y19.450 E0.0715
G1 X0.200 Y19.450 E1.3235
G1 X0.200 Y21.075 E0.0438
G1 X-1.675 Y22.950 E0.0714
G1 X-49.325 Y22.950 E1.2838
G1 X-51.200 Y21.075 E0.0714
G1 X-51.200 Y15.972 E0.1375
G1 X-51.104 Y15.424 E0.0150
G1 X-42.890 Y-7.313 E0.6513
G1 X-42.512 Y-7.908 E0.0190
G1 X-32.957 Y-17.463 E0.3640
G1 X-31.781 Y-17.950 E0.0343
G1 X0.800 Y-17.950 E0.8778
G1 E-1.0000 F1200
; feature inner perimeter
G1 X5.400 Y-18.350 F4200
G1 E1.0000 F1200
G1 X19.020 Y-18.350 E0.3669 F900
G1 X19.099 Y-18.098 E0.0071
G1 X18.571 Y-17.730 E0.0173
G1 X18.274 Y-17.454 E0.0109
G1 X18.011 Y-17.146 E0.0109
G1 X17.712 Y-16.676 E0.0150
G1 X17.497 Y-16.161 E0.0150
G1 X17.395 Y-15.769 E0.0109
G1 X17.338 Y-15.369 E0.0109
G1 X17.338 Y-14.831 E0.0145
G1 X17.398 Y-14.410 E0.0114
G1 X17.553 Y-13.875 E0.0150
G1 X17.797 Y-13.374 E0.0150
G1 X18.024 Y-13.038 E0.0109
G1 X18.287 Y-12.730 E0.0109
G1 X18.691 Y-12.375 E0.0145
G1 X19.029 Y-12.153 E0.0109
G1 X19.373 Y-11.980 E0.0104
G1 X19.734 Y-11.847 E0.0104
G1 X20.128 Y-11.750 E0.0109
G1 X20.663 Y-11.697 E0.0145
G1 X21.067 Y-11.714 E0.0109
G1 X21.467 Y-11.777 E0.0109
G1 X22.000 Y-11.940 E0.0150
G1 X22.516 Y-12.200 E0.0156
G1 X22.980 Y-12.544 E0.0156
G1 X23.366 Y-12.946 E0.0150
G1 X23.602 Y-13.275 E0.0109
G1 X23.800 Y-13.629 E0.0109
G1 X23.993 Y-14.130 E0.0145
G1 X24.084 Y-14.525 E0.0109
G1 X24.127 Y-14.907 E0.0104
G1 X24.127 Y-15.292 E0.0104
G1 X24.082 Y-15.695 E0.0109
G1 X23.941 Y-16.234 E0.0150
G1 X23.712 Y-16.742 E0.0150
G1 X23.494 Y-17.084 E0.0109
G1 X23.240 Y-17.399 E0.0109
G1 X22.832 Y-17.779 E0.0150
G1 X22.353 Y-18.093 E0.0154
G1 X22.430 Y-18.350 E0.0072
G1 X32.600 Y-18.350 E0.2740
G1 X32.600 Y-8.928 E0.2538
G1 X44.652 Y3.125 E0.4592
G1 X44.918 Y3.406 E0.0104
G1 X45.160 Y3.692 E0.0101
G1 X45.382 Y3.987 E0.0100
G1 X45.588 Y4.295 E0.0100
G1 X45.776 Y4.614 E0.0100
G1 X45.946 Y4.943 E0.0100
G1 X46.097 Y5.281 E0.0100
G1 X46.229 Y5.627 E0.0100
G1 X46.341 Y5.979 E0.0100
G1 X46.434 Y6.338 E0.0100
G1 X46.506 Y6.701 E0.0100
G1 X46.558 Y7.067 E0.0100
G1 X46.589 Y7.436 E0.0100
G1 X46.600 Y7.826 E0.0105
G1 X46.600 Y14.850 E0.1892
G1 X-4.400 Y14.850 E1.3740
G1 X-4.400 Y18.350 E0.0943
G1 X-46.600 Y18.350 E1.1369
G1 X-46.600 Y16.495 E0.0500
G1 X-38.789 Y-5.125 E0.6193
G1 X-30.565 Y-13.350 E0.3134
G1 X5.400 Y-13.350 E0.9689
G1 X5.400 Y-18.350 E0.1347
G1 X5.000 Y-18.750 F4200
G1 X33.000 Y-18.750 E0.7543 F900
G1 X33.000 Y-9.093 E0.2602
G1 X44.939 Y2.846 E0.4549
G1 X45.217 Y3.139 E0.0109
G1 X45.473 Y3.442 E0.0107
G1 X45.709 Y3.756 E0.0106
G1 X45.927 Y4.082 E0.0106
G1 X46.126 Y4.420 E0.0106
G1 X46.306 Y4.769 E0.0106
G1 X46.467 Y5.128 E0.0106
G1 X46.607 Y5.494 E0.0106
G1 X46.726 Y5.868 E0.0106
G1 X46.824 Y6.249 E0.0106
G1 X46.901 Y6.634 E0.0106
G1 X46.956 Y7.022 E0.0106
G1 X46.989 Y7.414 E0.0106
G1 X47.000 Y7.820 E0.0109
G1 X47.000 Y15.250 E0.2002
G1 X-4.000 Y15.250 E1.3740
G1 X-4.000 Y18.750 E0.0943
G1 X-47.000 Y18.750 E1.1585
G1 X-47.000 Y16.425 E0.0626
G1 X-39.135 Y-5.345 E0.6236
G1 X-30.730 Y-13.750 E0.3202
G1 X5.000 Y-13.750 E0.9626
G1 X5.000 Y-18.750 E0.1347
G1 X4.600 Y-19.150 F4200
G1 X33.400 Y-19.150 E0.7759 F900
G1 X33.400 Y-9.259 E0.2665
G1 X45.226 Y2.567 E0.4506
G1 X45.515 Y2.873 E0.0113
G1 X45.786 Y3.193 E0.0113
G1 X46.035 Y3.524 E0.0112
G1 X46.266 Y3.869 E0.0112
G1 X46.476 Y4.227 E0.0112
G1 X46.667 Y4.596 E0.0112
G1 X46.836 Y4.974 E0.0112
G1 X46.985 Y5.362 E0.0112
G1 X47.111 Y5.758 E0.0112
G1 X47.214 Y6.160 E0.0112
G1 X47.295 Y6.567 E0.0112
G1 X47.353 Y6.978 E0.0112
G1 X47.388 Y7.391 E0.0112
G1 X47.400 Y7.814 E0.0114
G1 X47.400 Y15.650 E0.2111
G1 X-3.600 Y15.650 E1.3740
G1 X-3.600 Y19.150 E0.0943
G1 X-47.400 Y19.150 E1.1800
G1 X-47.400 Y16.355 E0.0753
G1 X-39.481 Y-5.565 E0.6279
G1 X-30.896 Y-14.150 E0.3271
G1 X4.600 Y-14.150 E0.9563
G1 X4.600 Y-19.150 E0.1347
; feature outer perimeter
G1 X4.200 Y-19.550 F4200
G1 X33.800 Y-19.550 E0.7974 F600
G1 X33.800 Y-9.425 E0.2728
G1 X45.513 Y2.289 E0.4463
G1 X45.813 Y2.606 E0.0118
G1 X46.098 Y2.943 E0.0119
G1 X46.361 Y3.293 E0.0118
G1 X46.604 Y3.656 E0.0118
G1 X46.827 Y4.033 E0.0118
G1 X47.027 Y4.422 E0.0118
G1 X47.206 Y4.821 E0.0118
G1 X47.362 Y5.230 E0.0118
G1 X47.495 Y5.647 E0.0118
G1 X47.604 Y6.070 E0.0118
G1 X47.690 Y6.500 E0.0118
G1 X47.751 Y6.933 E0.0118
G1 X47.788 Y7.369 E0.0118
G1 X47.800 Y7.809 E0.0119
G1 X47.800 Y16.050 E0.2220
G1 X-3.200 Y16.050 E1.3740
G1 X-3.200 Y19.550 E0.0943
G1 X-47.800 Y19.550 E1.2016
G1 X-47.800 Y16.285 E0.0880
G1 X-39.827 Y-5.785 E0.6322
G1 X-31.062 Y-14.550 E0.3340
G1 X4.200 Y-14.550 E0.9500
G1 X4.200 Y-19.550 E0.1347
G1 E-1.0000 F1200
; feature inner perimeter
G1 X-1.589 Y-7.404 F4200
G1 E1.0000 F1200
G1 X-2.879 Y-8.103 E0.0395 F900
G1 X-4.013 Y-8.643 E0.0338
G1 X-5.173 Y-9.125 E0.0338
G1 X-6.356 Y-9.548 E0.0338
G1 X-7.559 Y-9.908 E0.0338
G1 X-8.779 Y-10.207 E0.0338
G1 X-10.012 Y-10.443 E0.0338
G1 X-11.256 Y-10.616 E0.0338
G1 X-12.508 Y-10.724 E0.0338
G1 X-13.764 Y-10.768 E0.0339
G1 X-14.084 Y-10.763 E0.0086
G1 X-14.664 Y-10.703 E0.0157
G1 X-15.233 Y-10.580 E0.0157
G1 X-15.559 Y-10.480 E0.0092
G1 X-16.100 Y-10.263 E0.0157
G1 X-16.614 Y-9.988 E0.0157
G1 X-16.899 Y-9.802 E0.0092
G1 X-17.360 Y-9.445 E0.0157
G1 X-17.792 Y-9.025 E0.0162
G1 X-18.174 Y-8.559 E0.0162
G1 X-18.502 Y-8.054 E0.0162
G1 X-18.772 Y-7.515 E0.0162
G1 X-18.974 Y-6.968 E0.0157
G1 X-19.064 Y-6.640 E0.0092
G1 X-19.172 Y-6.067 E0.0157
G1 X-19.215 Y-5.485 E0.0157
G1 X-19.212 Y-5.145 E0.0092
G1 X-19.159 Y-4.584 E0.0152
G1 X-19.099 Y-4.249 E0.0092
G1 X-18.949 Y-3.686 E0.0157
G1 X-18.729 Y-3.124 E0.0162
G1 X-18.449 Y-2.591 E0.0162
G1 X-18.111 Y-2.092 E0.0162
G1 X-17.719 Y-1.634 E0.0162
G1 X-17.279 Y-1.223 E0.0162
G1 X-16.796 Y-0.863 E0.0162
G1 X-16.275 Y-0.559 E0.0162
G1 X-15.725 Y-0.315 E0.0162
G1 X-15.169 Y-0.139 E0.0157
G1 X-14.837 Y-0.065 E0.0092
G1 X-14.278 Y0.013 E0.0152
G1 X-13.939 Y0.032 E0.0092
G1 X-13.356 Y0.014 E0.0157
G1 X-12.779 Y-0.067 E0.0157
G1 X-12.731 Y-0.078 E0.0013
G1 X-12.156 Y-0.017 E0.0156
G1 X-11.393 Y0.106 E0.0208
G1 X-10.638 Y0.273 E0.0208
G1 X-9.894 Y0.480 E0.0208
G1 X-9.162 Y0.729 E0.0208
G1 X-8.446 Y1.018 E0.0208
G1 X-7.453 Y1.485 E0.0296
G1 X-6.900 Y1.689 E0.0159
G1 X-6.309 Y1.835 E0.0164
G1 X-5.725 Y1.910 E0.0159
G1 X-5.401 Y1.925 E0.0087
G1 X-5.077 Y1.921 E0.0087
