; G-Code generated by Simplify3D(R) Version 4.1.2
; Nov 6, 2022 at 3:18:47 PM
; Settings Summary
;   processName,Right Nozzle
;   applyToModels,upper_receiver_left
;   profileName,myDefault (modified)
;   profileVersion,2018-01-19 08:00:00
;   baseProfile,Default
;   printMaterial,PLA
;   printQuality,Medium
;   printExtruders,Right Extruder Only
;   extruderName,Right Extruder,Left Extruder
;   extruderToolheadNumber,0,1
;   extruderDiameter,0.4,0.4
;   extruderAutoWidth,0,1
;   extruderWidth,0.4,0.48
;   extrusionMultiplier,0.9,0.9
;   extruderUseRetract,1,1
;   extruderRetractionDistance,1,4
;   extruderExtraRestartDistance,0,0
;   extruderRetractionZLift,0,0
;   extruderRetractionSpeed,1200,3600
;   extruderUseCoasting,0,1
;   extruderCoastingDistance,0.2,0.8
;   extruderUseWipe,0,0
;   extruderWipeDistance,5,5
;   primaryExtruder,0
;   layerHeight,0.2
;   topSolidLayers,3
;   bottomSolidLayers,3
;   perimeterOutlines,4
;   printPerimetersInsideOut,1
;   startPointOption,2
;   startPointOriginX,0
;   startPointOriginY,0
;   sequentialIslands,0
;   spiralVaseMode,0
;   firstLayerHeightPercentage,90
;   firstLayerWidthPercentage,100
;   firstLayerUnderspeed,0.5
;   useRaft,0
;   raftExtruder,0
;   raftTopLayers,3
;   raftBaseLayers,2
;   raftOffset,3
;   raftSeparationDistance,0.14
;   raftTopInfill,100
;   aboveRaftSpeedMultiplier,0.3
;   useSkirt,1
;   skirtExtruder,0
;   skirtLayers,1
;   skirtOutlines,2
;   skirtOffset,3
;   usePrimePillar,0
;   primePillarExtruder,999
;   primePillarWidth,12
;   primePillarLocation,7
;   primePillarSpeedMultiplier,1
;   useOozeShield,0
;   oozeShieldExtruder,999
;   oozeShieldOffset,2
;   oozeShieldOutlines,1
;   oozeShieldSidewallShape,1
;   oozeShieldSidewallAngle,30
;   oozeShieldSpeedMultiplier,1
;   infillExtruder,0
;   internalInfillPattern,Triangular
;   externalInfillPattern,Rectilinear
;   infillPercentage,40
;   outlineOverlapPercentage,20
;   infillExtrusionWidthPercentage,100
;   minInfillLength,5
;   infillLayerInterval,1
;   internalInfillAngles,0,60,-60
;   overlapInternalInfillAngles,1
;   externalInfillAngles,45,-45
;   generateSupport,1
;   supportExtruder,0
;   supportInfillPercentage,30
;   supportExtraInflation,0
;   supportBaseLayers,0
;   denseSupportExtruder,0
;   denseSupportLayers,0
;   denseSupportInfillPercentage,70
;   supportLayerInterval,1
;   supportHorizontalPartOffset,0.3
;   supportUpperSeparationLayers,1
;   supportLowerSeparationLayers,1
;   supportType,0
;   supportGridSpacing,2.5
;   maxOverhangAngle,45
;   supportAngles,0
;   temperatureName,Right Extruder,Left Extruder,Heated Build Platform
;   temperatureNumber,0,1,0
;   temperatureSetpointCount,1,1,1
;   temperatureSetpointLayers,1,1,1
;   temperatureSetpointTemperatures,195,0,60
;   temperatureStabilizeAtStartup,0,0,0
;   temperatureHeatedBed,0,0,1
;   fanLayers,1,3
;   fanSpeeds,0,100
;   blipFanToFullPower,0
;   adjustSpeedForCooling,1
;   minSpeedLayerTime,15
;   minCoolingSpeedSlowdown,20
;   increaseFanForCooling,0
;   minFanLayerTime,45
;   maxCoolingFanSpeed,100
;   increaseFanForBridging,1
;   bridgingFanSpeed,100
;   use5D,1
;   relativeEdistances,1
;   allowEaxisZeroing,0
;   independentExtruderAxes,1
;   includeM10123,0
;   stickySupport,1
;   applyToolheadOffsets,0
;   gcodeXoffset,0
;   gcodeYoffset,0
;   gcodeZoffset,0
;   overrideMachineDefinition,1
;   machineTypeOverride,0
;   strokeXoverride,225
;   strokeYoverride,145
;   strokeZoverride,150
;   originOffsetXoverride,112.5
;   originOffsetYoverride,72.5
;   originOffsetZoverride,0
;   homeXdirOverride,1
;   homeYdirOverride,1
;   homeZdirOverride,-1
;   flipXoverride,1
;   flipYoverride,-1
;   flipZoverride,1
;   toolheadOffsets,0,0|34,0|0,0|0,0|0,0|0,0
;   overrideFirmwareConfiguration,1
;   firmwareTypeOverride,MakerBot/Sailfish Firmware
;   GPXconfigOverride,r1d
;   baudRateOverride,115200
;   overridePrinterModels,1
;   printerModelsOverride,FlashForge_CreatorPro.stl
;   startingGcode,; **** Replicator 1 dual start.gcode ****,M73 P0 ; enable build progress,G162 X Y F3000 ; home XY maximum,G161 Z F1200 ; home Z minimum,G92 Z-5 ; set Z to -5,G1 Z0 ; move Z to 0,G161 Z F100 ; home Z slowly,M132 X Y Z A B ; recall home offsets,M135 T0 ; load right extruder offsets,G1 X150 Y-70 Z30 F9000 ; move to wait position right hand side of the table,G130 X20 Y20 Z20 A20 B20 ; lower stepper Vrefs while heating,M126 S[fan_speed_pwm],M140 S[bed0_temperature] T0,M134 T0 ; stabilize bed temperature,M104 S[extruder0_temperature] T0,M133 T0 ; stabilize right extruder temperature,G130 X127 Y127 Z40 A127 B127 ; default stepper Vrefs,G92 A0 B0 ; zero extruders,G1 Z0.4 ; position nozzle,G1 X110 Y-70 E25 F300 ; purge nozzle,G1 X120 Y-70 Z0.15 F1200 ; slow wipe,G1 X110 Y-70 Z0.5 F1200 ; lift,G92 A0 B0 ; zero extruders,M73 P1 ;@body (notify GPX body has started),; **** end of start.gcode ****
;   layerChangeGcode,
;   retractionGcode,
;   toolChangeGcode,
;   endingGcode,; **** Replicator 1 dual end.gcode ****,M73 P100 ; end build progress,G1 Z150 F1000 ; send Z axis to bottom of machine,M140 S0 T0 ; cool down HBP,M104 S0 T0 ; cool down right extruder,M104 S0 T1 ; cool down left extruder,M127 ; stop blower fan,G162 X Y F3000 ; home XY maximum,M18 ; disable stepper,M72 P1 ; play Ta-Da song,; **** end of end.gcode ****
;   exportFileFormat,x3g
;   celebration,0
;   celebrationSong,Random Song
;   postProcessing,
;   defaultSpeed,3000
;   outlineUnderspeed,0.5
;   solidInfillUnderspeed,0.8
;   supportUnderspeed,0.8
;   rapidXYspeed,4200
;   rapidZspeed,1200
;   minBridgingArea,50
;   bridgingExtraInflation,0
;   bridgingExtrusionMultiplier,1
;   bridgingSpeedMultiplier,0.8
;   useFixedBridgingAngle,0
;   fixedBridgingAngle,0
;   applyBridgingToPerimeters,0
;   filamentDiameters,1.75|1.75|1.75|1.75|1.75|1.75
;   filamentPricesPerKg,46|46|46|46|46|46
;   filamentDensities,1.25|1.25|1.25|1.25|1.25|1.25
;   useMinPrintHeight,0
;   minPrintHeight,0
;   useMaxPrintHeight,0
;   maxPrintHeight,30
;   useDiaphragm,1
;   diaphragmLayerInterval,20
;   robustSlicing,1
;   mergeAllIntoSolid,0
;   onlyRetractWhenCrossingOutline,1
;   retractBetweenLayers,1
;   useRetractionMinTravel,0
;   retractionMinTravel,3
;   retractWhileWiping,0
;   onlyWipeOutlines,1
;   avoidCrossingOutline,0
;   maxMovementDetourFactor,3
;   toolChangeRetractionDistance,12
;   toolChangeExtraRestartDistance,-0.5
;   toolChangeRetractionSpeed,600
;   externalThinWallType,0
;   internalThinWallType,2
;   thinWallAllowedOverlapPercentage,10
;   singleExtrusionMinLength,1
;   singleExtrusionMinPrintingWidthPercentage,50
;   singleExtrusionMaxPrintingWidthPercentage,200
;   singleExtrusionEndpointExtension,0.2
;   horizontalSizeCompensation,0
G90
M83
; **** Replicator 1 dual start.gcode ****
M73 P0 ; enable build progress
G162 X Y F3000 ; home XY maximum
G161 Z F1200 ; home Z minimum
G92 Z-5 ; set Z to -5
G1 Z0 ; move Z to 0
G161 Z F100 ; home Z slowly
M132 X Y Z A B ; recall home offsets
M135 T0 ; load right extruder offsets
G1 X150 Y-70 Z30 F9000 ; move to wait position right hand side of the table
G130 X20 Y20 Z20 A20 B20 ; lower stepper Vrefs while heating
M127
M140 S60 T0
M134 T0 ; stabilize bed temperature
M104 S195 T0
M133 T0 ; stabilize right extruder temperature
G130 X127 Y127 Z40 A127 B127 ; default stepper Vrefs
G92 A0 B0 ; zero extruders
G1 Z0.4 ; position nozzle
G1 X110 Y-70 E25 F300 ; purge nozzle
G1 X120 Y-70 Z0.15 F1200 ; slow wipe
G1 X110 Y-70 Z0.5 F1200 ; lift
G92 A0 B0 ; zero extruders
M73 P1 ;@body (notify GPX body has started)
; **** end of start.gcode ****
; process Right Nozzle
; layer 1, Z = 0.180
M135 T0
G1 E-1.0000 F1200
; feature skirt
; tool H0.180 W0.400
G1 Z0.180 F1200
G1 X-3.770 Y23.895 F4200
G1 E1.0000 F1200
G1 X-8.325 Y23.885 E0.1227 F1500
G1 X-8.359 Y23.919 E0.0013
G1 X-15.782 Y23.919 E0.2000
G1 X-15.880 Y23.820 E0.0038
G1 X-23.631 Y23.820 E0.2088
G1 X-23.775 Y23.964 E0.0055
G1 X-31.197 Y23.964 E0.2000
G1 X-31.245 Y23.917 E0.0018
G1 X-35.533 Y23.917 E0.1155
G1 X-35.632 Y23.818 E0.0038
G1 X-42.095 Y23.797 E0.1741
G1 X-43.318 Y23.807 E0.0329
G1 X-43.459 Y23.948 E0.0054
G1 X-50.881 Y23.948 E0.2000
G1 X-51.009 Y23.820 E0.0049
G1 X-56.038 Y23.820 E0.1355
G1 X-56.108 Y23.890 E0.0026
G1 X-63.530 Y23.890 E0.2000
G1 X-63.599 Y23.820 E0.0026
G1 X-67.469 Y23.821 E0.1043
G1 X-67.509 Y23.860 E0.0015
G1 X-74.931 Y23.860 E0.2000
G1 X-74.971 Y23.820 E0.0015
G1 X-85.965 Y23.820 E0.2962
G1 X-85.965 Y26.539 E0.0733
G1 X-86.098 Y26.672 E0.0051
G1 X-86.098 Y29.352 E0.0722
G1 X-88.207 Y31.461 E0.0803
G1 X-88.263 Y31.461 E0.0015
G1 X-88.921 Y32.120 E0.0251
G1 X-89.959 Y32.120 E0.0280
G1 X-90.725 Y32.885 E0.0292
G1 X-98.148 Y32.885 E0.2000
G1 X-98.268 Y32.765 E0.0046
G1 X-100.127 Y32.765 E0.0501
G1 X-100.945 Y31.947 E0.0312
G1 X-101.128 Y31.947 E0.0049
G1 X-103.237 Y29.839 E0.0803
G1 X-103.237 Y29.546 E0.0079
G1 X-104.506 Y28.276 E0.0483
G1 X-104.506 Y20.854 E0.2000
G1 X-104.030 Y20.378 E0.0181
G1 X-104.030 Y18.141 E0.0603
G1 X-103.600 Y17.711 E0.0164
G1 X-103.600 Y-9.222 E0.7256
G1 X-104.338 Y-9.960 E0.0281
G1 X-104.338 Y-13.465 E0.0944
G1 X-104.482 Y-13.608 E0.0055
G1 X-104.496 Y-18.067 E0.1201
G1 X-104.539 Y-18.110 E0.0016
G1 X-104.539 Y-25.532 E0.2000
G1 X-104.267 Y-25.804 E0.0104
G1 X-104.267 Y-27.979 E0.0586
G1 X-103.989 Y-28.257 E0.0106
G1 X-103.989 Y-30.989 E0.0736
G1 X-101.880 Y-33.098 E0.0803
G1 X-94.458 Y-33.098 E0.2000
G1 X-94.344 Y-32.983 E0.0044
G1 X-93.026 Y-32.983 E0.0355
G1 X-92.966 Y-33.043 E0.0023
G1 X-85.543 Y-33.043 E0.2000
G1 X-85.506 Y-33.006 E0.0014
G1 X-84.119 Y-33.006 E0.0374
G1 X-84.049 Y-33.076 E0.0027
G1 X-81.095 Y-33.076 E0.0796
G1 X-81.054 Y-33.117 E0.0016
G1 X-70.434 Y-33.119 E0.2861
G1 X-70.276 Y-32.961 E0.0060
G1 X-64.334 Y-32.972 E0.1601
G1 X-64.298 Y-32.936 E0.0014
G1 X-58.104 Y-32.957 E0.1669
G1 X-57.926 Y-32.780 E0.0068
G1 X-49.153 Y-32.747 E0.2364
G1 X-47.571 Y-32.747 E0.0426
G1 X-47.512 Y-32.806 E0.0022
G1 X-34.207 Y-32.828 E0.3584
G1 X-33.958 Y-32.579 E0.0095
G1 X-33.159 Y-32.579 E0.0215
G1 X-32.819 Y-32.920 E0.0130
G1 X-25.396 Y-32.920 E0.2000
G1 X-25.319 Y-32.843 E0.0029
G1 X-15.834 Y-32.804 E0.2555
G1 X-15.668 Y-32.637 E0.0064
G1 X-13.120 Y-32.637 E0.0686
G1 X-12.905 Y-32.853 E0.0082
G1 X-5.483 Y-32.853 E0.2000
G1 X-5.393 Y-32.763 E0.0034
G1 X0.011 Y-32.747 E0.1456
G1 X0.122 Y-32.857 E0.0042
G1 X3.402 Y-32.857 E0.0884
G1 X3.610 Y-33.065 E0.0079
G1 X6.244 Y-33.065 E0.0710
G1 X6.287 Y-33.108 E0.0016
G1 X12.185 Y-33.108 E0.1589
G1 X12.260 Y-33.183 E0.0029
G1 X18.283 Y-33.183 E0.1622
G1 X18.528 Y-33.428 E0.0093
G1 X25.950 Y-33.428 E0.2000
G1 X25.974 Y-33.405 E0.0009
G1 X27.019 Y-33.405 E0.0282
G1 X27.123 Y-33.509 E0.0040
G1 X29.776 Y-33.509 E0.0715
G1 X29.826 Y-33.560 E0.0019
G1 X37.248 Y-33.560 E0.2000
G1 X37.264 Y-33.544 E0.0006
G1 X38.249 Y-33.544 E0.0265
G1 X38.715 Y-34.010 E0.0177
G1 X40.440 Y-34.010 E0.0465
G1 X40.685 Y-34.255 E0.0094
G1 X48.108 Y-34.255 E0.2000
G1 X48.298 Y-34.065 E0.0073
G1 X50.677 Y-34.065 E0.0641
G1 X50.687 Y-34.074 E0.0004
G1 X58.109 Y-34.074 E0.2000
G1 X58.330 Y-33.854 E0.0084
G1 X59.719 Y-33.854 E0.0374
G1 X59.951 Y-34.086 E0.0089
G1 X67.374 Y-34.086 E0.2000
G1 X67.563 Y-33.897 E0.0072
G1 X70.311 Y-33.897 E0.0740
G1 X70.622 Y-33.586 E0.0118
G1 X71.636 Y-33.593 E0.0273
G1 X71.699 Y-33.656 E0.0024
G1 X79.121 Y-33.656 E0.2000
G1 X79.177 Y-33.600 E0.0022
G1 X82.439 Y-33.600 E0.0879
G1 X82.591 Y-33.447 E0.0058
G1 X88.819 Y-33.413 E0.1678
G1 X89.186 Y-33.044 E0.0140
G1 X94.459 Y-33.052 E0.1421
G1 X96.571 Y-30.942 E0.0804
G1 X96.571 Y-30.207 E0.0198
G1 X97.198 Y-30.207 E0.0169
G1 X97.217 Y-30.188 E0.0007
G1 X102.357 Y-30.188 E0.1385
G1 X104.466 Y-28.079 E0.0803
G1 X104.466 Y-20.657 E0.2000
G1 X104.041 Y-20.232 E0.0162
G1 X105.036 Y-19.237 E0.0379
G1 X105.036 Y-11.814 E0.2000
G1 X103.600 Y-10.379 E0.0547
G1 X103.600 Y12.688 E0.6214
G1 X105.334 Y14.422 E0.0661
G1 X105.334 Y21.844 E0.2000
G1 X103.225 Y23.953 E0.0803
G1 X95.990 Y23.953 E0.1949
G1 X95.964 Y23.980 E0.0010
G1 X88.541 Y23.980 E0.2000
G1 X88.383 Y23.821 E0.0060
G1 X87.773 Y23.821 E0.0164
G1 X87.711 Y23.884 E0.0024
G1 X76.349 Y23.922 E0.3061
G1 X76.246 Y23.820 E0.0039
G1 X64.372 Y23.820 E0.3199
G1 X64.332 Y23.860 E0.0015
G1 X60.540 Y23.860 E0.1022
G1 X60.365 Y24.035 E0.0067
G1 X52.943 Y24.035 E0.2000
G1 X52.792 Y23.885 E0.0057
G1 X48.631 Y23.885 E0.1121
G1 X48.566 Y23.820 E0.0025
G1 X48.407 Y23.820 E0.0043
G1 X48.260 Y23.966 E0.0056
G1 X36.165 Y23.960 E0.3259
G1 X36.089 Y24.036 E0.0029
G1 X28.667 Y24.036 E0.2000
G1 X28.451 Y23.820 E0.0082
G1 X26.380 Y23.820 E0.0558
G1 X23.933 Y23.830 E0.0659
G1 X23.771 Y23.992 E0.0062
G1 X15.896 Y23.992 E0.2122
G1 X15.720 Y24.168 E0.0067
G1 X8.297 Y24.168 E0.2000
G1 X8.130 Y24.000 E0.0064
G1 X4.911 Y24.000 E0.0867
G1 X4.853 Y23.942 E0.0022
G1 X3.927 Y23.942 E0.0249
G1 X3.813 Y24.056 E0.0043
G1 X-3.609 Y24.056 E0.2000
G1 X-3.770 Y23.895 E0.0061
G1 E-1.0000 F1200
G1 X-3.443 Y23.656 F4200
G1 E1.0000 F1200
G1 X-3.604 Y23.495 E0.0061 F1500
G1 X-8.491 Y23.484 E0.1317
G1 X-8.525 Y23.519 E0.0013
G1 X-15.616 Y23.519 E0.1910
G1 X-15.715 Y23.420 E0.0038
G1 X-23.797 Y23.420 E0.2177
G1 X-23.941 Y23.564 E0.0055
G1 X-31.032 Y23.564 E0.1910
G1 X-31.079 Y23.517 E0.0018
G1 X-35.367 Y23.517 E0.1155
G1 X-35.466 Y23.418 E0.0038
G1 X-42.096 Y23.397 E0.1786
G1 X-43.485 Y23.408 E0.0374
G1 X-43.624 Y23.548 E0.0053
G1 X-50.715 Y23.548 E0.1910
G1 X-50.843 Y23.420 E0.0049
G1 X-56.204 Y23.420 E0.1444
G1 X-56.273 Y23.490 E0.0026
G1 X-63.364 Y23.490 E0.1910
G1 X-63.434 Y23.420 E0.0026
G1 X-67.635 Y23.421 E0.1132
G1 X-67.674 Y23.460 E0.0015
G1 X-74.765 Y23.460 E0.1910
G1 X-74.806 Y23.420 E0.0015
G1 X-86.365 Y23.420 E0.3114
G1 X-86.365 Y26.373 E0.0796
G1 X-86.498 Y26.507 E0.0051
G1 X-86.498 Y29.187 E0.0722
G1 X-88.373 Y31.061 E0.0714
G1 X-88.428 Y31.061 E0.0015
G1 X-89.087 Y31.720 E0.0251
G1 X-90.125 Y31.720 E0.0280
G1 X-90.891 Y32.485 E0.0292
G1 X-97.982 Y32.485 E0.1910
G1 X-98.102 Y32.365 E0.0046
G1 X-99.961 Y32.365 E0.0501
G1 X-100.779 Y31.547 E0.0312
G1 X-100.962 Y31.547 E0.0049
G1 X-102.837 Y29.673 E0.0714
G1 X-102.837 Y29.380 E0.0079
G1 X-104.106 Y28.111 E0.0483
G1 X-104.106 Y21.020 E0.1910
G1 X-103.630 Y20.544 E0.0181
G1 X-103.630 Y18.306 E0.0603
G1 X-103.200 Y17.877 E0.0164
G1 X-103.200 Y-9.388 E0.7345
G1 X-103.938 Y-10.126 E0.0281
G1 X-103.938 Y-13.631 E0.0944
G1 X-104.082 Y-13.775 E0.0055
G1 X-104.096 Y-18.233 E0.1201
G1 X-104.139 Y-18.276 E0.0016
G1 X-104.139 Y-25.367 E0.1910
G1 X-103.867 Y-25.638 E0.0104
G1 X-103.867 Y-27.813 E0.0586
G1 X-103.589 Y-28.091 E0.0106
G1 X-103.589 Y-30.823 E0.0736
G1 X-101.715 Y-32.698 E0.0714
G1 X-94.624 Y-32.698 E0.1910
G1 X-94.509 Y-32.583 E0.0044
G1 X-92.860 Y-32.583 E0.0444
G1 X-92.800 Y-32.643 E0.0023
G1 X-85.709 Y-32.643 E0.1910
G1 X-85.672 Y-32.606 E0.0014
G1 X-83.953 Y-32.606 E0.0463
G1 X-83.883 Y-32.676 E0.0027
G1 X-80.929 Y-32.676 E0.0796
G1 X-80.888 Y-32.717 E0.0016
G1 X-70.599 Y-32.719 E0.2772
G1 X-70.441 Y-32.561 E0.0060
G1 X-64.500 Y-32.572 E0.1601
G1 X-64.463 Y-32.535 E0.0014
G1 X-58.269 Y-32.556 E0.1669
G1 X-58.092 Y-32.380 E0.0067
G1 X-49.319 Y-32.347 E0.2364
G1 X-47.405 Y-32.347 E0.0516
G1 X-47.346 Y-32.406 E0.0022
G1 X-34.373 Y-32.428 E0.3495
G1 X-34.124 Y-32.179 E0.0095
G1 X-32.994 Y-32.179 E0.0304
G1 X-32.653 Y-32.520 E0.0130
G1 X-25.562 Y-32.520 E0.1910
G1 X-25.486 Y-32.443 E0.0029
G1 X-16.001 Y-32.405 E0.2555
G1 X-15.834 Y-32.237 E0.0064
G1 X-12.955 Y-32.237 E0.0776
G1 X-12.739 Y-32.453 E0.0082
G1 X-5.648 Y-32.453 E0.1910
G1 X-5.559 Y-32.364 E0.0034
G1 X0.176 Y-32.346 E0.1545
G1 X0.287 Y-32.457 E0.0042
G1 X3.568 Y-32.457 E0.0884
G1 X3.775 Y-32.665 E0.0079
